luts/daily.cube
TITLE "Generated by Resolve"
LUT_3D_SIZE 5
0 0 0
0.263203 0 0
0.569619 0 0
1 0 0
1 0 0
0 0.199374 0
0.163241 0.170596 0
0.500313 0.127687 0
0.921172 0.0686961 0
1 0 0
0 0.444862 0
0.032105 0.438865 0
0.40238 0.415381 0
0.793439 0.385489 0
1 0.310079 0
0 0.756939 0
0 0.75436 0
0.30251 0.719982 0
0.662638 0.684169 0
1 0.611597 0
0 1 0
0 1 0
0.0715953 1 0
0.485328 1 0
0.960525 1 0
0 0 0.354803
0.22974 0 0.249653
0.529137 0 0.215656
0.938491 0 0.152789
1 0 0.0686198
0 0.184375 0.201892
0.150851 0.158694 0.176516
0.479561 0.120256 0.138384
0.87866 0.0707561 0.0890364
1 0 0.0176852
0 0.425147 0.085359
0.0335546 0.432593 0.0643473
0.398169 0.411612 0.0319371
0.785946 0.381552 0.00102235
1 0.307073 0
0 0.733181 0.0129091
0 0.742992 0
0.295232 0.712612 0
0.654841 0.676509 0
1 0.606439 0
0 1 0
0 1 0
0.0734417 1 0
0.4907 1 0
0.961868 1 0
0 0 0.760235
0.242893 0 0.623514
0.508492 0 0.542367
0.87718 0 0.495323
1 0 0.423606
0 0.178012 0.600732
0.132372 0.140719 0.583352
0.447883 0.114107 0.487388
0.80856 0.0780499 0.462013
1 0.00941482 0.401862
0 0.422812 0.453452
0.0345769 0.421088 0.451926
0.387976 0.401907 0.433188
0.753613 0.375952 0.407752
1 0.305303 0.337652
0 0.717372 0.393286
0 0.71516 0.388235
0.288762 0.695384 0.342565
0.641199 0.662226 0.30399
1 0.597848 0.240391
0 1 0.190372
0 1 0.182589
0.087953 1 0.14873
0.494575 1 0.141146
0.955947 1 0.136919
0 0 1
0.217533 0 1
0.501869 0 1
0.838712 0 0.93872
1 0 0.841169
0 0.138399 1
0.0938735 0.102693 1
0.451591 0.0788739 1
0.77792 0.0697337 0.87982
1 0.0112154 0.819074
0 0.419394 0.993423
0 0.411872 1
0.366094 0.380652 0.979797
0.709499 0.373419 0.808682
1 0.310903 0.747845
0 0.717433 0.784573
0 0.709804 0.778286
0.286671 0.677913 0.742
0.628946 0.649134 0.704311
1 0.596414 0.645624
0 1 0.562264
0 1 0.569436
0.14052 1 0.572992
0.507988 1 0.569802
0.948653 0.999847 0.570199
0 0 1
0.181277 0 1
0.495064 0 1
0.825238 0 1
1 0 1
0 0.0979477 1
0.0545052 0.0638132 1
0.433005 0.0331731 1
0.779522 0.0329747 1
1 0 1
0 0.392554 1
0 0.380652 1
0.332021 0.347097 1
0.711299 0.330968 1
1 0.290684 1
0 0.706081 1
0 0.693553 1
0.208286 0.653956 1
0.595605 0.615244 1
1 0.588754 1
0 1 1
0 1 1
0.102525 1 1
0.512367 1 1
0.935286 0.987549 1
