luts/daily.cube
TITLE "Generated by Resolve"
LUT_3D_SIZE 33
0 0 0
0.0316777 0 0
0.0647593 0 0
0.0978408 0 0
0.130678 0 0
0.163409 0 0
0.196277 0 0
0.229419 0 0
0.263203 0 0
0.297765 0 0
0.333242 0 0
0.369574 0 0
0.407706 0 0
0.446906 0 0
0.4878 0 0
0.529793 0 0
0.569619 0 0
0.608042 0 0
0.647181 0 0
0.691615 0 0
0.746365 0 0
0.809766 0 0
0.878645 0 0
0.949126 0 0
1 0 0
1 0 0
1 0 0
1 0 0
1 0 0
1 0 0
1 0 0
1 0 0
1 0 0
0 0.0239261 0
0.0193942 0.0203403 0
0.0543526 0.0162814 0
0.0881514 0.0125277 0
0.121218 0.00868238 0
0.154498 0.005066 0
0.187411 0.00128176 0
0.220401 0 0
0.254368 0 0
0.288685 0 0
0.3243 0 0
0.360906 0 0
0.399268 0 0
0.438758 0 0
0.479789 0 0
0.521752 0 0
0.562387 0 0
0.60061 0 0
0.639567 0 0
0.682277 0 0
0.735363 0 0
0.797024 0 0
0.865217 0 0
0.935607 0 0
1 0 0
1 0 0
1 0 0
1 0 0
1 0 0
1 0 0
1 0 0
1 0 0
1 0 0
0 0.0493477 0
0.005066 0.0461128 0
0.0399634 0.0417792 0
0.0746471 0.0377661 0
0.108766 0.0335699 0
0.142626 0.0296788 0
0.176303 0.0257572 0
0.210269 0.0218509 0
0.244266 0.0176547 0
0.279316 0.0134432 0
0.315084 0.00874342 0
0.352117 0.00395209 0
0.390463 0 0
0.430076 0 0
0.471305 0 0
0.51342 0 0
0.554803 0 0
0.593378 0 0
0.631876 0 0
0.673503 0 0
0.724559 0 0
0.784985 0 0
0.852461 0 0
0.92285 0 0
0.991775 0 0
1 0 0
1 0 0
1 0 0
1 0 0
1 0 0
1 0 0
1 0 0
1 0 0
0 0.0745098 0
0 0.0712444 0
0.0256504 0.0669718 0
0.06009 0.0629435 0
0.0946975 0.0585641 0
0.129274 0.0547189 0
0.163668 0.0503548 0
0.198047 0.0463264 0
0.232807 0.0418708 0
0.268284 0.0375372 0
0.30457 0.0329137 0
0.342458 0.0279698 0
0.381247 0.0224918 0
0.421683 0.0168917 0
0.462959 0.0107729 0
0.505119 0.00482185 0
0.547082 0 0
0.586114 0 0
0.624414 0 0
0.665171 0 0
0.714275 0 0
0.773556 0 0
0.840238 0 0
0.910292 0 0
0.979629 0 0
1 0 0
1 0 0
1 0 0
1 0 0
1 0 0
1 0 0
1 0 0
1 0 0
0 0.0992599 0
0 0.0961166 0
0.0113069 0.092256 0
0.0457771 0.0880446 0
0.0803388 0.0840772 0
0.114794 0.0797436 0
0.149584 0.0755322 0
0.184604 0.0711681 0
0.219913 0.0665904 0
0.256168 0.0622721 0
0.29308 0.0573129 0
0.331289 0.0523232 0
0.370947 0.0466926 0
0.41181 0.0410773 0
0.453529 0.0349279 0
0.49659 0.0289769 0
0.539025 0.0227207 0
0.578943 0.0175174 0
0.617075 0.0125582 0
0.656855 0.00723278 0
0.704448 7.62951e-05 0
0.762249 0 0
0.828016 0 0
0.897871 0 0
0.967285 0 0
1 0 0
1 0 0
1 0 0
1 0 0
1 0 0
1 0 0
1 0 0
1 0 0
0 0.123949 0
0 0.120943 0
0 0.117311 0
0.0312505 0.113176 0
0.0656596 0.109209 0
0.100328 0.104845 0
0.135149 0.100786 0
0.170565 0.0962539 0
0.206607 0.0921035 0
0.242985 0.0873732 0
0.280644 0.082536 0
0.319417 0.0772564 0
0.35967 0.0715343 0
0.401465 0.0659342 0
0.443641 0.0598611 0
0.486961 0.0537881 0
0.530282 0.047425 0
0.570794 0.0421912 0
0.609186 0.0373236 0
0.649073 0.0323644 0
0.695521 0.0257572 0
0.751461 0.0163119 0
0.815961 0.00500496 0
0.885527 0 0
0.955398 0 0
1 0 0
1 0 0
1 0 0
1 0 0
1 0 0
1 0 0
1 0 0
1 0 0
0 0.14873 0
0 0.146151 0
0 0.142443 0
0.0167544 0.138582 0
0.0510567 0.134417 0
0.0856031 0.130205 0
0.120607 0.126314 0
0.156222 0.12192 0
0.19234 0.117647 0
0.229282 0.112856 0
0.267414 0.108125 0
0.306783 0.1028 0
0.348226 0.0973373 0
0.390341 0.0914015 0
0.433219 0.0852369 0
0.477089 0.0792096 0
0.520851 0.0729992 0
0.562554 0.0676585 0
0.601205 0.0631266 0
0.640635 0.0582742 0
0.685695 0.0523384 0
0.740459 0.0435798 0
0.804059 0.0324559 0
0.873579 0.0201267 0
0.944366 0.00755322 0
1 0 0
1 0 0
1 0 0
1 0 0
1 0 0
1 0 0
1 0 0
1 0 0
0 0.173846 0
0 0.17142 0
0 0.167895 0
0.0019379 0.164263 0
0.0362097 0.160143 0
0.0709392 0.156222 0
0.10602 0.152224 0
0.141512 0.148058 0
0.178027 0.14374 0
0.215061 0.139101 0
0.253666 0.134386 0
0.29369 0.129274 0
0.335683 0.123674 0
0.378592 0.117845 0
0.422141 0.111696 0
0.466331 0.105776 0
0.510842 0.0997482 0
0.55346 0.0943618 0
0.592874 0.0899519 0
0.632242 0.085359 0
0.676295 0.0799268 0
0.729625 0.0718853 0
0.792477 0.061677 0
0.861738 0.0496529 0
0.932754 0.0373541 0
1 0.0255589 0
1 0.0149081 0
1 0.00503548 0
1 0 0
1 0 0
1 0 0
1 0 0
1 0 0
0 0.199374 0
0 0.197024 0
0 0.19379 0
0 0.19028 0
0.0211948 0.186618 0
0.0561685 0.182818 0
0.0909438 0.17882 0
0.126711 0.174685 0
0.163241 0.170596 0
0.200793 0.166155 0
0.239734 0.16173 0
0.27985 0.156588 0
0.322621 0.150988 0
0.366354 0.145205 0
0.410483 0.139284 0
0.455558 0.133577 0
0.500313 0.127687 0
0.543954 0.122133 0
0.584131 0.117998 0
0.623529 0.113909 0
0.666651 0.108827 0
0.718563 0.101732 0
0.780667 0.0921798 0
0.8495 0.0807355 0
0.921172 0.0686961 0
0.991119 0.0571603 0
1 0.046952 0
1 0.0372931 0
1 0.027985 0
1 0.0189822 0
1 0.0102083 0
1 0.00148013 0
1 0 0
0 0.225757 0
0 0.223392 0
0 0.220371 0
0 0.217304 0
0.00569161 0.213611 0
0.0405737 0.210086 0
0.0756695 0.206256 0
0.111391 0.202472 0
0.148302 0.198398 0
0.185962 0.194232 0
0.225315 0.189868 0
0.265858 0.184985 0
0.30869 0.179507 0
0.353323 0.173907 0
0.398566 0.168261 0
0.443824 0.162524 0
0.489509 0.157076 0
0.533944 0.151675 0
0.574884 0.147372 0
0.614664 0.143954 0
0.657664 0.139788 0
0.708019 0.133501 0
0.768902 0.124437 0
0.83711 0.113573 0
0.909636 0.102113 0
0.981094 0.0912032 0
1 0.0812238 0
1 0.0716411 0
1 0.0624857 0
1 0.0538491 0
1 0.0454108 0
1 0.0372931 0
1 0.0289921 0
0 0.252781 0
0 0.250736 0
0 0.248066 0
0 0.245136 0
0 0.241581 0
0.0245212 0.238346 0
0.0597238 0.234745 0
0.0958572 0.231235 0
0.132982 0.227588 0
0.170764 0.223499 0
0.210163 0.219135 0
0.251316 0.214679 0
0.294667 0.209613 0
0.339986 0.204166 0
0.386007 0.198734 0
0.431891 0.19321 0
0.477836 0.1879 0
0.523262 0.18291 0
0.565576 0.179278 0
0.605875 0.175952 0
0.648142 0.172198 0
0.697108 0.166934 0
0.757 0.158907 0
0.825101 0.148714 0
0.89778 0.137713 0
0.969543 0.127153 0
1 0.117296 0
1 0.108095 0
1 0.0993057 0
1 0.0907759 0
1 0.0827344 0
1 0.0746014 0
1 0.0665904 0
0 0.281224 0
0 0.27921 0
0 0.276753 0
0 0.274174 0
0 0.271077 0
0.00741588 0.267857 0
0.0431373 0.264897 0
0.0792554 0.261448 0
0.116472 0.257954 0
0.154818 0.254429 0
0.194583 0.250324 0
0.235935 0.245975 0
0.280262 0.241474 0
0.325978 0.236347 0
0.372686 0.231067 0
0.419287 0.225879 0
0.465721 0.220951 0
0.512169 0.216739 0
0.555749 0.213046 0
0.596307 0.210285 0
0.638483 0.207111 0
0.686168 0.202609 0
0.744701 0.19559 0
0.812451 0.186313 0
0.885054 0.175677 0
0.957382 0.165118 0
1 0.155352 0
1 0.146319 0
1 0.137911 0
1 0.129763 0
1 0.121553 0
1 0.11339 0
1 0.105272 0
0 0.31075 0
0 0.309316 0
0 0.307134 0
0 0.30486 0
0 0.302251 0
0 0.299397 0
0.0252079 0.296529 0
0.0615244 0.293645 0
0.0988785 0.290364 0
0.137545 0.286992 0
0.17818 0.283864 0
0.220249 0.279896 0
0.264515 0.27538 0
0.31078 0.270542 0
0.358526 0.265568 0
0.40618 0.261051 0
0.45359 0.256931 0
0.499901 0.252735 0
0.544564 0.249149 0
0.586114 0.246677 0
0.628244 0.244221 0
0.674754 0.240787 0
0.731365 0.23473 0
0.797772 0.22594 0
0.869902 0.215808 0
0.943313 0.205478 0
1 0.195865 0
1 0.18706 0
1 0.178515 0
1 0.170214 0
1 0.162066 0
1 0.153903 0
1 0.145464 0
0 0.341955 0
0 0.340795 0
0 0.339132 0
0 0.337255 0
0 0.334874 0
0 0.332555 0
0.00654612 0.33019 0
0.0434272 0.32755 0
0.081178 0.324773 0
0.120302 0.322286 0
0.160998 0.319036 0
0.203662 0.315557 0
0.248844 0.311559 0
0.295567 0.30721 0
0.34406 0.302525 0
0.392599 0.298405 0
0.440391 0.294423 0
0.487449 0.29073 0
0.532921 0.28751 0
0.575189 0.285267 0
0.617594 0.283436 0
0.662943 0.280552 0
0.717006 0.275303 0
0.781735 0.267414 0
0.852811 0.257481 0
0.926314 0.247288 0
0.998016 0.237766 0
1 0.228779 0
1 0.220081 0
1 0.211658 0
1 0.203311 0
1 0.195102 0
1 0.186786 0
0 0.374838 0
0 0.373709 0
0 0.372702 0
0 0.371328 0
0 0.369604 0
0 0.367559 0
0 0.365362 0
0.0256046 0.363745 0
0.0638285 0.361639 0
0.103258 0.359243 0
0.144274 0.356451 0
0.187259 0.353307 0
0.232868 0.349691 0
0.280674 0.346059 0
0.329778 0.341833 0
0.378759 0.337652 0
0.427131 0.33373 0
0.474327 0.330358 0
0.520531 0.327428 0
0.564126 0.325536 0
0.606088 0.323674 0
0.650233 0.321233 0
0.701686 0.316945 0
0.764416 0.309621 0
0.83418 0.30042 0
0.907332 0.29041 0
0.979294 0.280415 0
1 0.27129 0
1 0.262272 0
1 0.253635 0
1 0.245228 0
1 0.236759 0
1 0.228122 0
0 0.409049 0
0 0.408759 0
0 0.407828 0
0 0.406744 0
0 0.405585 0
0 0.404211 0
0 0.402792 0
0.00875868 0.401297 0
0.0472572 0.399619 0
0.0868544 0.397726 0
0.128496 0.395453 0
0.171969 0.392737 0
0.218219 0.389685 0
0.266239 0.385962 0
0.315694 0.382055 0
0.365637 0.378119 0
0.414359 0.374502 0
0.46186 0.371145 0
0.508217 0.368582 0
0.552483 0.366064 0
0.594598 0.364355 0
0.637736 0.362127 0
0.68632 0.358541 0
0.746166 0.352239 0
0.814099 0.343328 0
0.885939 0.333272 0
0.957549 0.323262 0
1 0.313817 0
1 0.304753 0
1 0.296025 0
1 0.287221 0
1 0.278462 0
1 0.26949 0
0 0.444862 0
0 0.44477 0
0 0.444465 0
0 0.443915 0
0 0.443091 0
0 0.442435 0
0 0.441413 0
0 0.440192 0
0.032105 0.438865 0
0.0722362 0.437201 0
0.114107 0.435401 0
0.157946 0.433173 0
0.204395 0.430167 0
0.252842 0.426581 0
0.302464 0.422705 0
0.35285 0.418708 0
0.40238 0.415381 0
0.450141 0.412085 0
0.496193 0.409216 0
0.541161 0.406592 0
0.583581 0.404654 0
0.625818 0.402686 0
0.672343 0.399847 0
0.72842 0.393805 0
0.793439 0.385489 0
0.86389 0.375509 0
0.935058 0.36527 0
1 0.355535 0
1 0.346426 0
1 0.337301 0
1 0.328298 0
1 0.319219 0
1 0.310079 0
0 0.481788 0
0 0.482017 0
0 0.482139 0
0 0.482246 0
0 0.482155 0
0 0.481605 0
0 0.480827 0
0 0.479912 0
0.0191806 0.478996 0
0.0597086 0.477791 0
0.101518 0.476112 0
0.145418 0.473777 0
0.192035 0.470832 0
0.240574 0.467384 0
0.290608 0.463462 0
0.341329 0.459449 0
0.390875 0.455558 0
0.43859 0.452171 0
0.484749 0.449119 0
0.530083 0.446281 0
0.572976 0.444022 0
0.614893 0.442252 0
0.659251 0.439338 0
0.711452 0.434256 0
0.773831 0.426368 0
0.842237 0.416739 0
0.913191 0.406622 0
0.982467 0.396475 0
1 0.386923 0
1 0.377676 0
1 0.368521 0
1 0.359411 0
1 0.350576 0
0 0.519692 0
0 0.520363 0
0 0.520882 0
0 0.52134 0
0 0.521447 0
0 0.521263 0
0 0.520882 0
0 0.519997 0
0.00820935 0.519158 0
0.0481117 0.518029 0
0.0901808 0.516274 0
0.134127 0.513939 0
0.180682 0.510887 0
0.229236 0.507515 0
0.279469 0.503563 0
0.330098 0.499306 0
0.380102 0.495201 0
0.427955 0.491554 0
0.473991 0.488243 0
0.519249 0.485176 0
0.562936 0.482368 0
0.604257 0.480156 0
0.647166 0.477394 0
0.696284 0.472816 0
0.755184 0.465492 0
0.821515 0.456458 0
0.891112 0.446189 0
0.960006 0.436149 0
1 0.426459 0
1 0.417243 0
1 0.408164 0
1 0.399374 0
1 0.390204 0
0 0.557916 0
0 0.559182 0
0 0.559945 0
0 0.560418 0
0 0.560616 0
0 0.560616 0
0 0.560418 0
0 0.55993 0
0 0.558907 0
0.0383612 0.557687 0
0.0801556 0.555871 0
0.123903 0.553368 0
0.170153 0.550317 0
0.218708 0.546731 0
0.268605 0.542504 0
0.319051 0.538003 0
0.369024 0.533562 0
0.416892 0.529641 0
0.463066 0.526329 0
0.50808 0.523049 0
0.552224 0.519799 0
0.593561 0.517189 0
0.635355 0.514458 0
0.681666 0.510491 0
0.737911 0.50428 0
0.801907 0.495659 0
0.870176 0.485924 0
0.939605 0.475883 0
1 0.466072 0
1 0.456886 0
1 0.447395 0
1 0.437919 0
1 0.428382 0
0 0.597009 0
0 0.598016 0
0 0.598764 0
0 0.59939 0
0 0.599466 0
0 0.599496 0
0 0.599359 0
0 0.598642 0
0 0.597543 0
0.0294499 0.596216 0
0.0708476 0.594324 0
0.114641 0.592004 0
0.160525 0.588693 0
0.208728 0.58471 0
0.258335 0.580316 0
0.308736 0.575601 0
0.358587 0.570932 0
0.406561 0.56669 0
0.452216 0.563073 0
0.496864 0.559487 0
0.541436 0.556069 0
0.583185 0.553475 0
0.624308 0.551339 0
0.668772 0.548165 0
0.721248 0.542718 0
0.782452 0.534829 0
0.848875 0.525338 0
0.917876 0.515007 0
0.986526 0.504997 0
1 0.495369 0
1 0.485634 0
1 0.475837 0
1 0.46598 0
0 0.635615 0
0 0.636622 0
0 0.637385 0
0 0.637873 0
0 0.638361 0
0 0.638285 0
0 0.637766 0
0 0.636973 0
0 0.635554 0
0.0202335 0.633921 0
0.061265 0.63209 0
0.104341 0.629389 0
0.150164 0.625818 0
0.198154 0.621561 0
0.247532 0.616861 0
0.298009 0.611948 0
0.348318 0.607141 0
0.396551 0.602792 0
0.442618 0.599054 0
0.487449 0.595712 0
0.532723 0.592248 0
0.575174 0.589746 0
0.615869 0.587457 0
0.658152 0.584466 0
0.707073 0.579568 0
0.765011 0.572122 0
0.829328 0.562875 0
0.897505 0.552407 0
0.96556 0.541848 0
1 0.531914 0
1 0.522042 0
1 0.512154 0
1 0.502373 0
0 0.67451 0
0 0.675486 0
0 0.676204 0
0 0.676982 0
0 0.677073 0
0 0.676783 0
0 0.676188 0
0 0.675196 0
0 0.673793 0
0.00842298 0.672129 0
0.0488746 0.66981 0
0.0918441 0.666743 0
0.137621 0.662898 0
0.185626 0.658503 0
0.235767 0.65388 0
0.28661 0.64892 0
0.337362 0.643839 0
0.386297 0.639231 0
0.432822 0.63534 0
0.477943 0.631769 0
0.523339 0.628061 0
0.5664 0.62475 0
0.606653 0.622095 0
0.647547 0.619058 0
0.693492 0.614511 0
0.748455 0.60766 0
0.810803 0.598718 0
0.877226 0.588495 0
0.944747 0.57789 0
1 0.567605 0
1 0.557656 0
1 0.547982 0
1 0.538125 0
0 0.714946 0
0 0.715999 0
0 0.716564 0
0 0.716747 0
0 0.716823 0
0 0.716411 0
0 0.715648 0
0 0.714687 0
0 0.713008 0
0 0.710857 0
0.0315557 0.7084 0
0.0748302 0.705287 0
0.120989 0.701503 0
0.169894 0.697246 0
0.220584 0.69221 0
0.272236 0.686793 0
0.323445 0.681331 0
0.373129 0.676158 0
0.420035 0.671824 0
0.465568 0.667826 0
0.510781 0.663523 0
0.554833 0.659403 0
0.595315 0.656168 0
0.63566 0.653071 0
0.679118 0.648981 0
0.731624 0.642527 0
0.791241 0.634012 0
0.856458 0.624018 0
0.923873 0.613474 0
0.990234 0.603189 0
1 0.5935 0
1 0.583719 0
1 0.573999 0
0 0.756939 0
0 0.757809 0
0 0.758175 0
0 0.758343 0
0 0.758144 0
0 0.757626 0
0 0.757076 0
0 0.755901 0
0 0.75436 0
0 0.752331 0
0.00917067 0.749828 0
0.0522011 0.746792 0
0.0987259 0.742977 0
0.147707 0.737881 0
0.198352 0.732174 0
0.250538 0.726146 0
0.30251 0.719982 0
0.353079 0.714366 0
0.4009 0.709133 0
0.446754 0.704417 0
0.492653 0.699641 0
0.537606 0.695064 0
0.579477 0.69131 0
0.619806 0.688167 0
0.662638 0.684169 0
0.712306 0.678386 0
0.770245 0.670314 0
0.834028 0.660731 0
0.901259 0.650507 0
0.96878 0.640284 0
1 0.630549 0
1 0.621042 0
1 0.611597 0
0 0.799878 0
0 0.800565 0
0 0.800824 0
0 0.8009 0
0 0.801068 0
0 0.800855 0
0 0.800244 0
0 0.799222 0
0 0.797681 0
0 0.795483 0
0 0.792874 0
0.0238499 0.78941 0
0.0702525 0.784863 0
0.119127 0.779416 0
0.17052 0.773144 0
0.222812 0.766629 0
0.275547 0.76022 0
0.326635 0.753918 0
0.375113 0.748241 0
0.421759 0.742947 0
0.468376 0.737865 0
0.514702 0.732784 0
0.557473 0.728847 0
0.598413 0.725277 0
0.640635 0.721553 0
0.68864 0.716258 0
0.744915 0.708812 0
0.807935 0.699763 0
0.875349 0.690013 0
0.942733 0.68014 0
1 0.670375 0
1 0.66099 0
1 0.651942 0
0 0.843565 0
0 0.844297 0
0 0.844846 0
0 0.84538 0
0 0.845518 0
0 0.845197 0
0 0.844404 0
0 0.843137 0
0 0.841352 0
0 0.83917 0
0 0.835874 0
0 0.832013 0
0.0370947 0.82707 0
0.0863966 0.821241 0
0.137697 0.814817 0
0.190814 0.808087 0
0.243763 0.801099 0
0.29572 0.794415 0
0.345037 0.788525 0
0.39234 0.783169 0
0.439963 0.778012 0
0.487037 0.772839 0
0.531731 0.768368 0
0.573434 0.764782 0
0.615671 0.761196 0
0.662348 0.75671 0
0.717418 0.750301 0
0.779171 0.741878 0
0.845869 0.732341 0
0.914076 0.72285 0
0.982345 0.713817 0
1 0.705211 0
1 0.696559 0
0 0.888197 0
0 0.888792 0
0 0.889509 0
0 0.889632 0
0 0.889464 0
0 0.888914 0
0 0.887892 0
0 0.886503 0
0 0.88455 0
