luts/daily.cube
TITLE "Generated by Resolve"
LUT_3D_SIZE 9
0 0 0
0.130678 0 0
0.263203 0 0
0.407706 0 0
0.569619 0 0
0.746365 0 0
1 0 0
1 0 0
1 0 0
0 0.0992599 0
0.0803388 0.0840772 0
0.219913 0.0665904 0
0.370947 0.0466926 0
0.539025 0.0227207 0
0.704448 7.62951e-05 0
0.967285 0 0
1 0 0
1 0 0
0 0.199374 0
0.0211948 0.186618 0
0.163241 0.170596 0
0.322621 0.150988 0
0.500313 0.127687 0
0.666651 0.108827 0
0.921172 0.0686961 0
1 0.027985 0
1 0 0
0 0.31075 0
0 0.302251 0
0.0988785 0.290364 0
0.264515 0.27538 0
0.45359 0.256931 0
0.628244 0.244221 0
0.869902 0.215808 0
1 0.178515 0
1 0.145464 0
0 0.444862 0
0 0.443091 0
0.032105 0.438865 0
0.204395 0.430167 0
0.40238 0.415381 0
0.583581 0.404654 0
0.793439 0.385489 0
1 0.346426 0
1 0.310079 0
0 0.597009 0
0 0.599466 0
0 0.597543 0
0.160525 0.588693 0
0.358587 0.570932 0
0.541436 0.556069 0
0.721248 0.542718 0
0.986526 0.504997 0
1 0.46598 0
0 0.756939 0
0 0.758144 0
0 0.75436 0
0.0987259 0.742977 0
0.30251 0.719982 0
0.492653 0.699641 0
0.662638 0.684169 0
0.901259 0.650507 0
1 0.611597 0
0 0.932204 0
0 0.93225 0
0 0.926513 0
0 0.911665 0
0.17702 0.885237 0
0.379156 0.862654 0
0.563119 0.8486 0
0.785428 0.827176 0
1 0.794537 0
0 1 0
0 1 0
0 1 0
0 1 0
0.0715953 1 0
0.288319 1 0
0.485328 1 0
0.684352 1 0
0.960525 1 0
0 0 0.178241
0.113787 0 0.124071
0.239384 0 0.113466
0.383749 0 0.0981613
0.548165 0 0.0762493
0.714549 0 0.0530404
0.978103 0 0.0033875
1 0 0
1 0 0
0 0.0914626 0.100298
0.0733959 0.0774548 0.0863966
0.207279 0.0620737 0.0711223
0.355825 0.0432136 0.0522011
0.52372 0.0193484 0.0285649
0.684474 0 0.0075227
0.937972 0 0
1 0 0
1 0 0
0 0.186465 0.0555428
0.0181125 0.179156 0.0334783
0.157259 0.164813 0.0144656
0.316579 0.145693 0
0.49308 0.123064 0
0.657649 0.105333 0
0.904112 0.0683299 0
1 0.0289311 0
1 0 0
0 0.297337 0
0 0.294682 0
0.0941787 0.286259 0
0.260884 0.271778 0
0.450385 0.253498 0
0.625406 0.24213 0
0.863844 0.215213 0
1 0.178393 0
1 0.145937 0
0 0.433402 0
0 0.437232 0
0.0296178 0.436927 0
0.202319 0.428595 0
0.400351 0.413565 0
0.581582 0.402686 0
0.790417 0.383551 0
1 0.344518 0
1 0.30837 0
0 0.587243 0
0 0.594049 0
0 0.595407 0
0.15761 0.586404 0
0.355276 0.568185 0
0.538796 0.553491 0
0.717998 0.54023 0
0.981888 0.501915 0
1 0.462593 0
0 0.745159 0
0 0.750332 0
0 0.750317 0
0.0956436 0.739757 0
0.298985 0.716503 0
0.489128 0.695872 0
0.658854 0.6804 0
0.896605 0.647166 0
1 0.609064 0
0 0.918822 0
0 0.922606 0
0 0.920562 0
0 0.907683 0
0.174258 0.881758 0
0.377661 0.859541 0
0.562982 0.846189 0
0.784268 0.8262 0
1 0.794324 0
0 1 0
0 1 0
0 1 0
0 1 0
0.0721904 1 0
0.290013 1 0
0.487922 1 0
0.685756 1 0
0.961242 1 0
0 0 0.354803
0.121736 0 0.294148
0.22974 0 0.249653
0.367239 0 0.234974
0.529137 0 0.215656
0.68751 0 0.196857
0.938491 0 0.152789
1 0 0.108873
1 0 0.0686198
0 0.0893416 0.280293
0.0649119 0.0689555 0.267445
0.190158 0.0602274 0.212985
0.332631 0.0429236 0.198428
0.500832 0.0192111 0.178088
0.659586 0 0.158953
0.899092 0 0.119173
1 0 0.0759289
1 0 0.0376287
0 0.184375 0.201892
0.0175631 0.17171 0.189151
0.150851 0.158694 0.176516
0.304906 0.141726 0.159472
0.479561 0.120256 0.138384
0.643259 0.103838 0.122087
0.87866 0.0707561 0.0890364
1 0.032166 0.05037
1 0 0.0176852
0 0.290211 0.146471
0 0.282994 0.138262
0.0928969 0.280766 0.121157
0.257084 0.268452 0.103731
0.44715 0.250721 0.0866255
0.620874 0.240101 0.0778668
0.853208 0.215473 0.0546578
1 0.179568 0.019852
1 0.147768 0
0 0.425147 0.085359
0 0.426825 0.0805066
0.0335546 0.432593 0.0643473
0.200107 0.426841 0.0486763
0.398169 0.411612 0.0319371
0.579614 0.400732 0.019852
0.785946 0.381552 0.00102235
1 0.342351 0
1 0.307073 0
0 0.578759 0.0500649
0 0.584176 0.0444953
0 0.589899 0.0269322
0.154543 0.583795 0.00663767
0.351949 0.565438 0
0.535943 0.550835 0
0.714153 0.537118 0
0.976699 0.498466 0
1 0.459403 0
0 0.733181 0.0129091
0 0.73785 0
0 0.742992 0
0.0933394 0.735775 0
0.295232 0.712612 0
0.485084 0.691752 0
0.654841 0.676509 0
0.891569 0.643946 0
1 0.606439 0
0 0.904341 0
0 0.908492 0
0 0.911086 0
0 0.902296 0
0.171939 0.878233 0
0.376791 0.856794 0
0.563424 0.843626 0
0.783383 0.825193 0
1 0.793973 0
0 1 0
0 1 0
0 1 0
0 1 0
0.0734417 1 0
0.291829 1 0
0.4907 1 0
0.6869 1 0
0.961868 1 0
0 0 0.534005
0.122744 0 0.489815
0.23444 0 0.418647
0.359442 0 0.387137
0.516594 0 0.368139
0.668864 0 0.352331
0.90425 0 0.314748
1 0 0.273945
1 0 0.236362
0 0.0815595 0.472282
0.055787 0.0600748 0.455604
0.196811 0.0469978 0.398611
0.322286 0.0380407 0.353216
0.483955 0.0161593 0.334493
0.639292 0 0.319936
0.860731 0 0.288334
1 0 0.248173
1 0 0.212741
0 0.184634 0.392996
0 0.168826 0.385977
0.142107 0.150042 0.375418
0.287831 0.139361 0.322286
0.45774 0.119478 0.305959
0.621668 0.103685 0.294392
0.841428 0.0755932 0.268833
1 0.0372015 0.232395
1 0.00483711 0.200946
0 0.289769 0.315129
0 0.28101 0.3066
0.0926375 0.273823 0.299596
0.251896 0.263432 0.289265
0.437491 0.247944 0.273976
0.609567 0.238514 0.264912
0.83064 0.217258 0.243763
1 0.181643 0.208316
1 0.14995 0.17702
0 0.421744 0.253498
0 0.420951 0.253437
0.0507973 0.422156 0.254108
0.198795 0.421897 0.239384
0.394369 0.407904 0.219532
0.575265 0.396551 0.207584
0.776196 0.378332 0.190249
1 0.340246 0.152621
1 0.305928 0.118837
0 0.573846 0.222461
0 0.575738 0.224475
0.0130159 0.578058 0.22182
0.155138 0.576989 0.198901
0.34641 0.560769 0.169787
0.530907 0.546242 0.151629
0.707897 0.532326 0.134966
0.96791 0.493812 0.096376
1 0.454963 0.05832
0 0.724437 0.190219
0 0.725444 0.185382
0 0.728695 0.173663
0.098085 0.726345 0.144518
0.289769 0.70695 0.113268
0.479622 0.686061 0.0946212
0.649348 0.670726 0.0808576
0.883955 0.639735 0.0493477
1 0.603143 0.0129549
0 0.891844 0.0895399
0 0.892058 0.0764324
0 0.894041 0.0546426
0 0.890913 0.0229801
0.169665 0.872007 0
0.375463 0.85211 0
0.563485 0.839536 0
0.781186 0.822782 0
1 0.792081 0
0 1 0
0 1 0
0 1 0
0 1 0
0.0767071 1 0
0.29308 1 0
0.493187 1 0
0.686992 1 0
0.960678 1 0
0 0 0.760235
0.115389 0 0.702754
0.242893 0 0.623514
0.360601 0 0.569299
0.508492 0 0.542367
0.656641 0 0.528008
0.87718 0 0.495323
1 0 0.457527
1 0 0.423606
0 0.0714275 0.676417
0.0458534 0.05037 0.655863
0.196979 0.0333104 0.611795
0.325521 0.0255894 0.545693
0.475135 0.00894179 0.512322
0.62649 0 0.498634
0.830747 0 0.473777
1 0 0.437934
1 0 0.406607
0 0.178012 0.600732
0 0.160174 0.596139
0.132372 0.140719 0.583352
0.294163 0.125673 0.531655
0.447883 0.114107 0.487388
0.606867 0.100481 0.478447
0.80856 0.0780499 0.462013
1 0.0411841 0.430167
1 0.00941482 0.401862
0 0.290822 0.526223
0 0.281468 0.522591
0.0626078 0.271809 0.520974
0.243305 0.255192 0.512444
0.422965 0.246372 0.464912
0.59089 0.238407 0.461097
0.794858 0.221271 0.448386
1 0.186114 0.416098
1 0.154101 0.385977
0 0.422812 0.453452
0 0.421469 0.452232
0.0345769 0.421088 0.451926
0.19823 0.415244 0.446036
0.387976 0.401907 0.433188
0.564477 0.391424 0.422827
0.753613 0.375952 0.407752
1 0.339178 0.371283
1 0.305303 0.337652
0 0.571191 0.421439
0 0.571389 0.422827
0.0144045 0.570352 0.42295
0.167666 0.563882 0.415473
0.34107 0.552895 0.390341
0.523552 0.53904 0.370672
0.697459 0.524971 0.355856
0.950545 0.487633 0.31957
1 0.449531 0.282185
0 0.717372 0.393286
0 0.71635 0.391424
0 0.71516 0.388235
0.11751 0.708812 0.375799
0.288762 0.695384 0.342565
0.471794 0.677119 0.317464
0.641199 0.662226 0.30399
0.871565 0.633021 0.274723
1 0.597848 0.240391
0 0.880735 0.298619
0 0.878096 0.291341
0 0.875914 0.281682
0 0.871153 0.264378
0.17615 0.858732 0.233433
0.372885 0.843427 0.216648
0.562661 0.831739 0.219287
0.77586 0.81709 0.21622
1 0.787259 0.195712
0 1 0.190372
0 1 0.186938
0 1 0.182589
0 1 0.171191
0.087953 1 0.14873
0.293645 1 0.135271
0.494575 1 0.141146
0.684779 1 0.150469
0.955947 1 0.136919
0 0 1
0.0931106 0 1
0.23534 0 0.963439
0.364553 0 0.819257
0.507774 0 0.732677
0.649592 0 0.69723
0.859281 0 0.662531
1 0 0.623804
1 0 0.591226
0 0.0489357 1
0.0242466 0.0292363 1
0.18172 0.0134279 0.928603
0.330785 0.00700389 0.792523
0.476661 0 0.694774
0.620706 0 0.664439
0.813397 0 0.640925
1 0 0.607004
1 0 0.577813
0 0.162188 0.906462
0 0.143862 0.891463
0.117479 0.12607 0.860746
0.292714 0.110414 0.779934
0.453498 0.104128 0.673548
0.602029 0.0964065 0.645731
0.791257 0.0782177 0.631434
1 0.0445411 0.602487
1 0.0144656 0.57702
0 0.286244 0.759411
0 0.275196 0.755444
0.0489357 0.264118 0.7561
0.235706 0.247654 0.736797
0.432135 0.236728 0.664744
0.585519 0.236759 0.630121
0.773373 0.224079 0.620905
1 0.191409 0.592569
1 0.159609 0.564813
0 0.428107 0.650706
0 0.426734 0.652522
0 0.425132 0.655711
0.171221 0.416144 0.653758
0.382315 0.396582 0.640513
0.5523 0.39057 0.598306
0.723659 0.378622 0.590219
0.978469 0.343999 0.559426
1 0.31017 0.528237
0 0.574853 0.607614
0 0.573953 0.606958
0 0.571527 0.604425
0.151247 0.563149 0.59617
0.340414 0.546792 0.580423
0.517235 0.533165 0.567391
0.682536 0.520607 0.555688
0.92491 0.486122 0.521965
1 0.448753 0.485191
0 0.71574 0.577523
0 0.71368 0.575341
0 0.71014 0.571557
0.121462 0.700099 0.562936
0.304112 0.681132 0.54699
0.468376 0.668238 0.524834
0.634348 0.655024 0.509926
0.859327 0.627771 0.484291
1 0.59472 0.453285
0 0.874662 0.485924
0 0.870405 0.47982
0 0.866087 0.473991
0.016846 0.857374 0.467704
0.20325 0.841627 0.457038
0.379477 0.833478 0.439109
0.563195 0.825086 0.437446
0.771389 0.812284 0.438117
1 0.783246 0.419821
0 1 0.382727
0 1 0.383581
0 1 0.386648
0 1 0.388571
0.117418 1 0.381826
0.304646 1 0.367681
0.496773 1 0.367163
0.683253 1 0.379599
0.950927 1 0.368551
0 0 1
0.0693675 0 1
0.217533 0 1
0.357092 0 1
0.501869 0 1
0.639246 0 1
0.838712 0 0.93872
1 0 0.885283
1 0 0.841169
0 0.0247349 1
0 0.00502022 1
0.158556 0 1
0.318242 0 1
0.473533 0 1
0.613443 0 0.952209
0.796246 0 0.896849
1 0 0.850965
1 0 0.815045
0 0.138399 1
0 0.120272 1
0.0938735 0.102693 1
0.273182 0.085893 1
0.451591 0.0788739 1
0.59855 0.0810101 0.926863
0.77792 0.0697337 0.87982
1 0.0392615 0.845335
1 0.0112154 0.819074
0 0.266453 1
0 0.254841 1
0.0267643 0.243275 1
0.215869 0.228061 1
0.424079 0.21532 1
0.585077 0.222446 0.913588
0.760815 0.217121 0.865324
1 0.187243 0.834073
1 0.157214 0.807538
0 0.419394 0.993423
0 0.416342 1
0 0.411872 1
0.149294 0.400763 1
0.366094 0.380652 0.979797
0.553201 0.374807 0.878141
0.709499 0.373419 0.808682
0.949767 0.343404 0.777401
1 0.310903 0.747845
0 0.575021 0.873014
0 0.57351 0.877684
0 0.56997 0.880476
0.108324 0.56022 0.874464
0.308171 0.541314 0.854566
0.50547 0.521981 0.830442
0.663523 0.517937 0.752438
0.886931 0.488228 0.722683
1 0.451301 0.687144
0 0.717433 0.784573
0 0.714778 0.78265
0 0.709804 0.778286
0.0955062 0.698634 0.766278
0.286671 0.677913 0.742
0.467262 0.660105 0.720119
0.628946 0.649134 0.704311
0.840696 0.626963 0.679103
1 0.596414 0.645624
0 0.872847 0.671565
0 0.867018 0.666453
0 0.861494 0.661814
0.0141146 0.851423 0.655085
0.213016 0.833585 0.645029
0.403403 0.820829 0.640574
0.569284 0.819562 0.633356
0.76936 0.810056 0.631006
1 0.781582 0.614878
0 1 0.562264
0 1 0.564279
0 1 0.569436
0 1 0.573343
0.14052 1 0.572992
0.335149 1 0.573602
0.507988 1 0.569802
0.684703 1 0.578271
0.948653 0.999847 0.570199
0 0 1
0.0477913 0 1
0.199557 0 1
0.348379 0 1
0.498955 0 1
0.63415 0 1
0.826917 0 1
1 0 1
1 0 1
0 0.0031281 1
0 0 1
0.137514 0 1
0.3037 0 1
0.469429 0 1
0.60972 0 1
0.787427 0 1
1 0 1
1 0 1
0 0.11751 1
0 0.0995804 1
0.0734569 0.082536 1
0.254795 0.0652018 1
0.443931 0.0542763 1
0.597284 0.0585946 1
0.773175 0.0532082 1
1 0.0279545 1
1 0.00166323 1
0 0.248341 1
0 0.236362 1
0.00770581 0.224826 1
0.198245 0.210697 1
0.410391 0.196414 1
0.583612 0.199603 1
0.758801 0.200183 1
0.997223 0.176089 1
1 0.147555 1
0 0.406027 1
0 0.401801 1
0 0.396094 1
0.130251 0.383597 1
0.348424 0.363241 1
0.543008 0.352544 1
0.707561 0.354467 1
0.93196 0.332341 1
1 0.301671 1
0 0.566537 1
0 0.562921 1
0 0.557198 1
0.077409 0.545327 1
0.284581 0.523934 1
0.486564 0.503487 1
0.660471 0.496178 1
0.864881 0.477516 1
1 0.444022 0.969284
0 0.71223 1
0 0.708751 1
0 0.703365 1
0.0429084 0.691356 1
0.2383 0.66891 1
0.431098 0.647776 1
0.612314 0.632105 1
0.810452 0.62211 0.952651
1 0.595621 0.922454
0 0.867155 0.968307
0 0.861158 0.962432
0 0.855543 0.957031
0 0.845487 0.947387
0.182849 0.827283 0.930175
0.38497 0.813748 0.915877
0.569604 0.807874 0.909041
0.761852 0.802045 0.90135
1 0.778012 0.875456
0 1 0.842435
0 1 0.84239
0 1 0.846006
0 1 0.845579
0.135332 1 0.835782
0.341955 1 0.828489
0.528283 1 0.826688
0.687068 1 0.812528
0.945296 0.997055 0.788083
0 0 1
0.0275883 0 1
0.181277 0 1
0.336858 0 1
0.495064 0 1
0.632746 0 1
0.825238 0 1
1 0 1
1 0 1
0 0 1
0 0 1
0.117525 0 1
0.287831 0 1
0.462501 0 1
0.608347 0 1
0.788922 0 1
1 0 1
1 0 1
0 0.0979477 1
0 0.080354 1
0.0545052 0.0638132 1
0.237369 0.0465858 1
0.433005 0.0331731 1
0.595819 0.035523 1
0.779522 0.0329747 1
1 0.0139162 1
1 0 1
0 0.231067 1
0 0.219333 1
0 0.208347 1
0.18175 0.194598 1
0.395865 0.179599 1
0.578195 0.178698 1
0.766995 0.178592 1
0.995712 0.160708 1
1 0.137057 1
0 0.392554 1
0 0.387442 1
0 0.380652 1
0.113466 0.36788 1
0.332021 0.347097 1
0.528939 0.333852 1
0.711299 0.330968 1
0.931685 0.315724 1
1 0.290684 1
0 0.555749 1
0 0.550439 1
0 0.543023 1
0.0531777 0.530159 1
0.265461 0.507042 1
0.468681 0.486061 1
0.651301 0.474189 1
0.865888 0.458366 1
1 0.433448 1
0 0.706081 1
0 0.701091 1
0 0.693553 1
0.00430304 0.679026 1
0.208286 0.653956 1
0.409323 0.630686 1
0.595605 0.615244 1
0.813779 0.602213 1
1 0.588754 1
0 0.862989 1
0 0.857145 1
0 0.851743 1
0 0.842206 1
0.132677 0.824063 1
0.342489 0.808316 1
0.540459 0.798321 1
0.748119 0.787732 1
0.998398 0.775402 1
0 1 1
0 1 1
0 1 1
0 1 1
0.102525 1 1
0.316426 1 1
0.512367 1 1
0.686229 1 1
0.935286 0.987549 1
