luts/film16mm.cube
# reordered to R-innermost (standard .cube)
LUT_3D_SIZE 33
0.041726 0.076211 0.115621
0.062539 0.077760 0.116455
0.083351 0.079309 0.117289
0.104163 0.080858 0.118124
0.124573 0.082377 0.118942
0.144957 0.083895 0.119759
0.165425 0.085418 0.120579
0.185977 0.086948 0.121403
0.206613 0.088484 0.122230
0.227333 0.090026 0.123060
0.248136 0.091575 0.123894
0.269024 0.093130 0.124731
0.289996 0.094691 0.125572
0.311052 0.096258 0.126416
0.332192 0.097832 0.127263
0.353416 0.099411 0.128114
0.374723 0.100997 0.128968
0.396031 0.102584 0.129822
0.417255 0.104163 0.130673
0.438395 0.105737 0.131520
0.459450 0.107304 0.132364
0.480422 0.108865 0.133204
0.501310 0.110420 0.134042
0.522114 0.111969 0.134875
0.542834 0.113511 0.135706
0.563470 0.115047 0.136533
0.584022 0.116577 0.137357
0.604490 0.118100 0.138177
0.624874 0.119618 0.138994
0.645283 0.121137 0.139812
0.666096 0.122686 0.140646
0.686908 0.124235 0.141480
0.707720 0.125784 0.142315
0.049043 0.100060 0.118427
0.069855 0.101609 0.119261
0.090667 0.103158 0.120096
0.111479 0.104707 0.120930
0.131889 0.106226 0.121748
0.152273 0.107744 0.122565
0.172741 0.109267 0.123385
0.193293 0.110797 0.124209
0.213929 0.112333 0.125036
0.234649 0.113875 0.125867
0.255453 0.115424 0.126700
0.276341 0.116979 0.127538
0.297312 0.118540 0.128378
0.318368 0.120107 0.129222
0.339508 0.121681 0.130069
0.360732 0.123260 0.130920
0.382040 0.124846 0.131774
0.403347 0.126433 0.132628
0.424571 0.128012 0.133479
0.445711 0.129586 0.134326
0.466767 0.131153 0.135170
0.487739 0.132714 0.136011
0.508626 0.134269 0.136848
0.529430 0.135818 0.137682
0.550150 0.137360 0.138512
0.570786 0.138896 0.139339
0.591338 0.140426 0.140163
0.611806 0.141949 0.140983
0.632190 0.143467 0.141800
0.652600 0.144986 0.142618
0.673412 0.146535 0.143453
0.694224 0.148084 0.144287
0.715037 0.149633 0.145121
0.056359 0.123909 0.121233
0.077171 0.125458 0.122068
0.097983 0.127007 0.122902
0.118796 0.128556 0.123736
0.139205 0.130075 0.124554
0.159589 0.131593 0.125371
0.180057 0.133116 0.126191
0.200609 0.134646 0.127015
0.221245 0.136182 0.127842
0.241965 0.137724 0.128673
0.262769 0.139273 0.129507
0.283657 0.140828 0.130344
0.304629 0.142389 0.131184
0.325684 0.143956 0.132028
0.346824 0.145530 0.132876
0.368048 0.147109 0.133726
0.389356 0.148696 0.134580
0.410664 0.150282 0.135434
0.431887 0.151861 0.136285
0.453027 0.153435 0.137132
0.474083 0.155002 0.137976
0.495055 0.156563 0.138817
0.515943 0.158118 0.139654
0.536747 0.159667 0.140488
0.557467 0.161209 0.141318
0.578102 0.162745 0.142145
0.598654 0.164275 0.142969
0.619123 0.165798 0.143790
0.639507 0.167316 0.144607
0.659916 0.168835 0.145425
0.680728 0.170384 0.146259
0.701540 0.171933 0.147093
0.722353 0.173482 0.147927
0.063675 0.147758 0.124040
0.084487 0.149307 0.124874
0.105300 0.150856 0.125708
0.126112 0.152405 0.126542
0.146521 0.153924 0.127360
0.166905 0.155442 0.128177
0.187373 0.156965 0.128998
0.207925 0.158495 0.129821
0.228561 0.160031 0.130648
0.249281 0.161573 0.131479
0.270085 0.163122 0.132313
0.290973 0.164677 0.133150
0.311945 0.166238 0.133991
0.333001 0.167805 0.134835
0.354140 0.169379 0.135682
0.375364 0.170959 0.136532
0.396672 0.172545 0.137387
0.417980 0.174131 0.138241
0.439203 0.175710 0.139091
0.460343 0.177284 0.139939
0.481399 0.178851 0.140782
0.502371 0.180412 0.141623
0.523259 0.181967 0.142460
0.544063 0.183516 0.143294
0.564783 0.185058 0.144125
0.585419 0.186594 0.144952
0.605971 0.188124 0.145775
0.626439 0.189647 0.146596
0.646823 0.191165 0.147413
0.667232 0.192684 0.148231
0.688044 0.194233 0.149065
0.708857 0.195782 0.149899
0.729669 0.197332 0.150733
0.070849 0.171145 0.126792
0.091662 0.172694 0.127626
0.112474 0.174243 0.128460
0.133286 0.175792 0.129294
0.153696 0.177312 0.130112
0.174080 0.178829 0.130929
0.194548 0.180352 0.131750
0.215100 0.181882 0.132573
0.235736 0.183418 0.133400
0.256456 0.184961 0.134231
0.277260 0.186509 0.135065
0.298148 0.188064 0.135902
0.319119 0.189625 0.136742
0.340175 0.191192 0.137586
0.361315 0.192766 0.138434
0.382539 0.194346 0.139284
0.403847 0.195932 0.140138
0.425154 0.197518 0.140992
0.446378 0.199098 0.141843
0.467518 0.200671 0.142690
0.488574 0.202239 0.143534
0.509545 0.203800 0.144375
0.530433 0.205354 0.145212
0.551237 0.206903 0.146046
0.571957 0.208445 0.146876
0.592593 0.209981 0.147704
0.613145 0.211511 0.148527
0.633613 0.213035 0.149348
0.653997 0.214552 0.150165
0.674407 0.216071 0.150983
0.695219 0.217620 0.151817
0.716031 0.219170 0.152651
0.736844 0.220719 0.153485
0.078015 0.194503 0.129540
0.098827 0.196052 0.130374
0.119640 0.197602 0.131208
0.140452 0.199151 0.132043
0.160861 0.200670 0.132861
0.181245 0.202187 0.133678
0.201713 0.203711 0.134498
0.222265 0.205241 0.135322
0.242901 0.206777 0.136149
0.263621 0.208319 0.136979
0.284425 0.209867 0.137813
0.305313 0.211422 0.138650
0.326285 0.212983 0.139491
0.347341 0.214551 0.140335
0.368481 0.216124 0.141182
0.389704 0.217704 0.142033
0.411012 0.219290 0.142887
0.432320 0.220876 0.143741
0.453544 0.222456 0.144592
0.474683 0.224030 0.145439
0.495739 0.225597 0.146283
0.516711 0.227158 0.147123
0.537599 0.228713 0.147961
0.558403 0.230261 0.148794
0.579123 0.231804 0.149625
0.599759 0.233340 0.150452
0.620311 0.234869 0.151276
0.640779 0.236393 0.152096
0.661163 0.237910 0.152913
0.681572 0.239429 0.153731
0.702385 0.240979 0.154565
0.723197 0.242528 0.155399
0.744009 0.244077 0.156234
0.085210 0.217958 0.132300
0.106023 0.219507 0.133134
0.126835 0.221056 0.133968
0.147647 0.222605 0.134802
0.168057 0.224124 0.135620
0.188441 0.225642 0.136437
0.208909 0.227165 0.137258
0.229461 0.228695 0.138082
0.250097 0.230231 0.138909
0.270817 0.231773 0.139739
0.291620 0.233322 0.140573
0.312508 0.234877 0.141410
0.333480 0.236438 0.142251
0.354536 0.238005 0.143095
0.375676 0.239579 0.143942
0.396900 0.241159 0.144793
0.418207 0.242745 0.145647
0.439515 0.244331 0.146501
0.460739 0.245911 0.147351
0.481879 0.247484 0.148199
0.502934 0.249051 0.149043
0.523906 0.250612 0.149883
0.544794 0.252167 0.150720
0.565598 0.253716 0.151554
0.586318 0.255258 0.152385
0.606954 0.256794 0.153212
0.627506 0.258324 0.154036
0.647974 0.259848 0.154856
0.668358 0.261365 0.155673
0.688767 0.262884 0.156491
0.709580 0.264433 0.157325
0.730392 0.265982 0.158159
0.751204 0.267532 0.158993
0.092435 0.241508 0.135071
0.113247 0.243058 0.135905
0.134060 0.244607 0.136739
0.154872 0.246156 0.137574
0.175281 0.247675 0.138392
0.195665 0.249193 0.139209
0.216133 0.250716 0.140029
0.236685 0.252246 0.140853
0.257321 0.253782 0.141680
0.278041 0.255324 0.142510
0.298845 0.256873 0.143344
0.319733 0.258428 0.144181
0.340705 0.259989 0.145022
0.361761 0.261556 0.145866
0.382901 0.263130 0.146713
0.404124 0.264709 0.147564
0.425432 0.266295 0.148418
0.446740 0.267881 0.149272
0.467964 0.269461 0.150122
0.489103 0.271035 0.150970
0.510159 0.272602 0.151814
0.531131 0.274163 0.152654
0.552019 0.275718 0.153491
0.572823 0.277267 0.154325
0.593543 0.278809 0.155156
0.614179 0.280345 0.155983
0.634731 0.281875 0.156807
0.655199 0.283398 0.157627
0.675583 0.284916 0.158444
0.695992 0.286435 0.159262
0.716804 0.287984 0.160096
0.737617 0.289533 0.160930
0.758335 0.291112 0.161935
0.099689 0.265155 0.137853
0.120502 0.266705 0.138688
0.141314 0.268254 0.139522
0.162126 0.269803 0.140356
0.182535 0.271322 0.141174
0.202920 0.272839 0.141991
0.223388 0.274363 0.142811
0.243940 0.275893 0.143635
0.264576 0.277429 0.144462
0.285296 0.278971 0.145293
0.306099 0.280520 0.146127
0.326987 0.282075 0.146964
0.347959 0.283636 0.147804
0.369015 0.285203 0.148648
0.390155 0.286777 0.149496
0.411379 0.288356 0.150346
0.432686 0.289942 0.151200
0.453994 0.291528 0.152054
0.475218 0.293108 0.152905
0.496358 0.294682 0.153752
0.517413 0.296249 0.154596
0.538385 0.297810 0.155437
0.559273 0.299365 0.156274
0.580077 0.300914 0.157108
0.600797 0.302456 0.157938
0.621433 0.303992 0.158765
0.641985 0.305522 0.159589
0.662453 0.307045 0.160409
0.682837 0.308563 0.161226
0.702992 0.310161 0.162505
0.723328 0.311859 0.164203
0.743664 0.313557 0.165901
0.763999 0.315256 0.167599
0.106973 0.288899 0.140647
0.127785 0.290448 0.141481
0.148598 0.291997 0.142316
0.169410 0.293546 0.143150
0.189819 0.295065 0.143968
0.210203 0.296583 0.144785
0.230671 0.298106 0.145605
0.251223 0.299636 0.146429
0.271859 0.301172 0.147256
0.292579 0.302714 0.148086
0.313383 0.304263 0.148920
0.334271 0.305818 0.149757
0.355243 0.307379 0.150598
0.376299 0.308946 0.151442
0.397439 0.310520 0.152289
0.418662 0.312100 0.153140
0.439970 0.313686 0.153994
0.461278 0.315272 0.154848
0.482502 0.316851 0.155699
0.503641 0.318425 0.156546
0.524697 0.319992 0.157390
0.545669 0.321553 0.158230
0.566557 0.323108 0.159068
0.587361 0.324657 0.159902
0.608081 0.326199 0.160732
0.628717 0.327735 0.161559
0.648821 0.329405 0.163194
0.668821 0.331075 0.164864
0.688738 0.332738 0.166527
0.708680 0.334403 0.168192
0.729015 0.336101 0.169890
0.749351 0.337800 0.171588
0.769687 0.339498 0.173287
0.114286 0.312738 0.143452
0.135099 0.314287 0.144286
0.155911 0.315836 0.145121
0.176723 0.317386 0.145955
0.197132 0.318905 0.146773
0.217517 0.320422 0.147590
0.237985 0.321946 0.148410
0.258537 0.323475 0.149234
0.279173 0.325012 0.150061
0.299893 0.326554 0.150892
0.320696 0.328102 0.151725
0.341584 0.329657 0.152563
0.362556 0.331218 0.153403
0.383612 0.332786 0.154247
0.404752 0.334359 0.155094
0.425976 0.335939 0.155945
0.447283 0.337525 0.156799
0.468591 0.339111 0.157653
0.489815 0.340691 0.158504
0.510955 0.342264 0.159351
0.532010 0.343832 0.160195
0.552982 0.345393 0.161036
0.573714 0.346996 0.162155
0.594042 0.348694 0.163853
0.614287 0.350384 0.165543
0.634450 0.352068 0.167227
0.654532 0.353745 0.168904
0.674531 0.355415 0.170574
0.694448 0.357078 0.172237
0.714390 0.358744 0.173903
0.734726 0.360442 0.175601
0.755061 0.362140 0.177299
0.775397 0.363838 0.178997
0.121629 0.336674 0.146269
0.142441 0.338223 0.147103
0.163254 0.339772 0.147937
0.184066 0.341321 0.148771
0.204475 0.342840 0.149589
0.224859 0.344358 0.150406
0.245327 0.345881 0.151227
0.265879 0.347411 0.152050
0.286515 0.348947 0.152877
0.307235 0.350490 0.153708
0.328039 0.352038 0.154542
0.348927 0.353593 0.155379
0.369899 0.355154 0.156220
0.390955 0.356721 0.157063
0.412095 0.358295 0.157911
0.433318 0.359875 0.158761
0.454626 0.361461 0.159615
0.475934 0.363047 0.160470
0.497158 0.364627 0.161320
0.517973 0.366301 0.162755
0.538547 0.368019 0.164473
0.559038 0.369731 0.166184
0.579448 0.371435 0.167889
0.599775 0.373132 0.169586
0.620021 0.374823 0.171277
0.640184 0.376507 0.172961
0.660265 0.378184 0.174637
0.680264 0.379854 0.176307
0.700182 0.381517 0.177971
0.720123 0.383182 0.179636
0.740459 0.384880 0.181334
0.760795 0.386578 0.183032
0.781130 0.388277 0.184730
0.129001 0.360706 0.149096
0.149814 0.362255 0.149931
0.170626 0.363804 0.150765
0.191438 0.365353 0.151599
0.211848 0.366872 0.152417
0.232232 0.368390 0.153234
0.252700 0.369913 0.154054
0.273252 0.371443 0.154878
0.293888 0.372979 0.155705
0.314608 0.374521 0.156536
0.335412 0.376070 0.157370
0.356299 0.377625 0.158207
0.377271 0.379186 0.159047
0.398327 0.380753 0.159891
0.419467 0.382327 0.160739
0.440691 0.383906 0.161589
0.461517 0.385643 0.163317
0.482336 0.387382 0.165055
0.503074 0.389113 0.166787
0.523730 0.390838 0.168512
0.544303 0.392556 0.170230
0.564795 0.394267 0.171941
0.585204 0.395972 0.173645
0.605532 0.397669 0.175343
0.625777 0.399360 0.177033
0.645940 0.401044 0.178717
0.666022 0.402720 0.180394
0.686021 0.404391 0.182064
0.705938 0.406054 0.183727
0.725880 0.407719 0.185392
0.746216 0.409417 0.187091
0.766551 0.411115 0.188789
0.786887 0.412813 0.190487
0.136403 0.384834 0.151935
0.157215 0.386383 0.152770
0.178028 0.387932 0.153604
0.198840 0.389481 0.154438
0.219249 0.391000 0.155256
0.239633 0.392518 0.156073
0.260101 0.394041 0.156893
0.280653 0.395571 0.157717
0.301289 0.397107 0.158544
0.322009 0.398649 0.159375
0.342813 0.400198 0.160209
0.363701 0.401753 0.161046
0.384509 0.403365 0.162183
0.405083 0.405083 0.163901
0.425739 0.406808 0.165626
0.446476 0.408540 0.167357
0.467296 0.410278 0.169096
0.488116 0.412017 0.170835
0.508853 0.413748 0.172566
0.529509 0.415473 0.174291
0.550083 0.417191 0.176009
0.570574 0.418902 0.177720
0.590984 0.420607 0.179425
0.611311 0.422304 0.181122
0.631556 0.423995 0.182813
0.651720 0.425679 0.184496
0.671801 0.427356 0.186173
0.691800 0.429026 0.187843
0.711718 0.430689 0.189507
0.731659 0.432354 0.191172
0.751995 0.434052 0.192870
0.772331 0.435750 0.194568
0.792666 0.437448 0.196266
0.143835 0.409058 0.154786
0.164647 0.410607 0.155620
0.185459 0.412156 0.156454
0.206271 0.413706 0.157288
0.226681 0.415225 0.158106
0.247065 0.416742 0.158923
0.267533 0.418266 0.159744
0.288085 0.419795 0.160568
0.308721 0.421331 0.161395
0.329084 0.422985 0.162873
0.349411 0.424683 0.164570
0.369820 0.426387 0.166274
0.390312 0.428098 0.167985
0.410886 0.429816 0.169703
0.431541 0.431541 0.171428
0.452279 0.433273 0.173160
0.473099 0.435011 0.174899
0.493918 0.436750 0.176637
0.514656 0.438482 0.178369
0.535312 0.440207 0.180094
0.555885 0.441925 0.181812
0.576377 0.443636 0.183523
0.596786 0.445340 0.185227
0.617114 0.447038 0.186925
0.637359 0.448728 0.188615
0.657522 0.450412 0.190299
0.677604 0.452089 0.191976
0.697603 0.453759 0.193646
0.717520 0.455422 0.195309
0.737462 0.457087 0.196974
0.757798 0.458785 0.198673
0.778133 0.460484 0.200371
0.798469 0.462182 0.202069
0.151295 0.433379 0.157648
0.172108 0.434928 0.158482
0.192920 0.436477 0.159316
0.213732 0.438026 0.160150
0.234142 0.439545 0.160968
0.254420 0.441096 0.161977
0.274419 0.442766 0.163647
0.294500 0.444443 0.165324
0.314664 0.446126 0.167008
0.334909 0.447817 0.168698
0.355237 0.449514 0.170396
0.375646 0.451219 0.172100
0.396138 0.452930 0.173811
0.416711 0.454648 0.175529
0.437367 0.456373 0.177254
0.458104 0.458104 0.178986
0.478924 0.459843 0.180724
0.499744 0.461582 0.182463
0.520482 0.463313 0.184194
0.541137 0.465038 0.185919
0.561711 0.466756 0.187637
0.582202 0.468467 0.189349
0.602612 0.470172 0.191053
0.622939 0.471869 0.192750
0.643185 0.473560 0.194441
0.663348 0.475243 0.196125
0.683429 0.476920 0.197802
0.703429 0.478590 0.199472
0.723346 0.480254 0.201135
0.743288 0.481919 0.202800
0.763623 0.483617 0.204498
0.783959 0.485315 0.206196
0.804294 0.487013 0.207894
0.158786 0.457795 0.160521
0.179598 0.459345 0.161355
0.200074 0.460999 0.162799
0.220409 0.462697 0.164497
0.240351 0.464362 0.166162
0.260269 0.466025 0.167825
0.280268 0.467695 0.169495
0.300349 0.469372 0.171172
0.320512 0.471056 0.172856
0.340758 0.472747 0.174547
0.361085 0.474444 0.176244
0.381495 0.476149 0.177949
0.401986 0.477860 0.179660
0.422560 0.479578 0.181378
0.443215 0.481303 0.183103
0.463953 0.483034 0.184834
0.484773 0.484773 0.186573
0.505593 0.486511 0.188311
0.526330 0.488243 0.190043
0.546986 0.489968 0.191768
0.567559 0.491686 0.193486
0.588051 0.493397 0.195197
0.608460 0.495101 0.196901
0.628788 0.496799 0.198599
0.649033 0.498490 0.200290
0.669197 0.500173 0.201973
0.689278 0.501850 0.203650
0.709277 0.503520 0.205320
0.729194 0.505183 0.206983
0.749136 0.506849 0.208649
0.769472 0.508547 0.210347
0.789807 0.510245 0.212045
0.810143 0.511943 0.213743
0.165251 0.482532 0.165251
0.185587 0.484231 0.166949
0.205922 0.485929 0.168647
0.226258 0.487627 0.170346
0.246200 0.489292 0.172011
0.266117 0.490955 0.173674
0.286116 0.492625 0.175344
0.306198 0.494302 0.177021
0.326361 0.495986 0.178705
0.346606 0.497677 0.180395
0.366934 0.499374 0.182093
0.387343 0.501078 0.183797
0.407835 0.502789 0.185508
0.428408 0.504507 0.187226
0.449064 0.506232 0.188951
0.469802 0.507964 0.190683
0.490621 0.509703 0.192421
0.511441 0.511441 0.194160
0.532179 0.513173 0.195892
0.552834 0.514898 0.197617
0.573408 0.516616 0.199335
0.593900 0.518327 0.201046
0.614309 0.520031 0.202750
0.634637 0.521729 0.204448
0.654882 0.523419 0.206138
0.675045 0.525103 0.207822
0.695127 0.526780 0.209499
0.715126 0.528450 0.211169
0.735043 0.530113 0.212832
0.754985 0.531778 0.214497
0.775320 0.533477 0.216195
0.795656 0.535175 0.217894
0.815992 0.536873 0.219592
0.171077 0.507364 0.171077
0.191412 0.509062 0.172775
0.211748 0.510760 0.174473
0.232084 0.512458 0.176171
0.252026 0.514124 0.177836
0.271943 0.515787 0.179500
0.291942 0.517457 0.181170
0.312023 0.519134 0.182847
0.332187 0.520818 0.184530
0.352432 0.522508 0.186221
0.372759 0.524206 0.187918
0.393169 0.525910 0.189623
0.413660 0.527621 0.191334
0.434234 0.529339 0.193052
0.454890 0.531064 0.194777
0.475627 0.532796 0.196509
0.496447 0.534534 0.198247
0.517267 0.536273 0.199986
0.538004 0.538004 0.201717
0.558660 0.539729 0.203442
0.579234 0.541447 0.205160
0.599725 0.543159 0.206871
0.620135 0.544863 0.208576
0.640462 0.546560 0.210273
0.660708 0.548251 0.211964
0.680871 0.549935 0.213648
0.700952 0.551612 0.215324
0.720951 0.553282 0.216994
0.740869 0.554945 0.218658
0.760810 0.556610 0.220323
0.781146 0.558308 0.222021
0.801482 0.560006 0.223719
0.821817 0.561704 0.225417
0.176879 0.532097 0.176879
0.197215 0.533795 0.178577
0.217551 0.535494 0.180276
0.237886 0.537192 0.181974
0.257828 0.538857 0.183639
0.277745 0.540520 0.185302
0.297745 0.542190 0.186972
0.317826 0.543867 0.188649
0.337989 0.545551 0.190333
0.358235 0.547241 0.192024
0.378562 0.548939 0.193721
0.398972 0.550643 0.195425
0.419463 0.552354 0.197136
0.440037 0.554072 0.198854
0.460692 0.555797 0.200579
0.481430 0.557529 0.202311
0.502250 0.559268 0.204050
0.523069 0.561006 0.205788
0.543807 0.562738 0.207520
0.564463 0.564463 0.209245
0.585036 0.566181 0.210963
0.605528 0.567892 0.212674
0.625937 0.569596 0.214378
0.646265 0.571294 0.216076
0.666510 0.572984 0.217766
0.686673 0.574668 0.219450
0.706755 0.576345 0.221127
0.726754 0.578015 0.222797
0.746671 0.579678 0.224460
0.766613 0.581343 0.226125
0.786949 0.583041 0.227824
0.807284 0.584740 0.229522
0.827620 0.586438 0.231220
0.182659 0.556732 0.182659
0.202994 0.558430 0.184357
0.223330 0.560129 0.186055
0.243666 0.561827 0.187753
0.263608 0.563492 0.189419
0.283525 0.565155 0.191082
0.303524 0.566825 0.192752
0.323605 0.568502 0.194429
0.343769 0.570186 0.196112
0.364014 0.571876 0.197803
0.384342 0.573574 0.199501
0.404751 0.575278 0.201205
0.425243 0.576989 0.202916
0.445816 0.578707 0.204634
0.466472 0.580432 0.206359
0.487209 0.582164 0.208091
0.508029 0.583903 0.209829
0.528849 0.585641 0.211568
0.549587 0.587373 0.213299
0.570242 0.589098 0.215024
0.590816 0.590816 0.216742
0.611307 0.592527 0.218453
0.631717 0.594231 0.220158
0.652044 0.595929 0.221855
0.672290 0.597619 0.223546
0.692453 0.599303 0.225230
0.712534 0.600980 0.226906
0.732533 0.602650 0.228577
0.752451 0.604313 0.230240
0.772392 0.605978 0.231905
0.792730 0.607677 0.233600
0.814034 0.609449 0.233809
0.835338 0.611222 0.234017
0.188415 0.581269 0.188415
0.208751 0.582967 0.190113
0.229087 0.584665 0.191812
0.249422 0.586364 0.193510
0.269364 0.588029 0.195175
0.289281 0.589692 0.196838
0.309281 0.591362 0.198508
0.329362 0.593039 0.200185
0.349525 0.594723 0.201869
0.369771 0.596413 0.203560
0.390098 0.598111 0.205257
0.410507 0.599815 0.206961
0.430999 0.601526 0.208672
0.451573 0.603244 0.210390
0.472228 0.604969 0.212115
0.492966 0.606701 0.213847
0.513786 0.608439 0.215586
0.534605 0.610178 0.217324
0.555343 0.611910 0.219056
0.575999 0.613635 0.220781
0.596572 0.615353 0.222499
0.617064 0.617064 0.224210
0.637473 0.618768 0.225914
0.657801 0.620465 0.227612
0.678046 0.622156 0.229302
0.698209 0.623840 0.230986
0.718291 0.625517 0.232663
0.738708 0.627219 0.233690
0.759573 0.628955 0.233894
0.780465 0.630693 0.234099
0.801769 0.632466 0.234307
0.823072 0.634239 0.234516
0.844376 0.636011 0.234724
0.194149 0.605708 0.194149
0.214484 0.607406 0.195847
0.234820 0.609104 0.197545
0.255156 0.610802 0.199243
0.275097 0.612467 0.200908
0.295015 0.614131 0.202572
0.315014 0.615801 0.204242
0.335095 0.617478 0.205919
0.355259 0.619161 0.207602
0.375504 0.620852 0.209293
0.395831 0.622549 0.210990
0.416241 0.624254 0.212695
0.436732 0.625965 0.214406
0.457306 0.627683 0.216124
0.477962 0.629408 0.217849
0.498699 0.631139 0.219580
0.519519 0.632878 0.221319
0.540339 0.634617 0.223058
0.561076 0.636348 0.224789
0.581732 0.638073 0.226514
0.602306 0.639791 0.228232
0.622797 0.641502 0.229943
0.643207 0.643207 0.231648
0.663534 0.644904 0.233345
0.684598 0.646658 0.233776
0.705721 0.648415 0.233983
0.726759 0.650166 0.234189
0.747710 0.651909 0.234394
0.768576 0.653645 0.234598
0.789467 0.655383 0.234803
0.810771 0.657156 0.235011
0.832075 0.658929 0.235220
0.853379 0.660701 0.235429
0.199859 0.630048 0.199859
0.220195 0.631746 0.201557
0.240530 0.633444 0.203255
0.260866 0.635142 0.204953
0.280808 0.636808 0.206619
0.300725 0.638471 0.208282
0.320724 0.640141 0.209952
0.340806 0.641818 0.211629
0.360969 0.643502 0.213313
0.381214 0.645192 0.215003
0.401542 0.646890 0.216701
0.421951 0.648594 0.218405
0.442443 0.650305 0.220116
0.463016 0.652023 0.221834
0.483672 0.653748 0.223559
0.504410 0.655480 0.225291
0.525229 0.657218 0.227029
0.546049 0.658957 0.228768
0.566787 0.660689 0.230500
0.587442 0.662413 0.232224
0.608211 0.664146 0.233642
0.629678 0.665933 0.233852
0.651060 0.667712 0.234062
0.672355 0.669484 0.234270
0.693564 0.671248 0.234478
0.714688 0.673006 0.234684
0.735725 0.674756 0.234890
0.756677 0.676500 0.235095
0.777542 0.678236 0.235300
0.798433 0.679974 0.235504
0.819737 0.681747 0.235713
0.841041 0.683519 0.235921
0.862345 0.685292 0.236130
0.205546 0.654290 0.205546
0.225882 0.655988 0.207245
0.246218 0.657686 0.208943
0.266553 0.659385 0.210641
0.286495 0.661050 0.212306
0.306412 0.662713 0.213969
0.326412 0.664383 0.215639
0.346493 0.666060 0.217316
0.366656 0.667744 0.219000
0.386902 0.669434 0.220691
0.407229 0.671132 0.222388
0.427639 0.672836 0.224092
0.448130 0.674547 0.225803
0.468704 0.676265 0.227522
0.489359 0.677990 0.229246
0.510097 0.679722 0.230978
0.530917 0.681460 0.232717
0.552224 0.683236 0.233705
0.573949 0.685044 0.233918
0.595588 0.686845 0.234130
0.617141 0.688638 0.234341
0.638608 0.690424 0.234551
0.659990 0.692203 0.234760
0.681285 0.693975 0.234968
0.702494 0.695740 0.235176
0.723618 0.697498 0.235383
0.744655 0.699248 0.235589
0.765607 0.700991 0.235794
0.786472 0.702727 0.235998
0.807363 0.704466 0.236203
0.828667 0.706238 0.236411
0.849971 0.708011 0.236620
0.871275 0.709784 0.236828
0.211211 0.678434 0.211211
0.231546 0.680132 0.212909
0.251882 0.681830 0.214607
0.272218 0.683528 0.216305
0.292159 0.685194 0.217970
0.312077 0.686857 0.219634
0.332076 0.688527 0.221304
0.352157 0.690204 0.222980
0.372320 0.691888 0.224664
0.392566 0.693578 0.226355
0.412893 0.695276 0.228052
0.433303 0.696980 0.229757
0.453794 0.698691 0.231468
0.474368 0.700409 0.233186
0.495771 0.702191 0.233761
0.517496 0.703999 0.233974
0.539307 0.705814 0.234187
0.561118 0.707629 0.234401
0.582843 0.709436 0.234613
0.604482 0.711237 0.234825
0.626035 0.713030 0.235036
0.647502 0.714817 0.235246
0.668884 0.716596 0.235456
0.690179 0.718367 0.235664
0.711388 0.720132 0.235872
0.732512 0.721890 0.236078
0.753549 0.723640 0.236284
0.774500 0.725384 0.236489
0.795366 0.727120 0.236694
0.816257 0.728858 0.236898
0.837561 0.730631 0.237107
0.858865 0.732403 0.237315
0.880169 0.734176 0.237524
0.216852 0.702480 0.216852
0.237187 0.704178 0.218550
0.257523 0.705876 0.220248
0.277859 0.707574 0.221946
0.297801 0.709239 0.223612
0.317718 0.710902 0.225275
0.337717 0.712573 0.226945
0.357798 0.714249 0.228622
0.377962 0.715933 0.230305
0.398207 0.717624 0.231996
0.418588 0.719325 0.233611
0.439969 0.721104 0.233821
0.461436 0.722891 0.234031
0.482989 0.724684 0.234242
0.504628 0.726484 0.234454
0.526354 0.728292 0.234666
0.548165 0.730107 0.234880
0.569976 0.731922 0.235093
0.591701 0.733729 0.235306
0.613340 0.735530 0.235518
0.634893 0.737323 0.235729
0.656360 0.739110 0.235939
0.677741 0.740889 0.236148
0.699037 0.742661 0.236357
0.720246 0.744425 0.236564
0.741369 0.746183 0.236771
0.762407 0.747933 0.236977
0.783358 0.749677 0.237182
