luts/film16mm.cube
# reordered to R-innermost (standard .cube)
LUT_3D_SIZE 9
0.041726 0.076211 0.115621
0.124573 0.082377 0.118942
0.206613 0.088484 0.122230
0.289996 0.094691 0.125572
0.374723 0.100997 0.128968
0.459450 0.107304 0.132364
0.542834 0.113511 0.135706
0.624874 0.119618 0.138994
0.707720 0.125784 0.142315
0.070849 0.171145 0.126792
0.153696 0.177312 0.130112
0.235736 0.183418 0.133400
0.319119 0.189625 0.136742
0.403847 0.195932 0.140138
0.488574 0.202239 0.143534
0.571957 0.208445 0.146876
0.653997 0.214552 0.150165
0.736844 0.220719 0.153485
0.099689 0.265155 0.137853
0.182535 0.271322 0.141174
0.264576 0.277429 0.144462
0.347959 0.283636 0.147804
0.432686 0.289942 0.151200
0.517413 0.296249 0.154596
0.600797 0.302456 0.157938
0.682837 0.308563 0.161226
0.763999 0.315256 0.167599
0.129001 0.360706 0.149096
0.211848 0.366872 0.152417
0.293888 0.372979 0.155705
0.377271 0.379186 0.159047
0.461517 0.385643 0.163317
0.544303 0.392556 0.170230
0.625777 0.399360 0.177033
0.705938 0.406054 0.183727
0.786887 0.412813 0.190487
0.158786 0.457795 0.160521
0.240351 0.464362 0.166162
0.320512 0.471056 0.172856
0.401986 0.477860 0.179660
0.484773 0.484773 0.186573
0.567559 0.491686 0.193486
0.649033 0.498490 0.200290
0.729194 0.505183 0.206983
0.810143 0.511943 0.213743
0.182659 0.556732 0.182659
0.263608 0.563492 0.189419
0.343769 0.570186 0.196112
0.425243 0.576989 0.202916
0.508029 0.583903 0.209829
0.590816 0.590816 0.216742
0.672290 0.597619 0.223546
0.752451 0.604313 0.230240
0.835338 0.611222 0.234017
0.205546 0.654290 0.205546
0.286495 0.661050 0.212306
0.366656 0.667744 0.219000
0.448130 0.674547 0.225803
0.530917 0.681460 0.232717
0.617141 0.688638 0.234341
0.702494 0.695740 0.235176
0.786472 0.702727 0.235998
0.871275 0.709784 0.236828
0.228065 0.750276 0.228065
0.309712 0.757089 0.233750
0.393690 0.764077 0.234572
0.479043 0.771179 0.235408
0.565771 0.778395 0.236257
0.652500 0.785612 0.237106
0.737853 0.792714 0.237941
0.821831 0.799701 0.238764
0.906633 0.806757 0.239594
0.260615 0.847960 0.235713
0.345418 0.855016 0.236543
0.429396 0.862003 0.237365
0.514749 0.869105 0.238201
0.601477 0.876322 0.239050
0.688205 0.883538 0.239899
0.773559 0.890640 0.240734
0.857536 0.897627 0.241556
0.942339 0.904684 0.242386
0.044666 0.078305 0.190938
0.127513 0.084472 0.194258
0.209553 0.090578 0.197547
0.292936 0.096785 0.200889
0.377663 0.103092 0.204285
0.462390 0.109398 0.207681
0.545774 0.115605 0.211023
0.627814 0.121712 0.214311
0.710660 0.127879 0.217631
0.073789 0.173239 0.202108
0.156636 0.179406 0.205429
0.238676 0.185513 0.208717
0.322059 0.191719 0.212059
0.406787 0.198026 0.215455
0.491514 0.204333 0.218851
0.574897 0.210540 0.222193
0.656937 0.216646 0.225481
0.739784 0.222813 0.228802
0.102629 0.267250 0.213170
0.185475 0.273416 0.216491
0.267516 0.279523 0.219779
0.350899 0.285730 0.223121
0.435626 0.292037 0.226517
0.520353 0.298343 0.229913
0.603737 0.304550 0.233255
0.685346 0.310791 0.237324
0.766295 0.317551 0.244084
0.131941 0.362800 0.224413
0.214788 0.368967 0.227734
0.296828 0.375073 0.231022
0.380211 0.381280 0.234364
0.463812 0.387939 0.239801
0.546599 0.394852 0.246714
0.628073 0.401655 0.253518
0.708234 0.408349 0.260212
0.789182 0.415109 0.266972
0.161698 0.459898 0.235887
0.242647 0.466658 0.242647
0.322808 0.473352 0.249341
0.404282 0.480155 0.256144
0.487068 0.487068 0.263058
0.569855 0.493982 0.269971
0.651329 0.500785 0.276774
0.731490 0.507479 0.283468
0.812439 0.514239 0.290228
0.184954 0.559028 0.259144
0.265903 0.565788 0.265903
0.346064 0.572482 0.272597
0.427538 0.579285 0.279401
0.510325 0.586198 0.286314
0.593111 0.593111 0.293227
0.674585 0.599915 0.300031
0.754746 0.606609 0.306724
0.838942 0.613618 0.308488
0.207842 0.656586 0.282031
0.288791 0.663345 0.288791
0.368952 0.670039 0.295485
0.450426 0.676843 0.302288
0.534018 0.683818 0.307962
0.620746 0.691034 0.308811
0.706099 0.698136 0.309647
0.790077 0.705124 0.310469
0.874880 0.712180 0.311299
0.230361 0.752572 0.304550
0.313317 0.759486 0.308221
0.397295 0.766473 0.309043
0.482648 0.773575 0.309879
0.569376 0.780792 0.310728
0.656104 0.788008 0.311577
0.741457 0.795110 0.312412
0.825435 0.802097 0.313235
0.910238 0.809154 0.314065
0.264220 0.850356 0.310184
0.349023 0.857412 0.311014
0.433000 0.864400 0.311836
0.518353 0.871502 0.312672
0.605082 0.878718 0.313521
0.691810 0.885934 0.314370
0.777163 0.893036 0.315205
0.861141 0.900024 0.316027
0.945944 0.907080 0.316857
0.047578 0.080379 0.265522
0.130424 0.086545 0.268842
0.212464 0.092652 0.272130
0.295848 0.098859 0.275473
0.380575 0.105166 0.278868
0.465302 0.111472 0.282264
0.548685 0.117679 0.285607
0.630726 0.123786 0.288895
0.713572 0.129952 0.292215
0.076701 0.175313 0.276692
0.159547 0.181480 0.280013
0.241587 0.187586 0.283301
0.324971 0.193793 0.286643
0.409698 0.200100 0.290039
0.494425 0.206407 0.293435
0.577809 0.212613 0.296777
0.659849 0.218720 0.300065
0.742695 0.224887 0.303386
0.105541 0.269324 0.287754
0.188387 0.275490 0.291075
0.270427 0.281597 0.294363
0.353811 0.287804 0.297705
0.438538 0.294111 0.301101
0.523265 0.300417 0.304497
0.606648 0.306624 0.307839
0.687619 0.313065 0.313065
0.768568 0.319824 0.319824
0.134853 0.364874 0.298997
0.217699 0.371040 0.302318
0.299739 0.377147 0.305606
0.383123 0.383354 0.308948
0.466085 0.390212 0.315542
0.548872 0.397125 0.322455
0.630346 0.403929 0.329258
0.710507 0.410623 0.335952
0.791456 0.417382 0.342712
0.163971 0.462171 0.311628
0.244920 0.468931 0.318387
0.325081 0.475625 0.325081
0.406555 0.482429 0.331885
0.489342 0.489342 0.338798
0.572128 0.496255 0.345711
0.653602 0.503058 0.352515
0.733763 0.509752 0.359209
0.814712 0.516512 0.365968
0.187228 0.561301 0.334884
0.268177 0.568061 0.341644
0.348338 0.574755 0.348338
0.429811 0.581558 0.355141
0.512598 0.588471 0.362054
0.595385 0.595385 0.368967
0.676858 0.602188 0.375771
0.757709 0.608935 0.381405
0.842512 0.615991 0.382235
0.210115 0.658859 0.357772
0.291064 0.665619 0.364531
0.371225 0.672313 0.371225
0.452699 0.679116 0.378029
0.537587 0.686191 0.381709
0.624315 0.693407 0.382558
0.709668 0.700509 0.383393
0.793646 0.707497 0.384215
0.878449 0.714553 0.385046
0.232634 0.754845 0.380290
0.316886 0.761859 0.381968
0.400864 0.768846 0.382790
0.486217 0.775948 0.383625
0.572945 0.783165 0.384474
0.659674 0.790381 0.385323
0.745027 0.797483 0.386159
0.829005 0.804470 0.386981
0.913807 0.811527 0.387811
0.267789 0.852729 0.383930
0.352592 0.859785 0.384760
0.436570 0.866773 0.385582
0.521923 0.873875 0.386418
0.608651 0.881091 0.387267
0.695379 0.888307 0.388116
0.780733 0.895409 0.388951
0.864710 0.902397 0.389774
0.949513 0.909453 0.390604
0.050537 0.082486 0.341327
0.133383 0.088653 0.344648
0.215423 0.094760 0.347936
0.298807 0.100967 0.351278
0.383534 0.107273 0.354674
0.468261 0.113580 0.358070
0.551645 0.119787 0.361412
0.633685 0.125894 0.364700
0.716531 0.132060 0.368021
0.079660 0.177421 0.352498
0.162506 0.183588 0.355818
0.244546 0.189694 0.359106
0.327930 0.195901 0.362448
0.412657 0.202208 0.365844
0.497384 0.208514 0.369240
0.580768 0.214721 0.372582
0.662808 0.220828 0.375871
0.745654 0.226995 0.379191
0.108500 0.271431 0.363559
0.191346 0.277598 0.366880
0.273386 0.283705 0.370168
0.356770 0.289912 0.373510
0.441497 0.296218 0.376906
0.526224 0.302525 0.380302
0.609608 0.308732 0.383644
0.689930 0.315375 0.390046
0.770879 0.322135 0.396805
0.137812 0.366982 0.374802
0.220658 0.373148 0.378123
0.302698 0.379255 0.381411
0.385609 0.385609 0.385609
0.468396 0.392523 0.392523
0.551183 0.399436 0.399436
0.632656 0.406239 0.406239
0.712818 0.412933 0.412933
0.793766 0.419693 0.419693
0.166282 0.464482 0.388609
0.247231 0.471242 0.395368
0.327392 0.477936 0.402062
0.408866 0.484739 0.408866
0.491652 0.491652 0.415779
0.574439 0.498565 0.422692
0.655913 0.505369 0.429496
0.736074 0.512063 0.436189
0.817023 0.518823 0.442949
0.189538 0.563612 0.411865
0.270487 0.570371 0.418625
0.350648 0.577065 0.425318
0.432122 0.583869 0.432122
0.514909 0.590782 0.439035
0.597695 0.597695 0.445948
0.679169 0.604499 0.452752
0.761337 0.611347 0.456359
0.846140 0.618403 0.457189
0.212426 0.661170 0.434752
0.293375 0.667929 0.441512
0.373536 0.674623 0.448206
0.455009 0.681427 0.455009
0.541215 0.688603 0.456663
0.627943 0.695819 0.457512
0.713296 0.702921 0.458347
0.797274 0.709909 0.459169
0.882077 0.716965 0.460000
0.235711 0.757214 0.456092
0.320514 0.764271 0.456922
0.404492 0.771258 0.457744
0.489845 0.778360 0.458579
0.576573 0.785576 0.459428
0.663302 0.792793 0.460277
0.748655 0.799895 0.461113
0.832632 0.806882 0.461935
0.917435 0.813938 0.462765
0.271417 0.855141 0.458884
0.356220 0.862197 0.459714
0.440198 0.869185 0.460537
0.525551 0.876286 0.461372
0.612279 0.883503 0.462221
0.699007 0.890719 0.463070
0.784360 0.897821 0.463906
0.868338 0.904809 0.464728
0.953141 0.911865 0.465558
0.053544 0.084628 0.418354
0.136390 0.090795 0.421674
0.218430 0.096902 0.424962
0.301813 0.103108 0.428305
0.386541 0.109415 0.431700
0.471268 0.115722 0.435096
0.554651 0.121929 0.438439
0.636691 0.128035 0.441727
0.719538 0.134202 0.445047
0.082667 0.179563 0.429524
0.165513 0.185729 0.432845
0.247553 0.191836 0.436133
0.330937 0.198043 0.439475
0.415664 0.204350 0.442871
0.500391 0.210656 0.446267
0.583774 0.216863 0.449609
0.665815 0.222970 0.452897
0.748661 0.229136 0.456218
0.111507 0.273573 0.440586
0.194353 0.279740 0.443907
0.276393 0.285847 0.447195
0.359776 0.292053 0.450537
0.444504 0.298360 0.453933
0.529231 0.304667 0.457329
0.612117 0.311029 0.461573
0.692278 0.317723 0.468267
0.773226 0.324483 0.475026
0.140819 0.369123 0.451829
0.223665 0.375290 0.455150
0.305705 0.381397 0.458438
0.387957 0.387957 0.463831
0.470744 0.394870 0.470744
0.553530 0.401783 0.477657
0.635004 0.408587 0.484460
0.715165 0.415281 0.491154
0.796114 0.422041 0.497914
0.168630 0.466830 0.466830
0.249578 0.473589 0.473589
0.329740 0.480283 0.480283
0.411213 0.487087 0.487087
0.494000 0.494000 0.494000
0.576787 0.500913 0.500913
0.658260 0.507717 0.507717
0.738422 0.514411 0.514411
0.819370 0.521170 0.521170
0.191886 0.565959 0.490086
0.272835 0.572719 0.496846
0.352996 0.579413 0.503540
0.434470 0.586217 0.510343
0.517256 0.593130 0.517256
0.600043 0.600043 0.524169
0.681517 0.606846 0.530973
0.765023 0.613798 0.532520
0.849826 0.620854 0.533351
0.214774 0.663517 0.512974
0.295722 0.670277 0.519733
0.375883 0.676971 0.526427
0.458173 0.683837 0.531976
0.544901 0.691054 0.532825
0.631630 0.698270 0.533674
0.716983 0.705372 0.534509
0.800960 0.712359 0.535331
0.885763 0.719415 0.536161
0.239398 0.759665 0.532253
0.324200 0.766721 0.533084
0.408178 0.773709 0.533906
0.493531 0.780811 0.534741
0.580260 0.788027 0.535590
0.666988 0.795243 0.536439
0.752341 0.802345 0.537275
0.836319 0.809333 0.538097
0.921122 0.816389 0.538927
0.275103 0.857592 0.535046
0.359906 0.864648 0.535876
0.443884 0.871635 0.536698
0.529237 0.878737 0.537534
0.615965 0.885954 0.538383
0.702694 0.893170 0.539232
0.788047 0.900272 0.540067
0.872025 0.907259 0.540889
0.956828 0.914316 0.541719
0.056550 0.086770 0.495380
0.139397 0.092937 0.498701
0.221437 0.099044 0.501989
0.304820 0.105250 0.505331
0.389547 0.111557 0.508727
0.474274 0.117864 0.512123
0.557658 0.124070 0.515465
0.639698 0.130177 0.518753
0.722544 0.136344 0.522074
0.085673 0.181704 0.506551
0.168520 0.187871 0.509871
0.250560 0.193978 0.513160
0.333943 0.200185 0.516502
0.418671 0.206491 0.519898
0.503398 0.212798 0.523294
0.586781 0.219005 0.526636
0.668821 0.225112 0.529924
0.751668 0.231278 0.533245
0.114513 0.275715 0.517613
0.197359 0.281882 0.520933
0.279400 0.287988 0.524222
0.362783 0.294195 0.527564
0.447510 0.300502 0.530960
0.532237 0.306809 0.534356
0.614464 0.313377 0.539794
0.694625 0.320071 0.546488
0.775574 0.326830 0.553248
0.143825 0.371265 0.528856
0.226672 0.377432 0.532176
0.308712 0.383539 0.535465
0.390305 0.390305 0.542052
0.473091 0.397218 0.548965
0.555878 0.404131 0.555878
0.637352 0.410935 0.562682
0.717513 0.417629 0.569375
0.798462 0.424388 0.576135
0.170977 0.469177 0.545051
0.251926 0.475937 0.551811
0.332087 0.482631 0.558504
0.413561 0.489435 0.565308
0.496348 0.496348 0.572221
0.579134 0.503261 0.579134
0.660608 0.510064 0.585938
0.740769 0.516758 0.592632
0.821718 0.523518 0.599391
0.194234 0.568307 0.568307
0.275182 0.575067 0.575067
0.355344 0.581761 0.581761
0.436817 0.588564 0.588564
0.519604 0.595477 0.595477
0.602391 0.602391 0.602391
0.684732 0.609261 0.607860
0.768709 0.616248 0.608682
0.853512 0.623305 0.609512
0.217121 0.665865 0.591195
0.298070 0.672625 0.597954
0.378231 0.679319 0.604648
0.461859 0.686288 0.608137
0.548588 0.693504 0.608986
0.635316 0.700721 0.609835
0.720669 0.707823 0.610671
0.804647 0.714810 0.611493
0.889450 0.721866 0.612323
0.243084 0.762116 0.608415
0.327887 0.769172 0.609245
0.411865 0.776160 0.610067
0.497218 0.783261 0.610903
0.583946 0.790478 0.611752
0.670674 0.797694 0.612601
0.756027 0.804796 0.613436
0.840005 0.811784 0.614258
0.924808 0.818840 0.615089
0.278790 0.860042 0.611208
0.363593 0.867098 0.612038
0.447570 0.874086 0.612860
0.532923 0.881188 0.613696
0.619652 0.888404 0.614545
0.706380 0.895621 0.615394
0.791733 0.902723 0.616229
0.875711 0.909710 0.617051
0.960514 0.916766 0.617881
0.059509 0.088878 0.571186
0.142356 0.095045 0.574506
0.224396 0.101151 0.577794
0.307779 0.107358 0.581137
0.392506 0.113665 0.584533
0.477234 0.119972 0.587928
0.560617 0.126178 0.591271
0.642657 0.132285 0.594559
0.725503 0.138452 0.597879
0.088633 0.183812 0.582356
0.171479 0.189979 0.585677
0.253519 0.196086 0.588965
0.336902 0.202292 0.592307
0.421630 0.208599 0.595703
0.506357 0.214906 0.599099
0.589740 0.221113 0.602441
0.671780 0.227219 0.605729
0.754627 0.233386 0.609050
0.117472 0.277823 0.593418
0.200319 0.283990 0.596739
0.282359 0.290096 0.600027
0.365742 0.296303 0.603369
0.450469 0.302610 0.606765
0.535197 0.308917 0.610161
0.616775 0.315687 0.616775
0.696936 0.322381 0.623469
0.777885 0.329141 0.630228
0.146784 0.373373 0.604661
0.229631 0.379540 0.607982
0.311142 0.385812 0.612229
0.392615 0.392615 0.619033
0.475402 0.399529 0.625946
0.558189 0.406442 0.632859
0.639662 0.413245 0.639662
0.719823 0.419939 0.646356
0.800772 0.426699 0.653116
0.173288 0.471488 0.622032
0.254237 0.478248 0.628791
0.334398 0.484942 0.635485
0.415872 0.491745 0.642289
0.498658 0.498658 0.649202
0.581445 0.505571 0.656115
0.662919 0.512375 0.662919
0.743080 0.519069 0.669613
0.824029 0.525829 0.676372
0.196544 0.570618 0.645288
0.277493 0.577377 0.652048
0.357654 0.584071 0.658742
0.439128 0.590875 0.665545
0.521915 0.597788 0.672458
0.604701 0.604701 0.679371
0.688359 0.611673 0.682814
0.772337 0.618660 0.683636
0.857140 0.625716 0.684466
0.219432 0.668176 0.668176
0.300381 0.674935 0.674935
0.380542 0.681629 0.681629
0.465487 0.688700 0.683092
0.552216 0.695916 0.683940
0.638944 0.703132 0.684789
0.724297 0.710234 0.685625
0.808275 0.717222 0.686447
0.893078 0.724278 0.687277
0.246712 0.764528 0.683369
0.331515 0.771584 0.684199
0.415493 0.778571 0.685021
0.500846 0.785673 0.685857
0.587574 0.792890 0.686706
0.674302 0.800106 0.687555
0.759655 0.807208 0.688390
0.843633 0.814195 0.689213
0.928436 0.821252 0.690043
0.282418 0.862454 0.686162
0.367221 0.869510 0.686992
0.451198 0.876498 0.687814
0.536551 0.883600 0.688650
0.623280 0.890816 0.689499
0.710008 0.898032 0.690348
0.795361 0.905134 0.691183
0.879339 0.912122 0.692005
0.964142 0.919178 0.692835
0.062421 0.090952 0.645770
0.145267 0.097119 0.649090
0.227307 0.103225 0.652378
0.310691 0.109432 0.655720
0.395418 0.115739 0.659116
0.480145 0.122045 0.662512
0.563529 0.128252 0.665854
0.645569 0.134359 0.669143
0.728415 0.140526 0.672463
0.091544 0.185886 0.656940
0.174390 0.192053 0.660261
0.256430 0.198160 0.663549
0.339814 0.204366 0.666891
0.424541 0.210673 0.670287
0.509268 0.216980 0.673683
0.592652 0.223187 0.677025
0.674692 0.229293 0.680313
0.757538 0.235460 0.683634
0.120384 0.279897 0.668002
0.203230 0.286063 0.671323
0.285270 0.292170 0.674611
0.368654 0.298377 0.677953
0.453381 0.304684 0.681349
0.537574 0.311157 0.685712
0.619048 0.317961 0.692515
0.699209 0.324655 0.699209
0.780158 0.331414 0.705969
0.149696 0.375447 0.679245
0.232542 0.381614 0.682566
0.313415 0.388085 0.687969
0.394889 0.394889 0.694773
0.477675 0.401802 0.701686
0.560462 0.408715 0.708599
0.641936 0.415518 0.715403
0.722097 0.422212 0.722097
0.803046 0.428972 0.728856
0.175561 0.473761 0.697772
0.256510 0.480521 0.704532
0.336671 0.487215 0.711226
0.418145 0.494018 0.718029
0.500932 0.500932 0.724942
0.583718 0.507845 0.731856
0.665192 0.514648 0.738659
0.745353 0.521342 0.745353
0.826302 0.528102 0.752113
0.198818 0.572891 0.721028
0.279766 0.579651 0.727788
0.359927 0.586345 0.734482
0.441401 0.593148 0.741286
0.524188 0.600061 0.748199
0.606974 0.606974 0.755112
0.691929 0.614046 0.756561
0.775907 0.621033 0.757383
0.860710 0.628089 0.758213
0.221705 0.670449 0.743916
0.302654 0.677209 0.750676
0.383704 0.683971 0.756002
0.469057 0.691073 0.756838
0.555785 0.698289 0.757687
0.642513 0.705505 0.758536
0.727866 0.712607 0.759371
0.811844 0.719595 0.760193
0.896647 0.726651 0.761024
0.250281 0.766901 0.757116
0.335084 0.773957 0.757946
0.419062 0.780944 0.758768
0.504415 0.788046 0.759603
0.591143 0.795263 0.760452
0.677872 0.802479 0.761301
0.763225 0.809581 0.762137
0.847203 0.816568 0.762959
0.932005 0.823625 0.763789
0.285987 0.864827 0.759908
0.370790 0.871883 0.760738
0.454768 0.878871 0.761560
0.540121 0.885973 0.762396
0.626849 0.893189 0.763245
0.713577 0.900405 0.764094
0.798931 0.907507 0.764929
0.882908 0.914495 0.765752
0.967711 0.921551 0.766582
0.065361 0.093046 0.721086
0.148207 0.099213 0.724407
0.230247 0.105320 0.727695
0.313631 0.111526 0.731037
0.398358 0.117833 0.734433
0.483085 0.124140 0.737829
0.566469 0.130346 0.741171
0.648509 0.136453 0.744459
0.731355 0.142620 0.747780
0.094484 0.187980 0.732257
0.177330 0.194147 0.735577
0.259370 0.200254 0.738866
0.342754 0.206461 0.742208
0.427481 0.212767 0.745604
0.512208 0.219074 0.749000
0.595592 0.225281 0.752342
0.677632 0.231387 0.755630
0.759935 0.237724 0.759935
0.123324 0.281991 0.743319
0.206170 0.288158 0.746639
0.288210 0.294264 0.749927
0.371594 0.300471 0.753270
0.456321 0.306778 0.756666
0.539870 0.313453 0.762197
0.621344 0.320256 0.769000
0.701505 0.326950 0.775694
0.782454 0.333710 0.782454
0.152636 0.377541 0.754562
0.235482 0.383708 0.757882
0.315710 0.390381 0.764454
0.397184 0.397184 0.771258
0.479971 0.404097 0.778171
0.562757 0.411011 0.785084
0.644231 0.417814 0.791888
0.724392 0.424508 0.798581
0.805341 0.431268 0.805341
0.177857 0.476057 0.774257
0.258806 0.482817 0.781017
0.338967 0.489510 0.787710
0.420441 0.496314 0.794514
0.503227 0.503227 0.801427
0.586014 0.510140 0.808340
0.667488 0.516944 0.815144
0.747649 0.523638 0.821838
0.828597 0.530397 0.828597
0.201113 0.575187 0.797513
0.282062 0.581946 0.804273
0.362223 0.588640 0.810967
0.443697 0.595444 0.817770
0.526483 0.602357 0.824683
0.610180 0.609340 0.830196
0.695533 0.616442 0.831032
0.779511 0.623430 0.831854
0.864314 0.630486 0.832684
0.224001 0.672744 0.820401
0.304949 0.679504 0.827160
0.387308 0.686367 0.830473
0.472661 0.693469 0.831309
0.559390 0.700685 0.832158
0.646118 0.707902 0.833007
0.731471 0.715004 0.833842
0.815449 0.721991 0.834664
0.900252 0.729047 0.835495
0.253886 0.769297 0.831587
0.338689 0.776353 0.832417
0.422667 0.783341 0.833239
0.508020 0.790443 0.834074
0.594748 0.797659 0.834923
0.681476 0.804875 0.835772
0.766829 0.811977 0.836608
0.850807 0.818965 0.837430
0.935610 0.826021 0.838260
0.289592 0.867223 0.834379
0.374395 0.874280 0.835209
0.458372 0.881267 0.836031
0.543725 0.888369 0.836867
0.630454 0.895585 0.837716
0.717182 0.902802 0.838565
0.802535 0.909904 0.839400
0.886513 0.916891 0.840222
0.971316 0.923947 0.841053
