luts/film16mm.cube
# reordered to R-innermost (standard .cube)
LUT_3D_SIZE 5
0.041726 0.076211 0.115621
0.206613 0.088484 0.122230
0.374723 0.100997 0.128968
0.542834 0.113511 0.135706
0.707720 0.125784 0.142315
0.099689 0.265155 0.137853
0.264576 0.277429 0.144462
0.432686 0.289942 0.151200
0.600797 0.302456 0.157938
0.763999 0.315256 0.167599
0.158786 0.457795 0.160521
0.320512 0.471056 0.172856
0.484773 0.484773 0.186573
0.649033 0.498490 0.200290
0.810143 0.511943 0.213743
0.205546 0.654290 0.205546
0.366656 0.667744 0.219000
0.530917 0.681460 0.232717
0.702494 0.695740 0.235176
0.871275 0.709784 0.236828
0.260615 0.847960 0.235713
0.429396 0.862003 0.237365
0.601477 0.876322 0.239050
0.773559 0.890640 0.240734
0.942339 0.904684 0.242386
0.047578 0.080379 0.265522
0.212464 0.092652 0.272130
0.380575 0.105166 0.278868
0.548685 0.117679 0.285607
0.713572 0.129952 0.292215
0.105541 0.269324 0.287754
0.270427 0.281597 0.294363
0.438538 0.294111 0.301101
0.606648 0.306624 0.307839
0.768568 0.319824 0.319824
0.163971 0.462171 0.311628
0.325081 0.475625 0.325081
0.489342 0.489342 0.338798
0.653602 0.503058 0.352515
0.814712 0.516512 0.365968
0.210115 0.658859 0.357772
0.371225 0.672313 0.371225
0.537587 0.686191 0.381709
0.709668 0.700509 0.383393
0.878449 0.714553 0.385046
0.267789 0.852729 0.383930
0.436570 0.866773 0.385582
0.608651 0.881091 0.387267
0.780733 0.895409 0.388951
0.949513 0.909453 0.390604
0.053544 0.084628 0.418354
0.218430 0.096902 0.424962
0.386541 0.109415 0.431700
0.554651 0.121929 0.438439
0.719538 0.134202 0.445047
0.111507 0.273573 0.440586
0.276393 0.285847 0.447195
0.444504 0.298360 0.453933
0.612117 0.311029 0.461573
0.773226 0.324483 0.475026
0.168630 0.466830 0.466830
0.329740 0.480283 0.480283
0.494000 0.494000 0.494000
0.658260 0.507717 0.507717
0.819370 0.521170 0.521170
0.214774 0.663517 0.512974
0.375883 0.676971 0.526427
0.544901 0.691054 0.532825
0.716983 0.705372 0.534509
0.885763 0.719415 0.536161
0.275103 0.857592 0.535046
0.443884 0.871635 0.536698
0.615965 0.885954 0.538383
0.788047 0.900272 0.540067
0.956828 0.914316 0.541719
0.059509 0.088878 0.571186
0.224396 0.101151 0.577794
0.392506 0.113665 0.584533
0.560617 0.126178 0.591271
0.725503 0.138452 0.597879
0.117472 0.277823 0.593418
0.282359 0.290096 0.600027
0.450469 0.302610 0.606765
0.616775 0.315687 0.616775
0.777885 0.329141 0.630228
0.173288 0.471488 0.622032
0.334398 0.484942 0.635485
0.498658 0.498658 0.649202
0.662919 0.512375 0.662919
0.824029 0.525829 0.676372
0.219432 0.668176 0.668176
0.380542 0.681629 0.681629
0.552216 0.695916 0.683940
0.724297 0.710234 0.685625
0.893078 0.724278 0.687277
0.282418 0.862454 0.686162
0.451198 0.876498 0.687814
0.623280 0.890816 0.689499
0.795361 0.905134 0.691183
0.964142 0.919178 0.692835
0.065361 0.093046 0.721086
0.230247 0.105320 0.727695
0.398358 0.117833 0.734433
0.566469 0.130346 0.741171
0.731355 0.142620 0.747780
0.123324 0.281991 0.743319
0.288210 0.294264 0.749927
0.456321 0.306778 0.756666
0.621344 0.320256 0.769000
0.782454 0.333710 0.782454
0.177857 0.476057 0.774257
0.338967 0.489510 0.787710
0.503227 0.503227 0.801427
0.667488 0.516944 0.815144
0.828597 0.530397 0.828597
0.224001 0.672744 0.820401
0.387308 0.686367 0.830473
0.559390 0.700685 0.832158
0.731471 0.715004 0.833842
0.900252 0.729047 0.835495
0.289592 0.867223 0.834379
0.458372 0.881267 0.836031
0.630454 0.895585 0.837716
0.802535 0.909904 0.839400
0.971316 0.923947 0.841053
