luts/hakubo.cube
TITLE "Generated by Resolve"
LUT_3D_SIZE 33
0 0 0
0 0 0
0 0 0
0 0 0
6.10361e-05 0 0
0.000915541 0 0
0.0043183 0 0
0.0138399 0 0
0.0306554 0 0
0.0534371 0 0
0.0832227 0 0
0.114778 0 0
0.144961 0 0
0.174746 0 0
0.203952 0 0
0.232563 0 0
0.26125 0 0
0.287984 0 0
0.314504 0 0
0.34023 0 0
0.364111 0 0
0.387411 0 0
0.409613 0 0
0.429114 0 0
0.447379 0 0
0.466026 0 0
0.485481 0 0
0.503319 0 0
0.523186 0 0
0.544732 0 0
0.569772 1.5259e-05 0
0.600015 6.10361e-05 0
0.639109 0.000228885 0
0 0 0
0 0 0
0 0 0
0 0 0
4.57771e-05 0 0
0.000885023 0 0
0.00410468 0 0
0.0131228 0 0
0.0292515 0 0
0.0511635 0 0
0.0801556 0 0
0.111528 0 0
0.141756 0 0
0.171298 0 0
0.200565 0 0
0.229206 0 0
0.257755 0 0
0.28455 0 0
0.310979 0 0
0.337301 0 0
0.36083 0 0
0.384161 0 0
0.40679 0 0
0.426261 0 0
0.444663 0 0
0.463432 0 0
0.481559 0 0
0.499458 0 0
0.520302 0 0
0.541802 1.5259e-05 0
0.568551 4.57771e-05 0
0.598779 0.000106813 0
0.637736 0.000335698 0
0 0 0
0 0 0
0 0 0
0 0 0
4.57771e-05 0 0
0.000946059 0 0
0.00408942 0 0
0.0128176 0 0
0.0284733 0 0
0.0497292 0 0
0.0778058 0 0
0.109071 0 0
0.139055 0 0
0.168429 0 0
0.197589 0 0
0.226123 0 0
0.25452 0 0
0.281437 0 0
0.30779 0 0
0.334295 0 0
0.3579 0 0
0.381033 0 0
0.404257 0 0
0.423636 0 0
0.439979 0 0
0.457359 0 0
0.476066 0 0
0.495537 0 0
0.51751 1.5259e-05 0
0.540139 3.0518e-05 0
0.567208 7.62951e-05 0
0.598764 0.000198367 0
0.637095 0.000534066 0
0 0 0
0 0 0
0 0 0
0 0 0
6.10361e-05 0 0
0.00117494 0 0
0.00454719 0 0
0.0133822 0 0
0.0287938 0 0
0.0495766 0 0
0.0771038 0 0
0.107805 0 0
0.13753 0 0
0.166506 0 0
0.195254 0 0
0.223499 0 0
0.251911 0 0
0.278935 0 0
0.305043 0 0
0.331228 0 0
0.354269 0 0
0.375189 0 0
0.396063 0 0
0.413931 0 0
0.431586 0 0
0.450584 0 0
0.471519 1.5259e-05 0
0.49308 1.5259e-05 0
0.515755 4.57771e-05 0
0.539361 9.15541e-05 0
0.568276 0.000198367 0
0.599496 0.000396735 0
0.639231 0.000976577 0
0 0.000427253 1.5259e-05
0 0.000350958 0
0 0.000289921 0
0 0.000244144 0
0 0 0
0.000595102 0 0
0.00238041 0 0
0.00668345 0 0
0.016434 0 0
0.0315557 0 0
0.0531167 0 0
0.087129 0 0
0.122728 0 0
0.152377 0 0
0.180865 0 0
0.208667 0 0
0.23566 0 0
0.261631 0 0
0.287221 0 0
0.312963 0 0
0.335821 0 0
0.358557 0 0
0.38117 0 0
0.403143 0 0
0.424308 1.5259e-05 0
0.446571 3.0518e-05 0
0.468971 4.57771e-05 0
0.491554 9.15541e-05 0
0.51603 0.000167849 0
0.541222 0.000289921 0
0.571618 0.000549325 0
0.604807 0.00105287 0
0.644862 0.00215152 0
0 0.00383001 0.000137331
0 0.00361639 0.000122072
0 0.00341802 0.000122072
0 0.00325017 6.10361e-05
0 0.000595102 0
0.000137331 0.000137331 0
0.00103761 4.57771e-05 0
0.0037232 3.0518e-05 0
0.0101015 3.0518e-05 0
0.0212863 4.57771e-05 0
0.0381323 6.10361e-05 0
0.0600748 9.15541e-05 0
0.0858778 0.000122072 0
0.112291 0.000167849 0
0.139437 0.000213626 0
0.166888 0.000259403 0
0.19501 0.000335698 0
0.223529 0.000411994 0
0.252461 0.000518807 0
0.28159 0.000640879 0
0.310353 0.000793469 0
0.339803 0.000991836 0
0.368597 0.00123598 0
0.396475 0.00155642 0
0.424369 0.00195315 0
0.453498 0.00241093 0
0.481041 0.00289921 0
0.509773 0.00340276 0
0.530739 0.00225834 0
0.555734 0.00222782 0
0.584772 0.00288396 0
0.618006 0.00419623 0
0.657649 0.00672923 0
0 0.0112917 0.000381476
0 0.0107729 0.000366217
0 0.0105898 0.000320439
0 0.00943008 0.00015259
0 0.00349432 0
4.57771e-05 0.00125124 0
0.000564584 0.000640879 0
0.00233463 0.000396735 0
0.00730907 0.00030518 0
0.0178073 0.000274662 0
0.0335851 0.00030518 0
0.0538491 0.000366217 0
0.0788128 0.000442512 0
0.106844 0.000549325 0
0.13463 0.000686656 0
0.162203 0.000839246 0
0.191119 0.00103761 0
0.220691 0.00128176 0
0.250446 0.00157168 0
0.280415 0.00192264 0
0.310689 0.00236515 0
0.341787 0.00291447 0
0.371405 0.00358587 0
0.400046 0.00440986 0
0.429129 0.00549325 0
0.459525 0.00679026 0
0.488518 0.00834669 0
0.519921 0.0104524 0
0.550118 0.013138 0
0.581399 0.0163577 0
0.614038 0.0207523 0
0.648951 0.0261082 0
0.689906 0.0348211 0
0 0.024445 0.000869764
0 0.0237583 0.000839246
0 0.0238346 0.000595102
0 0.0201877 0.00030518
0 0.0109712 6.10361e-05
3.0518e-05 0.00511177 0
0.000381476 0.00302129 0
0.00164797 0.00196841 0
0.00555428 0.00137331 0
0.0143587 0.00106813 0
0.0294041 0.0010071 0
0.0495613 0.0010071 0
0.0745098 0.00111391 0
0.103243 0.00131228 0
0.131762 0.00154116 0
0.159823 0.00181582 0
0.188968 0.00216678 0
0.21883 0.00260929 0
0.248859 0.0031281 0
0.279805 0.0037232 0
0.310277 0.00447089 0
0.341482 0.00538643 0
0.371588 0.00646983 0
0.400656 0.00775158 0
0.429648 0.00936904 0
0.459571 0.0113375 0
0.489189 0.0136416 0
0.520577 0.0164187 0
0.551186 0.0196536 0
0.5832 0.0236667 0
0.616144 0.0288548 0
0.650813 0.0352941 0
0.690806 0.0449683 0
0 0.0430304 0.00166323
0 0.0435035 0.00131228
0 0.040177 0.000869764
0 0.0327916 0.000442512
0 0.0217441 0.00015259
4.57771e-05 0.0135653 0
0.000366217 0.00921645 0
0.00132753 0.00654612 0
0.00437934 0.00454719 0
0.0118868 0.00344854 0
0.02533 0.00300603 0
0.0446784 0.00277714 0
0.0701762 0.00274662 0
0.10045 0.00289921 0
0.130373 0.0031281 0
0.158724 0.00357061 0
0.187823 0.00415045 0
0.217288 0.00482185 0
0.247532 0.00560006 0
0.278691 0.0065156 0
0.309316 0.00769055 0
0.340551 0.00903334 0
0.370916 0.010544 0
0.400076 0.0123751 0
0.429038 0.014435 0
0.458869 0.0166476 0
0.489128 0.0193942 0
0.520592 0.0226139 0
0.551583 0.0263523 0
0.583154 0.0307164 0
0.61561 0.0362554 0
0.649821 0.0431067 0
0.68893 0.0531319 0
0 0.0680858 0.00224308
0 0.0642863 0.00163272
0 0.0568551 0.00103761
0 0.0450752 0.000549325
0 0.0348516 0.000244144
7.62951e-05 0.0265965 3.0518e-05
0.000396735 0.0214694 0
0.00128176 0.0165713 0
0.00366217 0.0121309 0
0.00994888 0.00921645 0
0.0226291 0.00756847 0
0.0408179 0.0065919 0
0.0654307 0.00627146 0
0.0960861 0.00616464 0
0.127626 0.00614939 0
0.158114 0.00657664 0
0.18764 0.00729381 0
0.217075 0.00820935 0
0.247303 0.00936904 0
0.278965 0.0107576 0
0.309804 0.0124666 0
0.340597 0.0141451 0
0.371267 0.0160372 0
0.400473 0.018204 0
0.428962 0.0206149 0
0.458427 0.0231479 0
0.488579 0.026215 0
0.519738 0.0297856 0
0.55021 0.033875 0
0.581338 0.0387579 0
0.614115 0.0445869 0
0.649042 0.0520638 0
0.68777 0.0624704 0
0 0.090135 0.00242618
0 0.0813306 0.00170901
0 0.069398 0.00109865
0 0.05832 0.000656138
0 0.0498665 0.000366217
0.000137331 0.0425574 9.15541e-05
0.000534066 0.0373999 1.5259e-05
0.00144961 0.03122 0
0.0033875 0.0255436 0
0.00852979 0.0210422 0
0.0196841 0.0172732 0
0.0366369 0.0148623 0
0.0600443 0.0135348 0
0.0903639 0.0128328 0
0.122362 0.0123293 0
0.153704 0.0125124 0
0.184955 0.0129091 0
0.216236 0.0137636 0
0.247059 0.0149996 0
0.278645 0.0165713 0
0.309102 0.0184176 0
0.339788 0.0203403 0
0.370245 0.0224613 0
0.399496 0.0249332 0
0.427695 0.0277409 0
0.457038 0.0306096 0
0.487343 0.0339361 0
0.518227 0.0378882 0
0.548806 0.0424048 0
0.580346 0.0477302 0
0.61355 0.0539254 0
0.64921 0.0623026 0
0.687037 0.0733501 0
0 0.102358 0.00216678
0 0.0923781 0.00154116
0 0.0827649 0.00108339
0 0.0737011 0.000762951
0 0.0676738 0.000518807
0.000228885 0.0624094 0.000198367
0.000762951 0.0568399 7.62951e-05
0.00167849 0.0506142 1.5259e-05
0.00326543 0.0449989 0
0.00781262 0.0382239 0
0.0175784 0.0319829 0
0.033402 0.0276188 0
0.0560006 0.0247044 0
0.0861677 0.0227207 0
0.118364 0.0213474 0
0.149477 0.0211948 0
0.181216 0.0212253 0
0.213062 0.0216831 0
0.245487 0.0224918 0
0.278965 0.0234989 0
0.308949 0.0253605 0
0.339498 0.0275273 0
0.369757 0.0299535 0
0.39881 0.0327611 0
0.42649 0.0359045 0
0.455528 0.0390784 0
0.485786 0.0427405 0
0.516594 0.0470741 0
0.547356 0.052018 0
0.5794 0.0578012 0
0.612818 0.0645457 0
0.648829 0.0736248 0
0.68716 0.086183 0
0 0.110094 0.00187686
0 0.103044 0.00149538
0 0.0952926 0.00114443
0 0.0912184 0.000915541
1.5259e-05 0.0877394 0.000717174
0.000137331 0.0847028 0.000442512
0.00109865 0.078584 0.00015259
0.00201419 0.073518 7.62951e-05
0.0037232 0.0674144 3.0518e-05
0.00782788 0.0590982 0
0.0157168 0.0514382 0
0.0300603 0.0451972 0
0.0513313 0.0402533 0
0.0801556 0.0363622 0
0.113176 0.0337377 0
0.144961 0.0327764 0
0.176822 0.0321508 0
0.208728 0.032166 0
0.241001 0.0326543 0
0.274693 0.0331426 0
0.306554 0.0345464 0
0.338033 0.0363622 0
0.368673 0.0386511 0
0.39733 0.0417029 0
0.424796 0.0450446 0
0.453956 0.0485237 0
0.484092 0.0526436 0
0.514611 0.0573129 0
0.545815 0.0627604 0
0.578363 0.0691844 0
0.613535 0.0773938 0
0.651392 0.0884871 0
0.690394 0.10135 0
1.5259e-05 0.118578 0.00181582
1.5259e-05 0.11545 0.00158694
1.5259e-05 0.111986 0.00135805
3.0518e-05 0.109209 0.00114443
6.10361e-05 0.106859 0.0009308
0.000213626 0.10518 0.000701915
0.00155642 0.10219 0.000274662
0.00256352 0.0990921 0.000167849
0.00457771 0.0923018 7.62951e-05
0.00840772 0.0842298 3.0518e-05
0.0153201 0.0758831 0
0.0270848 0.0684215 0
0.0470588 0.0607156 0
0.0747387 0.0545052 0
0.10753 0.0501564 0
0.140124 0.0475319 0
0.17261 0.0458381 0
0.204501 0.045304 0
0.236576 0.0453193 0
0.269718 0.0452888 0
0.30106 0.0463417 0
0.333333 0.0476997 0
0.36556 0.0495308 0
0.396262 0.0519875 0
0.423331 0.0553902 0
0.45243 0.0592813 0
0.482887 0.0640116 0
0.515007 0.0698558 0
0.547936 0.0766766 0
0.582513 0.0850538 0
0.617792 0.093904 0
0.655436 0.104875 0
0.693828 0.117418 0
6.10361e-05 0.133806 0.00201419
6.10361e-05 0.13138 0.00178531
7.62951e-05 0.129213 0.00158694
0.000122072 0.127108 0.00137331
0.000183108 0.125917 0.00120546
0.000381476 0.125246 0.000991836
0.002121 0.12546 0.00047303
0.00347906 0.122438 0.00030518
0.00560006 0.116625 0.000167849
0.00923171 0.110384 7.62951e-05
0.0157626 0.103151 3.0518e-05
0.0262608 0.09514 0
0.0434119 0.0860609 0
0.0693065 0.0776226 0
0.102174 0.0712444 0
0.135302 0.0662699 0
0.168353 0.0628977 0
0.199969 0.0615702 0
0.231983 0.0607156 0
0.265248 0.060029 0
0.295949 0.060853 0
0.328634 0.0621653 0
0.361578 0.0641337 0
0.393576 0.0667277 0
0.42414 0.0700847 0
0.456001 0.0745251 0
0.487205 0.0803235 0
0.519188 0.0869306 0
0.552407 0.0940871 0
0.58677 0.101915 0
0.622095 0.111299 0
0.659846 0.122164 0
0.697581 0.134874 0
0.000228885 0.153277 0.00259403
0.000244144 0.151003 0.00233463
0.000274662 0.149218 0.002121
0.000335698 0.147906 0.00190738
0.000457771 0.146868 0.00167849
0.000747692 0.146319 0.00143435
0.00332647 0.149462 0.000793469
0.00538643 0.146258 0.000518807
0.00775158 0.142336 0.000350958
0.0113375 0.137926 0.000213626
0.0178073 0.131441 0.000106813
0.0278935 0.123735 3.0518e-05
0.043183 0.114977 0
0.0666667 0.106905 0
0.0986038 0.0991989 0
0.133104 0.0922255 0
0.167575 0.0866407 0
0.199329 0.0842908 0
0.23209 0.0825513 0
0.265599 0.080705 0
0.297139 0.0816968 0
0.329671 0.0830243 0
0.361959 0.0846265 0
0.393561 0.0868391 0
0.425483 0.0901503 0
0.458351 0.0943923 0
0.490776 0.0992599 0
0.523781 0.105058 0
0.557504 0.112276 0
0.592172 0.120455 0
0.627588 0.1299 0
0.664271 0.140566 0
0.702281 0.153918 0
0.000579843 0.176013 0.00378424
0.000610361 0.174197 0.00344854
0.000686656 0.172869 0.00314336
0.000808728 0.171649 0.00283818
0.00102235 0.170672 0.00254826
0.00143435 0.170199 0.00225834
0.00561532 0.174701 0.00144961
0.00862135 0.173373 0.00105287
0.011429 0.171466 0.000808728
0.0154421 0.168261 0.000564584
0.0216373 0.163439 0.000335698
0.0318914 0.156222 0.000167849
0.0465095 0.148669 7.62951e-05
0.0669261 0.140627 1.5259e-05
0.0983444 0.131426 0
0.132601 0.12311 0
0.168063 0.116289 0
0.200061 0.112581 0
0.233646 0.108904 0
0.267201 0.106432 0
0.299062 0.106661 0
0.331456 0.107149 0
0.36347 0.108186 0
0.39472 0.109758 0
0.426184 0.112764 0
0.459571 0.116152 0
0.49305 0.120043 0
0.527352 0.125643 0
0.562295 0.132662 0
0.597498 0.140566 0
0.632776 0.15024 0
0.669322 0.16112 0
0.707515 0.174716 0
0.00132753 0.200092 0.00564584
0.00140383 0.198566 0.00521859
0.00155642 0.197436 0.00480659
0.00175479 0.196231 0.00440986
0.00209049 0.195392 0.00402838
0.00296025 0.195743 0.00363165
0.0087892 0.200763 0.00268559
0.0135348 0.201862 0.00205997
0.0169375 0.201343 0.00169375
0.0217746 0.198825 0.0012665
0.0284886 0.195163 0.000900282
0.0383001 0.189944 0.000595102
0.0523232 0.183001 0.000335698
0.0718242 0.175433 0.00015259
0.0996109 0.166506 4.57771e-05
0.132891 0.15787 0
0.168048 0.150225 0
0.201099 0.144381 0
0.235431 0.138567 0
0.269062 0.135088 0
0.301244 0.134157 0
0.333898 0.133639 0
0.365316 0.133776 0
0.396628 0.134874 0
0.427878 0.137072 0
0.460624 0.139773 0
0.494362 0.143984 0
0.529992 0.14905 0
0.566171 0.154833 0
0.602625 0.162783 0
0.638498 0.172457 0
0.675135 0.183291 0
0.713008 0.196796 0
0.00276188 0.226734 0.00891127
0.00288396 0.224933 0.00825513
0.00321965 0.223682 0.00766003
0.00370794 0.222721 0.00706493
0.00437934 0.222141 0.00646983
0.00553903 0.222217 0.00595102
0.00909438 0.224537 0.00527962
0.0208743 0.230747 0.00396735
0.0257267 0.23032 0.00329595
0.0308537 0.229633 0.00271611
0.0382391 0.226703 0.00215152
0.0478065 0.223163 0.00164797
0.0615244 0.217517 0.00111391
0.0809033 0.211002 0.000686656
0.105638 0.203311 0.000381476
0.135393 0.195117 0.00015259
0.167468 0.187121 3.0518e-05
0.20238 0.17908 0
0.237278 0.171557 0
0.27071 0.167269 0
0.302953 0.164858 0
0.336049 0.162722 0
0.367529 0.162234 0
0.398566 0.162951 0
0.42977 0.164416 0
0.462684 0.166232 0
0.496345 0.170016 0
0.53167 0.174792 0
0.567895 0.180529 0
0.607279 0.187518 0
0.644602 0.195651 0
0.681559 0.207279 0
0.718563 0.220111 0
0.00579843 0.256352 0.0149233
0.00614939 0.254627 0.0139467
0.0065919 0.253132 0.0130159
0.00724804 0.252201 0.0121462
0.0081178 0.251301 0.0113069
0.00953689 0.251011 0.0103761
0.0141451 0.252491 0.00952163
0.0310674 0.260624 0.00776684
0.037232 0.261555 0.00675975
0.043061 0.260914 0.00590524
0.0503395 0.259831 0.005066
0.0605936 0.257771 0.00418097
0.0736706 0.254994 0.00332647
0.0927138 0.249531 0.00238041
0.114275 0.24303 0.0016022
0.138933 0.235401 0.000991836
0.169665 0.226612 0.000442512
0.203708 0.217639 0.000137331
0.240314 0.208423 3.0518e-05
0.272587 0.202869 0
0.305287 0.198688 0
0.338964 0.195514 0
0.370977 0.193622 0
0.401404 0.19321 0
0.4327 0.193561 0
0.465324 0.195285 0
0.498741 0.198398 0
0.533883 0.201999 0
0.570367 0.208408 0
0.609964 0.215061 0
0.6486 0.2224 0
0.688045 0.233234 0
0.725063 0.246509 0
0.0119478 0.287236 0.0244755
0.0124208 0.285466 0.0230869
0.0129549 0.283543 0.0216831
0.0137026 0.281773 0.0203555
0.0153658 0.280995 0.0192264
0.0178683 0.280415 0.0181125
0.0226749 0.281178 0.0169833
0.0438849 0.288899 0.0149233
0.0521401 0.290135 0.0134279
0.0596933 0.290318 0.0121309
0.068986 0.290318 0.0107118
0.0805219 0.289418 0.00929274
0.0942702 0.287404 0.00782788
0.109316 0.284352 0.00633249
0.128237 0.279255 0.00483711
0.149828 0.273594 0.00357061
0.176562 0.265461 0.00222782
0.207507 0.257099 0.00115969
0.242069 0.248798 0.00047303
0.274052 0.242191 0.000213626
0.307576 0.23653 9.15541e-05
0.341466 0.23183 3.0518e-05
0.374243 0.228367 1.5259e-05
0.4047 0.226535 0
0.43621 0.225986 0
0.468971 0.22652 0
0.501839 0.228397 0
0.537026 0.231907 0
0.573968 0.237797 0
0.612833 0.243717 0
0.65182 0.251728 0
0.691844 0.261158 0
0.730632 0.272557 0
0.0214084 0.318059 0.0385443
0.0223545 0.316457 0.0367132
0.0234989 0.314977 0.0350347
0.024918 0.313756 0.0333867
0.0267491 0.312367 0.0317082
0.0295262 0.311559 0.0301366
0.0343938 0.311482 0.0285649
0.0602274 0.317586 0.0264439
0.0721447 0.319814 0.0244907
0.0823072 0.320851 0.0227207
0.0926833 0.321202 0.0208743
0.10454 0.321904 0.0191348
0.116213 0.320577 0.0170138
0.129519 0.319081 0.0149386
0.14641 0.316045 0.0126955
0.165652 0.31162 0.0100862
0.188006 0.305501 0.00750744
0.213687 0.298177 0.005066
0.242405 0.290898 0.00306706
0.275441 0.283818 0.00154116
0.309255 0.276677 0.000839246
0.343221 0.270161 0.00047303
0.376074 0.26453 0.000274662
0.407172 0.262043 0.00015259
0.439475 0.260212 9.15541e-05
0.471611 0.259342 4.57771e-05
0.504341 0.260182 3.0518e-05
0.539757 0.262684 1.5259e-05
0.57673 0.267445 1.5259e-05
0.614603 0.272435 1.5259e-05
0.653803 0.27982 1.5259e-05
0.693675 0.287907 1.5259e-05
0.733883 0.298161 1.5259e-05
0.0343786 0.347601 0.0569924
0.0355688 0.345983 0.0545968
0.0368353 0.344366 0.0523995
0.0384222 0.34284 0.0502327
0.0404669 0.341634 0.048249
0.0433356 0.340368 0.0460822
0.0483864 0.339818 0.0440375
0.079118 0.346197 0.0418555
0.0954147 0.348699 0.0399481
0.105135 0.349599 0.0374914
0.115511 0.350576 0.0350652
0.126619 0.351125 0.0327153
0.138079 0.351492 0.0304112
0.151461 0.351293 0.0281071
0.166583 0.350484 0.0257115
0.18294 0.346792 0.0221714
0.200946 0.342443 0.0186313
0.221408 0.337301 0.0153506
0.246662 0.331136 0.011017
0.276646 0.323674 0.00675975
0.310567 0.315602 0.00360113
0.344045 0.30808 0.00213626
0.377005 0.301564 0.00138857
0.408911 0.29688 0.000915541
0.441001 0.292882 0.000579843
0.472877 0.29102 0.000396735
0.506157 0.290562 0.000274662
0.5411 0.291936 0.000213626
0.5776 0.295338 0.000183108
0.615503 0.300145 0.000167849
0.654475 0.306172 0.000167849
0.694118 0.313863 0.000183108
0.735958 0.323018 0.000198367
0.0492409 0.374487 0.0796368
0.0507362 0.372854 0.0767529
0.0523995 0.371267 0.0739147
0.0543984 0.369711 0.0710765
0.0572366 0.368444 0.0684672
0.0611124 0.367544 0.0661936
0.0672465 0.367208 0.0639353
0.0971237 0.371817 0.0611734
0.116014 0.374807 0.0583658
0.126345 0.376013 0.0557412
0.136782 0.377188 0.0531014
0.148302 0.378439 0.0503548
0.160678 0.37966 0.0477455
0.174121 0.380392 0.0449836
0.188083 0.380606 0.0420996
0.201495 0.378256 0.0383764
0.216571 0.375921 0.034699
0.233539 0.37319 0.0311131
0.255207 0.366934 0.0253452
0.28069 0.359686 0.0188907
0.311681 0.351614 0.0117189
0.344137 0.343771 0.00701915
0.376837 0.336538 0.00444038
0.408804 0.329931 0.00309758
0.441794 0.324376 0.00216678
0.474006 0.321508 0.00158694
0.507485 0.319661 0.00115969
0.541604 0.319844 0.000915541
0.578302 0.322072 0.00077821
0.616114 0.326207 0.000717174
0.654582 0.331365 0.000701915
0.694102 0.338369 0.000762951
0.736141 0.347387 0.000839246
0.0666514 0.401648 0.105257
0.0687724 0.399985 0.102525
0.0711681 0.398489 0.0996109
0.0741588 0.396872 0.0966049
0.0775158 0.395575 0.0936446
0.0822461 0.394507 0.0907607
0.0885176 0.393973 0.0881056
0.101991 0.395239 0.0851606
0.135164 0.400534 0.0819715
0.146731 0.401602 0.0789807
0.157427 0.402838 0.0758373
0.169696 0.404562 0.0728771
0.18262 0.405783 0.0695048
0.19675 0.407004 0.0661326
0.209003 0.40708 0.0626383
0.221408 0.406882 0.0592813
0.23476 0.406195 0.0557565
0.249607 0.404654 0.0517128
0.268345 0.399435 0.0445106
0.289052 0.39321 0.0374456
0.31223 0.386465 0.0304417
0.343267 0.379187 0.0205539
0.374899 0.371633 0.0134585
0.407355 0.364065 0.00872816
0.441276 0.35671 0.00631724
0.47422 0.352392 0.00474556
0.507668 0.348638 0.0034638
0.541665 0.347646 0.00274662
0.578531 0.348638 0.00228885
0.615473 0.351339 0.00205997
0.654246 0.356085 0.00202945
0.693721 0.362142 0.00209049
0.735897 0.370871 0.00230411
0.0859236 0.427619 0.130205
0.0882277 0.426108 0.127245
0.0907759 0.424491 0.124315
0.0935378 0.423377 0.121767
0.0968032 0.422324 0.119112
0.100954 0.421607 0.116503
0.106798 0.42092 0.113573
0.117235 0.421317 0.110384
0.152712 0.426337 0.107103
0.164889 0.427588 0.104433
0.17586 0.428473 0.101869
0.188327 0.429816 0.0987716
0.20209 0.431479 0.0952926
0.215671 0.432807 0.0916915
0.227207 0.433341 0.0884108
0.239475 0.434012 0.0850385
0.252476 0.434531 0.0818036
0.266484 0.433097 0.0762036
0.281727 0.429679 0.069398
0.299336 0.425437 0.0622263
0.319158 0.420249 0.0544289
0.343023 0.413642 0.0449683
0.373404 0.405798 0.0318914
0.406058 0.398016 0.0219577
0.439826 0.390585 0.0156558
0.473228 0.384298 0.0118105
0.506706 0.378607 0.00854505
0.540658 0.376577 0.00680552
0.577554 0.37583 0.00550851
0.613962 0.377066 0.00489815
0.653132 0.380438 0.00466926
0.693126 0.385962 0.00476081
0.7355 0.394598 0.00517281
0.104952 0.453635 0.155337
0.107118 0.452384 0.152834
0.109438 0.450935 0.150072
0.112245 0.449714 0.14728
0.11545 0.448768 0.14461
0.119677 0.44773 0.141711
0.125338 0.447059 0.138903
0.134874 0.446876 0.135927
0.170016 0.45124 0.132143
0.182864 0.451896 0.129839
0.193713 0.453071 0.126955
0.206195 0.454566 0.123873
0.220371 0.456535 0.120638
0.231861 0.457237 0.117433
0.244556 0.458259 0.114321
0.257206 0.458824 0.111025
0.270466 0.459312 0.107576
0.283116 0.458335 0.102861
0.296864 0.457099 0.0978408
0.311498 0.454902 0.0922713
0.328466 0.45095 0.0845045
0.347356 0.445716 0.0747997
0.372198 0.438437 0.0614939
0.402869 0.431022 0.0460365
0.436851 0.424033 0.0331273
0.470985 0.416464 0.0243839
0.505089 0.409522 0.0188449
0.5393 0.406607 0.0152895
0.576898 0.40325 0.0120089
0.613138 0.403082 0.0103914
0.651667 0.404852 0.00944533
0.69192 0.409552 0.00932326
0.73492 0.41709 0.00996414
0.123796 0.479927 0.180529
0.126085 0.478523 0.177996
0.128542 0.477272 0.17525
0.131395 0.476081 0.172656
0.134722 0.474891 0.169787
0.138857 0.473808 0.166979
0.144289 0.472999 0.163973
0.152834 0.472541 0.160784
0.18616 0.476219 0.156649
