luts/hakubo.cube
TITLE "Generated by Resolve"
LUT_3D_SIZE 9
0 0 0
6.10361e-05 0 0
0.0306554 0 0
0.144961 0 0
0.26125 0 0
0.364111 0 0
0.447379 0 0
0.523186 0 0
0.639109 0.000228885 0
0 0.000427253 1.5259e-05
0 0 0
0.016434 0 0
0.122728 0 0
0.23566 0 0
0.335821 0 0
0.424308 1.5259e-05 0
0.51603 0.000167849 0
0.644862 0.00215152 0
0 0.0430304 0.00166323
0 0.0217441 0.00015259
0.00437934 0.00454719 0
0.0701762 0.00274662 0
0.187823 0.00415045 0
0.309316 0.00769055 0
0.429038 0.014435 0
0.551583 0.0263523 0
0.68893 0.0531319 0
0 0.110094 0.00187686
1.5259e-05 0.0877394 0.000717174
0.0037232 0.0674144 3.0518e-05
0.0513313 0.0402533 0
0.176822 0.0321508 0
0.306554 0.0345464 0
0.424796 0.0450446 0
0.545815 0.0627604 0
0.690394 0.10135 0
0.000579843 0.176013 0.00378424
0.00102235 0.170672 0.00254826
0.011429 0.171466 0.000808728
0.0465095 0.148669 7.62951e-05
0.168063 0.116289 0
0.299062 0.106661 0
0.426184 0.112764 0
0.562295 0.132662 0
0.707515 0.174716 0
0.0119478 0.287236 0.0244755
0.0153658 0.280995 0.0192264
0.0521401 0.290135 0.0134279
0.0942702 0.287404 0.00782788
0.176562 0.265461 0.00222782
0.307576 0.23653 9.15541e-05
0.43621 0.225986 0
0.573968 0.237797 0
0.730632 0.272557 0
0.0666514 0.401648 0.105257
0.0775158 0.395575 0.0936446
0.135164 0.400534 0.0819715
0.18262 0.405783 0.0695048
0.23476 0.406195 0.0557565
0.31223 0.386465 0.0304417
0.441276 0.35671 0.00631724
0.578531 0.348638 0.00228885
0.735897 0.370871 0.00230411
0.142061 0.505302 0.205646
0.153552 0.500343 0.194537
0.201678 0.50071 0.181231
0.248951 0.502434 0.171389
0.300343 0.506523 0.159472
0.3514 0.505074 0.14406
0.427619 0.487907 0.104997
0.569787 0.460792 0.0388037
0.732799 0.46244 0.0270085
0.226795 0.607034 0.310231
0.235767 0.601068 0.299062
0.254337 0.596368 0.286259
0.312947 0.595163 0.269215
0.357519 0.595239 0.262074
0.403723 0.599954 0.249973
0.450675 0.604761 0.236957
0.523598 0.600702 0.204517
0.719051 0.56759 0.0978103
0 0 0.000213626
0 0 6.10361e-05
0.0111696 6.10361e-05 0
0.10486 6.10361e-05 0
0.233722 4.57771e-05 0
0.350408 3.0518e-05 0
0.454108 0 0
0.542062 0 0
0.674815 0.000640879 0
0 0.000991836 0.00285344
6.10361e-05 0.00112917 0.000747692
0.0298772 0.000396735 0
0.129259 0 0
0.23653 0 0
0.338643 0 0
0.432639 4.57771e-05 0
0.53225 0.000411994 0
0.670161 0.00430304 0
0 0.031281 0.00347906
0 0.0341039 0.000564584
0.00639353 0.00822461 0
0.0818952 0.00460822 0
0.20238 0.00634775 0
0.32813 0.0115053 0
0.452476 0.0205081 0
0.579431 0.0366827 0
0.718379 0.0733043 0
0 0.145205 0.00961318
0.00015259 0.107301 0.00209049
0.00779736 0.0895247 0.000259403
0.0650034 0.055375 0
0.197635 0.0428168 0
0.333379 0.046891 0
0.456199 0.0621653 0
0.583017 0.0885939 0
0.721462 0.132067 0
0.00146487 0.226001 0.0222324
0.00318914 0.208835 0.0127871
0.0277256 0.209903 0.00630198
0.0739757 0.192065 0.00195315
0.196063 0.155337 3.0518e-05
0.329763 0.140856 0
0.459785 0.147051 0
0.595483 0.169497 0
0.733471 0.212741 0
0.0192569 0.327443 0.0706493
0.0281682 0.317739 0.0551003
0.0834821 0.31957 0.04271
0.135332 0.321736 0.0320134
0.208591 0.304738 0.0163577
0.3308 0.274296 0.00248722
0.458854 0.259815 0.000534066
0.595346 0.269841 0.000244144
0.74313 0.300679 0.000289921
0.0713054 0.42652 0.154818
0.0863355 0.419989 0.140444
0.149508 0.421027 0.123293
0.20061 0.424369 0.11075
0.257389 0.425208 0.0949721
0.329686 0.406821 0.062211
0.454475 0.377203 0.0196536
0.588891 0.367391 0.00843824
0.742031 0.38793 0.00791943
0.142779 0.518166 0.238926
0.155901 0.513619 0.227756
0.206973 0.512535 0.210895
0.257527 0.512749 0.200366
0.311116 0.515557 0.188769
0.365606 0.514199 0.173709
0.438239 0.498619 0.136782
0.575601 0.471717 0.0595865
0.735332 0.472007 0.041474
0.223972 0.613428 0.32932
0.234134 0.607813 0.318791
0.253513 0.602594 0.305715
0.316564 0.600626 0.286839
0.362707 0.599557 0.279103
0.410697 0.60351 0.266697
0.458198 0.608286 0.253437
0.527977 0.605509 0.223041
0.718868 0.572305 0.114717
0 0 0.0018616
0 1.5259e-05 0.000762951
0.00347906 0.000167849 0.000350958
0.0631113 0.000335698 9.15541e-05
0.197803 0.000396735 1.5259e-05
0.342107 0.000503548 0
0.470344 0.000976577 0
0.601541 0.00350958 1.5259e-05
0.762295 0.0217441 0.000106813
0 0.00521859 0.033341
0 0.00909438 0.0340276
0.0172885 0.0104677 0.0202487
0.109117 0.00302129 0.00216678
0.251667 0.00302129 0.000610361
0.402106 0.00445563 0.000244144
0.530312 0.00825513 0.000183108
0.645502 0.0180362 0.000198367
0.772992 0.0450904 0.000320439
0 0.0458076 0.0845045
0 0.0567025 0.0785992
0.0509346 0.108354 0.0819257
0.192538 0.0987869 0.043946
0.337484 0.0999313 0.0217441
0.479301 0.110872 0.013077
0.596155 0.125963 0.00865187
0.699474 0.148714 0.00680552
0.805417 0.190646 0.00703441
0 0.151232 0.14432
0 0.165072 0.133623
0.046067 0.218784 0.128695
0.174746 0.20354 0.0930953
0.314656 0.180163 0.0415351
0.452506 0.183993 0.0242161
0.5729 0.198245 0.0171054
0.683299 0.218799 0.0135348
0.792462 0.252461 0.0123751
0 0.262821 0.18143
0.000350958 0.276478 0.173373
0.0772869 0.321874 0.175937
0.185183 0.313329 0.148653
0.288533 0.287022 0.0925307
0.420142 0.263066 0.0464485
0.54815 0.265339 0.0298161
0.664775 0.284047 0.0238041
0.779538 0.314366 0.0209964
0.00383001 0.387259 0.232105
0.0123598 0.395544 0.229465
0.122148 0.412207 0.218601
0.209857 0.405188 0.197086
0.292424 0.392172 0.168276
0.397299 0.363882 0.103182
0.518776 0.343359 0.0579385
0.64538 0.348669 0.0412757
0.769345 0.373007 0.0344701
0.0463111 0.484733 0.288823
0.0689097 0.482979 0.282475
0.170993 0.483711 0.26331
0.24239 0.477928 0.242054
0.315297 0.472557 0.222385
0.385641 0.456718 0.188205
0.481758 0.416648 0.0805829
0.609949 0.400443 0.0408484
0.753674 0.415549 0.0329595
0.132891 0.551873 0.336767
0.152438 0.548318 0.32636
0.216052 0.54696 0.300206
0.273793 0.533455 0.257755
0.330831 0.530663 0.240238
0.390402 0.529625 0.223316
0.456046 0.516197 0.187701
0.586221 0.489708 0.103182
0.741207 0.48748 0.073518
0.217945 0.626673 0.366476
0.230823 0.620935 0.354757
0.251865 0.614511 0.340322
0.322621 0.610178 0.317128
0.371176 0.607263 0.306065
0.42089 0.609796 0.293004
0.470283 0.614618 0.278676
0.536492 0.61297 0.250553
0.720562 0.580316 0.140688
0 0.000289921 0.0176852
0 6.10361e-05 0.0112612
0.00238041 0.000854505 0.0151369
0.063386 0.00282292 0.0133364
0.226444 0.00624094 0.0100252
0.401587 0.0116579 0.00918593
0.544549 0.0231479 0.0105287
0.667491 0.0446479 0.0124361
0.805936 0.0979782 0.0138399
0 0.0222782 0.100084
1.5259e-05 0.0422065 0.135439
0.00523384 0.018967 0.0859846
0.104723 0.030869 0.0687572
0.271214 0.03888 0.047013
0.438071 0.0457465 0.03299
0.569467 0.0588693 0.0257877
0.679637 0.0825818 0.0220798
0.799008 0.126085 0.0195773
0 0.0751049 0.158999
0 0.100389 0.17612
0.0466316 0.157763 0.206622
0.177554 0.173907 0.190555
0.338491 0.1832 0.155734
0.488975 0.187549 0.121675
0.610498 0.197253 0.0963455
0.714946 0.210666 0.0770886
0.818662 0.239567 0.0631418
0 0.179461 0.228061
0.0011902 0.197131 0.232715
0.0825055 0.256657 0.248905
0.208713 0.269993 0.240375
0.351339 0.258656 0.197681
0.488365 0.256275 0.157137
0.605386 0.264546 0.129747
0.709148 0.276783 0.109224
0.810544 0.302983 0.093904
0.00207523 0.300191 0.287602
0.00672923 0.309957 0.282979
0.0832837 0.356619 0.282658
0.201373 0.365454 0.275319
0.336538 0.347723 0.238911
0.468009 0.326268 0.185428
0.582895 0.328847 0.152041
0.690333 0.342657 0.132006
0.796918 0.365713 0.116701
0.00814832 0.399145 0.312184
0.0156558 0.405997 0.306279
0.100526 0.442893 0.308537
0.21265 0.44744 0.304417
0.331716 0.435782 0.282567
0.438071 0.411704 0.228321
0.553399 0.39237 0.176364
0.671458 0.398932 0.15082
0.784451 0.421347 0.135729
0.034165 0.488121 0.339757
0.0489052 0.492699 0.337575
0.152209 0.510811 0.344228
0.246983 0.512383 0.335027
0.345968 0.505058 0.316091
0.428077 0.491722 0.291127
0.524163 0.471489 0.226505
0.646571 0.458457 0.177234
0.775357 0.47303 0.160296
0.106691 0.570291 0.38584
0.125994 0.569528 0.383658
0.186084 0.571786 0.382696
0.281407 0.573526 0.36614
0.36321 0.566201 0.346166
0.43714 0.562783 0.329152
0.500084 0.554971 0.305562
0.613977 0.534249 0.225742
0.761425 0.529122 0.187381
0.196063 0.651209 0.432624
0.209812 0.647288 0.426947
0.233158 0.644984 0.416999
0.316014 0.644785 0.400381
0.379629 0.638346 0.381689
0.446021 0.634455 0.364675
0.505135 0.638956 0.351217
0.568627 0.638224 0.330632
0.733562 0.609552 0.220218
0 0.0110018 0.104128
0 0.0104829 0.120302
0.00242618 0.0154269 0.126543
0.0739757 0.0386511 0.152743
0.255879 0.0710155 0.16495
0.445563 0.103166 0.164111
0.585016 0.126619 0.154055
0.7019 0.151995 0.142031
0.832242 0.199695 0.123232
0 0.0701457 0.201282
0.000534066 0.11249 0.246464
0.00645457 0.0618601 0.196826
0.0822766 0.0829633 0.1991
0.265431 0.121462 0.203387
0.448783 0.14638 0.192493
0.587274 0.161395 0.172961
0.698497 0.178271 0.152911
0.814313 0.213367 0.131289
0 0.140276 0.256626
0.000289921 0.165881 0.277348
0.0538491 0.214801 0.308644
0.14844 0.21796 0.297063
0.311147 0.246433 0.290883
0.478721 0.266194 0.272877
0.608804 0.27306 0.244038
0.717449 0.281865 0.216114
0.824063 0.302998 0.185672
0.000915541 0.226841 0.311177
0.00622568 0.241825 0.318654
0.103899 0.292302 0.344198
0.207431 0.310002 0.346014
0.338338 0.317876 0.329824
0.486656 0.32604 0.304097
0.610315 0.329732 0.271321
0.716594 0.335286 0.241779
0.819104 0.349905 0.211704
0.0229038 0.330755 0.36788
0.0403449 0.338827 0.367437
0.150881 0.374777 0.377127
0.240345 0.391516 0.377569
0.363363 0.397345 0.36997
0.491569 0.388907 0.335164
0.604334 0.387518 0.297688
0.708843 0.393805 0.26978
0.811414 0.408377 0.241886
0.0547036 0.430182 0.409033
0.0700694 0.433219 0.404364
0.153063 0.457755 0.403189
0.228473 0.470802 0.400793
0.349737 0.474815 0.396002
0.473304 0.461051 0.363058
0.5841 0.444205 0.315297
0.691066 0.450126 0.283635
0.799405 0.465873 0.257923
0.063859 0.50309 0.419944
0.0757153 0.504112 0.414816
0.145968 0.522896 0.414557
0.225879 0.534859 0.416938
0.34847 0.539513 0.413153
0.458732 0.529824 0.392126
0.551827 0.511513 0.339864
0.669184 0.49749 0.289723
0.787701 0.511376 0.263752
0.0891432 0.57702 0.433722
0.105348 0.577768 0.431312
0.150271 0.586206 0.433127
0.25684 0.596689 0.438102
0.3561 0.599069 0.429114
0.457206 0.591516 0.406775
0.530098 0.584298 0.386297
0.633967 0.562615 0.315206
0.776135 0.556878 0.270939
0.16492 0.672419 0.462776
0.177676 0.667491 0.459937
0.204929 0.664057 0.458808
0.292226 0.669383 0.454108
0.36672 0.664973 0.441642
0.453193 0.657847 0.42118
0.527382 0.656458 0.403159
0.596063 0.655924 0.386389
0.743404 0.631357 0.279469
0 0.0842298 0.265095
0.000869764 0.10312 0.296971
0.00621042 0.0836805 0.275883
0.0594797 0.106111 0.289754
0.230823 0.155322 0.316808
0.424216 0.200534 0.328847
0.591882 0.235218 0.326635
0.714031 0.254139 0.306233
0.853346 0.293385 0.266636
0 0.162036 0.328771
0.00332647 0.190326 0.357595
0.0168917 0.150515 0.325017
0.0655985 0.143786 0.311406
0.226429 0.184085 0.329458
0.418799 0.226154 0.337102
0.584772 0.255573 0.329809
0.704997 0.269612 0.308354
0.826276 0.29633 0.271214
0.00030518 0.219562 0.364675
0.00396735 0.238224 0.37882
0.0694896 0.275883 0.405234
0.144045 0.271748 0.396643
0.261372 0.282856 0.38851
0.440742 0.320073 0.390616
0.598596 0.341695 0.378729
0.71426 0.347829 0.350942
0.827375 0.36492 0.310079
0.00683604 0.287922 0.40032
0.0188754 0.298131 0.406226
0.113695 0.33724 0.430701
0.20029 0.35024 0.436805
0.299413 0.351644 0.425925
0.451804 0.373938 0.417838
0.599832 0.390311 0.401053
0.712734 0.393439 0.369909
0.821851 0.402991 0.328573
0.0478828 0.366049 0.436927
0.0689708 0.370855 0.438025
0.170779 0.398947 0.453101
0.251255 0.415854 0.460304
0.356237 0.432013 0.464744
0.47599 0.43859 0.45182
0.604059 0.444282 0.42594
0.713039 0.44538 0.392294
0.819821 0.451118 0.351843
0.127718 0.450523 0.479133
0.145205 0.452155 0.477592
0.225483 0.471748 0.483192
0.289845 0.484657 0.485512
0.382116 0.500587 0.489174
0.493187 0.505638 0.481529
0.602167 0.497841 0.448249
0.70663 0.496483 0.409842
0.81323 0.503639 0.372595
0.151843 0.532128 0.509285
0.162219 0.531258 0.505348
0.21677 0.543893 0.503883
0.2701 0.554437 0.501503
0.350835 0.567758 0.500252
0.468559 0.568261 0.492699
0.582391 0.553719 0.458518
0.691218 0.539727 0.411566
0.803235 0.550744 0.377325
0.120775 0.595346 0.501717
0.130358 0.594064 0.499001
0.156069 0.598337 0.496925
0.229145 0.614054 0.49723
0.321187 0.624063 0.498131
0.45127 0.628107 0.493553
0.560861 0.61857 0.475715
0.657465 0.596246 0.418372
0.792432 0.590448 0.368521
0.13518 0.686213 0.492042
0.144366 0.681468 0.490349
0.167636 0.680781 0.490959
0.256016 0.688899 0.499977
0.337301 0.690684 0.499962
0.439078 0.690654 0.492256
0.550713 0.682582 0.472984
0.631418 0.680735 0.455299
0.756893 0.660014 0.35465
0.000137331 0.205859 0.427146
0.00680552 0.220081 0.448432
0.020264 0.202777 0.438056
0.0485695 0.183383 0.420325
0.166659 0.214298 0.433829
0.351781 0.264652 0.448844
0.550011 0.309163 0.459342
0.712077 0.345632 0.461357
0.877653 0.384604 0.403174
0.00137331 0.260365 0.452918
0.0065919 0.257496 0.456245
0.035462 0.251789 0.458595
0.0649119 0.219776 0.432258
0.168612 0.234714 0.433143
0.348684 0.281132 0.445075
0.542596 0.321538 0.453651
0.699901 0.353323 0.454658
0.83769 0.376043 0.407416
0.00590524 0.30248 0.468544
0.0163424 0.313207 0.476478
0.0848554 0.339361 0.496635
0.149233 0.335943 0.494789
0.216297 0.320974 0.475059
0.36846 0.349783 0.47657
0.555184 0.386954 0.481483
0.703807 0.411307 0.477821
0.831815 0.423835 0.429953
0.0228275 0.35259 0.487663
0.0378729 0.358877 0.49102
0.124025 0.387503 0.510674
0.197604 0.398871 0.517159
0.269718 0.390036 0.505425
0.386847 0.397055 0.494179
0.559747 0.428534 0.495781
0.701671 0.448112 0.488533
0.822232 0.454093 0.441367
0.0714885 0.412406 0.51017
0.0917372 0.415625 0.510918
0.175677 0.438941 0.524071
0.244205 0.453422 0.531273
0.336004 0.466194 0.53666
0.429191 0.464149 0.523293
0.572595 0.480827 0.516075
0.703593 0.49424 0.504219
0.820966 0.496925 0.45745
0.152422 0.47538 0.533272
0.166796 0.475853 0.53196
0.238315 0.493248 0.539681
0.299763 0.505714 0.544121
0.388052 0.523949 0.551171
0.48542 0.537957 0.554681
0.592767 0.538857 0.540215
0.708171 0.544076 0.521126
0.822202 0.542321 0.474571
0.231144 0.549722 0.565393
0.242252 0.548608 0.562692
0.294041 0.558236 0.564584
0.343496 0.567086 0.565469
0.414252 0.580621 0.568383
0.504829 0.594385 0.569665
0.606394 0.593484 0.560174
0.705638 0.584802 0.529
0.81854 0.586435 0.485267
0.210254 0.623514 0.580911
0.218372 0.620645 0.577386
0.239246 0.621714 0.574746
0.293812 0.631632 0.573159
0.353475 0.64184 0.571267
0.443717 0.651835 0.568612
0.572274 0.651804 0.565042
0.68397 0.633722 0.526894
0.808576 0.629618 0.475166
0.102937 0.710948 0.519707
0.110445 0.695598 0.524163
0.131685 0.690654 0.528405
0.202243 0.70042 0.537224
0.280888 0.708888 0.54522
0.395132 0.716487 0.555062
0.533883 0.720851 0.55404
0.661662 0.714458 0.52987
0.77435 0.696132 0.440574
0.00575265 0.340124 0.584955
0.0162203 0.345586 0.600809
0.0258793 0.334951 0.606394
0.0368048 0.295171 0.585107
0.058793 0.263096 0.557961
0.157183 0.28661 0.563928
0.33994 0.337758 0.594217
0.583139 0.389715 0.613748
0.878355 0.474388 0.597971
0.0112917 0.375647 0.592676
0.0154421 0.353353 0.579339
0.0379797 0.346716 0.582132
0.0573281 0.317342 0.569482
0.0874495 0.283162 0.545403
0.196475 0.303181 0.55108
0.38294 0.351644 0.577356
0.602441 0.398062 0.595987
0.84509 0.461357 0.57113
0.0209354 0.3953 0.582177
0.031693 0.39646 0.582513
0.0820935 0.406744 0.593713
0.134218 0.406485 0.596933
0.170123 0.376852 0.580407
0.242878 0.366461 0.56762
0.421012 0.405936 0.585519
0.625406 0.447944 0.598718
0.831571 0.490303 0.573327
0.0429694 0.428565 0.585077
0.0564126 0.429084 0.585184
0.122499 0.444938 0.597818
0.177646 0.450034 0.602884
0.238361 0.443946 0.601404
0.293431 0.420005 0.581079
0.443534 0.441886 0.586069
0.635859 0.480278 0.596796
0.81854 0.510109 0.572274
0.0892653 0.470146 0.594446
0.104616 0.470207 0.592966
0.170703 0.486702 0.603677
0.225681 0.496559 0.609628
0.300526 0.50605 0.614984
0.367025 0.494835 0.605447
0.474128 0.493797 0.596399
0.64831 0.524559 0.603037
0.816281 0.543679 0.577279
0.157183 0.516793 0.604196
0.169284 0.516213 0.601923
0.226413 0.530007 0.610254
0.278523 0.540108 0.614878
0.355077 0.555047 0.622278
0.442634 0.565927 0.628702
0.521996 0.555978 0.616205
0.665873 0.573007 0.61416
0.820783 0.584787 0.585336
0.235676 0.568017 0.616373
0.24506 0.566018 0.613703
0.29305 0.575509 0.618296
0.339574 0.584482 0.621622
0.405615 0.597467 0.627558
0.490776 0.61355 0.635615
0.583276 0.624842 0.639948
0.685466 0.623743 0.628183
0.827787 0.627848 0.59379
0.313436 0.643595 0.643137
0.31809 0.639704 0.640375
0.3364 0.639124 0.639246
0.389364 0.647089 0.642023
0.442847 0.65507 0.64509
0.513268 0.666606 0.647608
0.598871 0.678981 0.649516
0.697368 0.677348 0.6392
0.829313 0.669566 0.592325
0.139162 0.73727 0.579828
0.133211 0.735698 0.572824
0.132723 0.735561 0.566659
0.17377 0.738308 0.571969
0.230076 0.736721 0.584924
0.306233 0.74284 0.593561
0.44213 0.754849 0.603464
0.653544 0.761654 0.619058
0.801236 0.742107 0.545586
0.0222019 0.404776 0.618463
0.0400092 0.410498 0.631067
0.0587472 0.410483 0.639765
0.0770275 0.389181 0.638361
0.0906691 0.353338 0.624857
0.131533 0.341482 0.622827
0.250706 0.374548 0.645777
0.495155 0.432044 0.681651
0.856367 0.52958 0.691463
0.0322423 0.434165 0.629755
0.0360266 0.423728 0.631022
0.0628672 0.426978 0.643793
0.0860456 0.413535 0.64683
0.0979477 0.376928 0.635081
0.124819 0.350744 0.626062
0.222995 0.373404 0.642802
0.447333 0.428992 0.678721
0.857023 0.532937 0.693049
0.0478218 0.465629 0.641215
0.0561379 0.465736 0.645182
0.0945144 0.473945 0.659297
0.127504 0.474311 0.667582
0.154467 0.458305 0.668406
0.163531 0.417334 0.655238
0.227085 0.412192 0.656825
0.434562 0.46041 0.686427
0.822766 0.543557 0.709468
0.071107 0.498131 0.6533
0.0794537 0.4981 0.656352
0.120119 0.507042 0.669047
0.154147 0.511299 0.678111
0.191073 0.507515 0.685267
0.204746 0.475303 0.678462
0.239002 0.447456 0.669779
0.414801 0.481483 0.6907
0.754482 0.539391 0.720958
0.112596 0.538491 0.667597
0.119768 0.538903 0.669841
0.160021 0.548577 0.681147
0.191302 0.553597 0.689387
0.235096 0.558633 0.700023
0.270604 0.548928 0.705409
0.282597 0.506554 0.692454
0.413123 0.516533 0.700435
0.721492 0.563912 0.732204
0.164324 0.58024 0.680003
0.169741 0.580316 0.681849
0.206561 0.590219 0.692058
0.236896 0.596963 0.700084
0.280079 0.604822 0.711101
0.334829 0.610971 0.72314
0.374655 0.592309 0.724392
0.43682 0.56524 0.71693
0.717403 0.603479 0.74406
0.226673 0.624262 0.692241
0.229847 0.623377 0.693462
0.258381 0.630762 0.700969
0.287144 0.637705 0.70869
0.329732 0.647562 0.719249
0.387396 0.658839 0.732036
0.458122 0.665339 0.7449
0.498268 0.635599 0.740047
0.736446 0.65066 0.753216
0.30396 0.680186 0.701991
0.304524 0.677363 0.70251
0.313024 0.677226 0.705089
0.349294 0.685756 0.714275
0.384955 0.693736 0.722698
0.439399 0.70576 0.734035
0.511116 0.719692 0.748379
0.60267 0.728832 0.765301
0.781353 0.711055 0.762798
0.393652 0.768338 0.715099
0.396429 0.76907 0.715572
0.403052 0.770657 0.716533
0.432227 0.777737 0.720562
0.458915 0.784176 0.723842
0.500206 0.793027 0.728588
0.554604 0.804425 0.735866
0.640269 0.821744 0.747417
0.84686 0.844572 0.759487
