luts/hakubo.cube
TITLE "Generated by Resolve"
LUT_3D_SIZE 5
0 0 0
0.0306554 0 0
0.26125 0 0
0.447379 0 0
0.639109 0.000228885 0
0 0.0430304 0.00166323
0.00437934 0.00454719 0
0.187823 0.00415045 0
0.429038 0.014435 0
0.68893 0.0531319 0
0.000579843 0.176013 0.00378424
0.011429 0.171466 0.000808728
0.168063 0.116289 0
0.426184 0.112764 0
0.707515 0.174716 0
0.0666514 0.401648 0.105257
0.135164 0.400534 0.0819715
0.23476 0.406195 0.0557565
0.441276 0.35671 0.00631724
0.735897 0.370871 0.00230411
0.226795 0.607034 0.310231
0.254337 0.596368 0.286259
0.357519 0.595239 0.262074
0.450675 0.604761 0.236957
0.719051 0.56759 0.0978103
0 0 0.0018616
0.00347906 0.000167849 0.000350958
0.197803 0.000396735 1.5259e-05
0.470344 0.000976577 0
0.762295 0.0217441 0.000106813
0 0.0458076 0.0845045
0.0509346 0.108354 0.0819257
0.337484 0.0999313 0.0217441
0.596155 0.125963 0.00865187
0.805417 0.190646 0.00703441
0 0.262821 0.18143
0.0772869 0.321874 0.175937
0.288533 0.287022 0.0925307
0.54815 0.265339 0.0298161
0.779538 0.314366 0.0209964
0.0463111 0.484733 0.288823
0.170993 0.483711 0.26331
0.315297 0.472557 0.222385
0.481758 0.416648 0.0805829
0.753674 0.415549 0.0329595
0.217945 0.626673 0.366476
0.251865 0.614511 0.340322
0.371176 0.607263 0.306065
0.470283 0.614618 0.278676
0.720562 0.580316 0.140688
0 0.0110018 0.104128
0.00242618 0.0154269 0.126543
0.255879 0.0710155 0.16495
0.585016 0.126619 0.154055
0.832242 0.199695 0.123232
0 0.140276 0.256626
0.0538491 0.214801 0.308644
0.311147 0.246433 0.290883
0.608804 0.27306 0.244038
0.824063 0.302998 0.185672
0.0229038 0.330755 0.36788
0.150881 0.374777 0.377127
0.363363 0.397345 0.36997
0.604334 0.387518 0.297688
0.811414 0.408377 0.241886
0.063859 0.50309 0.419944
0.145968 0.522896 0.414557
0.34847 0.539513 0.413153
0.551827 0.511513 0.339864
0.787701 0.511376 0.263752
0.16492 0.672419 0.462776
0.204929 0.664057 0.458808
0.36672 0.664973 0.441642
0.527382 0.656458 0.403159
0.743404 0.631357 0.279469
0.000137331 0.205859 0.427146
0.020264 0.202777 0.438056
0.166659 0.214298 0.433829
0.550011 0.309163 0.459342
0.877653 0.384604 0.403174
0.00590524 0.30248 0.468544
0.0848554 0.339361 0.496635
0.216297 0.320974 0.475059
0.555184 0.386954 0.481483
0.831815 0.423835 0.429953
0.0714885 0.412406 0.51017
0.175677 0.438941 0.524071
0.336004 0.466194 0.53666
0.572595 0.480827 0.516075
0.820966 0.496925 0.45745
0.231144 0.549722 0.565393
0.294041 0.558236 0.564584
0.414252 0.580621 0.568383
0.606394 0.593484 0.560174
0.81854 0.586435 0.485267
0.102937 0.710948 0.519707
0.131685 0.690654 0.528405
0.280888 0.708888 0.54522
0.533883 0.720851 0.55404
0.77435 0.696132 0.440574
0.0222019 0.404776 0.618463
0.0587472 0.410483 0.639765
0.0906691 0.353338 0.624857
0.250706 0.374548 0.645777
0.856367 0.52958 0.691463
0.0478218 0.465629 0.641215
0.0945144 0.473945 0.659297
0.154467 0.458305 0.668406
0.227085 0.412192 0.656825
0.822766 0.543557 0.709468
0.112596 0.538491 0.667597
0.160021 0.548577 0.681147
0.235096 0.558633 0.700023
0.282597 0.506554 0.692454
0.721492 0.563912 0.732204
0.226673 0.624262 0.692241
0.258381 0.630762 0.700969
0.329732 0.647562 0.719249
0.458122 0.665339 0.7449
0.736446 0.65066 0.753216
0.393652 0.768338 0.715099
0.403052 0.770657 0.716533
0.458915 0.784176 0.723842
0.554604 0.804425 0.735866
0.84686 0.844572 0.759487
