luts/hatsune.cube
TITLE "Generated by Resolve"
LUT_3D_SIZE 5
1.5259e-05 0 4.57771e-05
0.128817 0 0.000640879
0.600992 0 0.000213626
0.686702 0 0
0.686702 0 0
0 0.020798 0.00129702
0.000427253 1.5259e-05 3.0518e-05
0.525856 0 0.000289921
0.686702 0 0
0.686702 0 0
0 0.382025 0.107942
0 0.368414 0.0563516
0.2851 0.203403 0
0.704479 0 0
0.686702 0 0
0 0.690288 0.592081
0 0.662257 0.570092
0 0.635966 0.541711
0.764355 0.722393 0.234409
0.925063 0.0363928 0
0.0345006 0.859358 0.764706
0.0200046 0.854139 0.751476
0.00996414 0.848325 0.736339
0.00421149 0.841733 0.719966
0.880003 0.918578 0.602701
0 0.000839246 0.014847
0.0187533 1.5259e-05 0.00122072
0.60032 0 9.15541e-05
0.686702 0 0
0.686702 0 0
0 0.0196841 0.0393835
0.000549325 0.00265507 0.00337224
0.521065 0 0
0.686702 0 0
0.686702 0 0
0 0.380926 0.296193
0 0.341634 0.247654
0.33283 0.282994 0.00363165
0.755001 0 0
0.686702 0 0
0 0.684413 0.594675
0 0.657389 0.573877
0 0.631617 0.546838
0.759243 0.716594 0.255756
0.925124 0.0365148 0
0.0298314 0.857923 0.761044
0.0167544 0.852552 0.747204
0.00781262 0.846357 0.73164
0.00311284 0.839796 0.714824
0.87953 0.918425 0.593576
0.0841535 0.515175 0.663645
0.176364 0.482811 0.64062
0.753841 0.401694 0.619959
0.785199 7.62951e-05 0.0206149
0.686702 0 0
0 0.315435 0.498527
0.0216373 0.33727 0.506035
0.631464 0.29601 0.469459
0.782162 0 0.00453193
0.686702 0 0
0 0.410361 0.506416
0 0.383337 0.471153
0.441001 0.444297 0.448066
0.918669 0.0907759 0.123903
0.686702 0 0
0 0.688212 0.623713
0 0.661204 0.606317
0 0.63534 0.584497
0.760967 0.71986 0.347051
0.976669 0.142611 0.0126955
0.0269322 0.856962 0.75848
0.014847 0.851606 0.744457
0.00674449 0.845243 0.728756
0.00265507 0.838788 0.712291
0.879423 0.918395 0.590951
0.695644 0.912001 0.841276
0.676753 0.889479 0.843809
0.734936 0.875563 0.845045
0.925643 0.803464 0.865019
0.671534 0.0224002 0.389395
0.581552 0.851377 0.850584
0.552331 0.835584 0.853727
0.606958 0.822522 0.85272
0.938354 0.744793 0.87689
0.728115 0.0158389 0.29424
0.420035 0.805539 0.872862
0.403357 0.772641 0.851133
0.488884 0.748898 0.826032
0.900649 0.680385 0.815869
0.76817 0.00161746 0.1449
0.0136416 0.750668 0.746731
0.00216678 0.713146 0.725017
0.211673 0.775464 0.754208
0.790417 0.766491 0.737026
0.95787 0.537209 0.688853
0.0654765 0.865248 0.781308
0.0389105 0.860471 0.767788
0.0234531 0.855573 0.755199
0.0127413 0.850263 0.741054
0.882368 0.919264 0.642374
0.91368 0.923827 0.8589
0.91368 0.923827 0.8589
0.91368 0.923827 0.8589
0.91368 0.923827 0.8589
0.91368 0.923827 0.8589
0.91368 0.923827 0.8589
0.91368 0.923827 0.8589
0.91368 0.923827 0.8589
0.91368 0.923827 0.8589
0.91368 0.923827 0.8589
0.91368 0.923827 0.8589
0.915129 0.923644 0.858518
0.895644 0.921813 0.84889
0.91368 0.923827 0.8589
0.91368 0.923827 0.8589
0.815534 0.920348 0.846067
0.780331 0.919127 0.845045
0.753185 0.918196 0.84445
0.801678 0.919951 0.845731
0.912703 0.897215 0.853223
0.227817 0.879118 0.831434
0.227817 0.879118 0.831434
0.227817 0.879118 0.831434
0.564981 0.913329 0.846296
0.91368 0.923827 0.8589
