luts/hatsune.cube
TITLE "Generated by Resolve"
LUT_3D_SIZE 33
1.5259e-05 0 4.57771e-05
3.0518e-05 0 7.62951e-05
0.000106813 0 0.000244144
0.00047303 1.5259e-05 0.000350958
0.00196841 1.5259e-05 0.000457771
0.00750744 1.5259e-05 0.000549325
0.0251621 0 0.000610361
0.0641031 0 0.000640879
0.128817 0 0.000640879
0.20087 0 0.000610361
0.278004 0 0.000564584
0.353216 0 0.000518807
0.421057 0 0.000457771
0.480613 0 0.000381476
0.529778 0 0.000289921
0.568032 0 0.000259403
0.600992 0 0.000213626
0.629389 0 0.000167849
0.65098 0 0.000137331
0.668467 0 9.15541e-05
0.680262 0 4.57771e-05
0.686946 0 0
0.686702 0 0
0.686702 0 0
0.686702 0 0
0.686702 0 0
0.686702 0 0
0.686702 0 0
0.686702 0 0
0.686702 0 0
0.686702 0 0
0.686702 0 0
0.686702 0 0
1.5259e-05 0 0.000122072
0 0 6.10361e-05
6.10361e-05 0 0.000106813
0.000274662 0 0.000274662
0.0011902 0 0.000411994
0.00477607 0 0.000534066
0.0178378 0 0.000610361
0.0496071 0 0.000640879
0.109117 0 0.000640879
0.179873 0 0.00062562
0.256825 0 0.000579843
0.332952 0 0.000534066
0.403586 0 0.00047303
0.465675 0 0.000396735
0.518181 0 0.000320439
0.558465 0 0.000274662
0.592996 0 0.000228885
0.622843 0 0.000183108
0.645548 0 0.00015259
0.664576 0 0.000106813
0.67776 0 6.10361e-05
0.686061 0 1.5259e-05
0.686702 0 0
0.686702 0 0
0.686702 0 0
0.686702 0 0
0.686702 0 0
0.686702 0 0
0.686702 0 0
0.686702 0 0
0.686702 0 0
0.686702 0 0
0.686702 0 0
0 0 0.000183108
0 0 9.15541e-05
0 0 7.62951e-05
7.62951e-05 0 6.10361e-05
0.000640879 0 0.000137331
0.00282292 0 0.000289921
0.0117952 0 0.000427253
0.0375067 0 0.000534066
0.0906539 0 0.000610361
0.160143 0 0.000640879
0.235859 0 0.000595102
0.31252 0 0.000549325
0.385809 0 0.000488289
0.450278 0 0.000411994
0.506081 0 0.000350958
0.548501 0 0.000274662
0.584985 0 0.000244144
0.615396 0 0.000183108
0.640131 0 0.00015259
0.660136 0 0.000122072
0.675196 0 7.62951e-05
0.684489 0 3.0518e-05
0.686702 0 0
0.686702 0 0
0.686702 0 0
0.686702 0 0
0.686702 0 0
0.686702 0 0
0.686702 0 0
0.686702 0 0
0.686702 0 0
0.686702 0 0
0.686702 0 0
0 1.5259e-05 0.000228885
0 1.5259e-05 0.000228885
0 0 6.10361e-05
0 0 6.10361e-05
0.000122072 0 6.10361e-05
0.00146487 0 6.10361e-05
0.00701915 0 0.00015259
0.0257115 0 0.000259403
0.0692912 0 0.000350958
0.139498 0 0.000442512
0.216144 0 0.000534066
0.292363 0 0.000564584
0.36762 0 0.000503548
0.434745 0 0.000442512
0.492485 0 0.000366217
0.538384 0 0.000289921
0.576242 0 0.000259403
0.607858 0 0.000198367
0.634455 0 0.000167849
0.655268 0 0.000137331
0.671778 0 9.15541e-05
0.682429 0 4.57771e-05
0.686702 0 0
0.686702 0 0
0.686702 0 0
0.686702 0 0
0.686702 0 0
0.686702 0 0
0.686702 0 0
0.686702 0 0
0.686702 0 0
0.686702 0 0
0.686702 0 0
0 9.15541e-05 0.000274662
0 6.10361e-05 0.000259403
0 3.0518e-05 9.15541e-05
0 0 7.62951e-05
0 0 6.10361e-05
0.000335698 0 4.57771e-05
0.00311284 0 3.0518e-05
0.0171817 0 6.10361e-05
0.0502785 0 0.000167849
0.115358 0 0.000259403
0.191745 0 0.000350958
0.272618 0 0.000503548
0.347936 0 0.000518807
0.417243 0 0.000457771
0.477852 0 0.000381476
0.527718 0 0.000289921
0.566751 0 0.000259403
0.600015 0 0.000213626
0.628519 0 0.000167849
0.650141 0 0.000137331
0.668009 0 9.15541e-05
0.679973 0 4.57771e-05
0.686931 0 1.5259e-05
0.686702 0 0
0.686702 0 0
0.686702 0 0
0.686702 0 0
0.686702 0 0
0.686702 0 0
0.686702 0 0
0.686702 0 0
0.686702 0 0
0.686702 0 0
0 0.000488289 0.000320439
0 0.000320439 0.00030518
0 0.000213626 0.000259403
0 4.57771e-05 7.62951e-05
0 0 6.10361e-05
3.0518e-05 0 4.57771e-05
0.000961318 0 3.0518e-05
0.00839246 0 3.0518e-05
0.036347 0 4.57771e-05
0.0918593 0 0.000122072
0.165408 0 0.000183108
0.245563 0 0.000244144
0.328237 0 0.000350958
0.399802 0 0.00047303
0.462882 0 0.000396735
0.516136 0 0.000320439
0.556985 0 0.000274662
0.59202 0 0.000228885
0.621973 0 0.000183108
0.64477 0 0.00015259
0.664134 0 0.000106813
0.677501 0 6.10361e-05
0.685908 0 1.5259e-05
0.686702 0 0
0.686702 0 0
0.686702 0 0
0.686702 0 0
0.686702 0 0
0.686702 0 0
0.686702 0 0
0.686702 0 0
0.686702 0 0
0.686702 0 0
0 0.00207523 0.000457771
0 0.00149538 0.000411994
0 0.00106813 0.000381476
0 0.000610361 0.000137331
0 6.10361e-05 6.10361e-05
0 0 6.10361e-05
0.000122072 0 4.57771e-05
0.00230411 0 1.5259e-05
0.0160067 0 1.5259e-05
0.0636301 0 0
0.140414 0 1.5259e-05
0.215473 0 6.10361e-05
0.298665 0 0.000122072
0.380087 0 0.000213626
0.447532 0 0.000427253
0.504067 0 0.000350958
0.547051 0 0.000274662
0.583612 0 0.000244144
0.61445 0 0.000198367
0.639399 0 0.00015259
0.659693 0 0.000122072
0.674754 0 7.62951e-05
0.684153 0 3.0518e-05
0.686702 0 0
0.686702 0 0
0.686702 0 0
0.686702 0 0
0.686702 0 0
0.686702 0 0
0.686702 0 0
0.686702 0 0
0.686702 0 0
0.686702 0 0
0 0.00686656 0.000732433
0 0.00482185 0.00062562
0 0.00395209 0.000579843
0 0.00328069 0.000503548
0 0.00177005 0.000137331
0 0.000488289 9.15541e-05
0 7.62951e-05 6.10361e-05
0.000198367 0 4.57771e-05
0.00469978 0 0
0.0269932 0 0
0.0902571 0 0
0.187366 0 0
0.269902 0 0
0.350912 0 3.0518e-05
0.429587 0 0.000106813
0.490059 0 0.000366217
0.536934 0 0.000289921
0.574777 0 0.000259403
0.606775 0 0.000213626
0.633799 0 0.000167849
0.654673 0 0.000137331
0.671351 0 9.15541e-05
0.681956 0 4.57771e-05
0.686702 0 0
0.686702 0 0
0.686702 0 0
0.686702 0 0
0.686702 0 0
0.686702 0 0
0.686702 0 0
0.686702 0 0
0.686702 0 0
0.686702 0 0
0 0.020798 0.00129702
0 0.0177005 0.00117494
0 0.0152743 0.00108339
0 0.0131991 0.00105287
0 0.0105745 0.00062562
0 0.00531014 0.000198367
0 0.00202945 0.00015259
0 0.000595102 6.10361e-05
0.000427253 1.5259e-05 3.0518e-05
0.00988785 0 0
0.0485084 0 0
0.129152 0 0
0.221927 0 0
0.326711 0 0
0.405005 0 0
0.474083 0 3.0518e-05
0.525856 0 0.000289921
0.565164 0 0.000259403
0.598825 0 0.000213626
0.627726 0 0.000167849
0.649378 0 0.000137331
0.667628 0 9.15541e-05
0.679759 0 4.57771e-05
0.686839 0 1.5259e-05
0.686702 0 0
0.686702 0 0
0.686702 0 0
0.686702 0 0
0.686702 0 0
0.686702 0 0
0.686702 0 0
0.686702 0 0
0.686702 0 0
0 0.0501869 0.00241093
0 0.0453346 0.00222782
0 0.04094 0.00205997
0 0.0371252 0.00192264
0 0.0342107 0.00167849
0 0.0254673 0.000854505
0 0.0140536 0.00030518
0 0.00654612 0.000213626
0 0.00256352 6.10361e-05
0.00112917 0.000335698 1.5259e-05
0.0212711 4.57771e-05 0
0.088014 0 0
0.177279 0 0
0.272755 0 0
0.370306 0 0
0.461952 0 0
0.514122 0 0
0.555489 0 0.000244144
0.590738 0 0.000228885
0.620905 0 0.000183108
0.644114 0 0.00015259
0.6636 0 0.000106813
0.67715 0 6.10361e-05
0.685649 0 1.5259e-05
0.686702 0 0
0.686702 0 0
0.686702 0 0
0.686702 0 0
0.686702 0 0
0.686702 0 0
0.686702 0 0
0.686702 0 0
0.686702 0 0
0 0.0991531 0.00444038
0 0.0933089 0.00415045
0 0.0865187 0.00384527
0 0.0801099 0.00360113
0 0.0749981 0.00358587
0 0.0706798 0.00242618
0 0.051606 0.00120546
0 0.0297856 0.000381476
0 0.0191653 0.000289921
3.0518e-05 0.0090486 6.10361e-05
0.00354009 0.0018616 0
0.0441749 0.000579843 0
0.140536 0.000244144 0
0.238483 0.000106813 0
0.337438 1.5259e-05 0
0.428077 0 0
0.511971 0 0
0.55523 0 0
0.582559 0 0.000213626
0.61326 0 0.000198367
0.638621 0 0.00015259
0.658915 0 0.000122072
0.674174 0 7.62951e-05
0.683925 0 3.0518e-05
0.686702 0 0
0.686702 0 0
0.686702 0 0
0.686702 0 0
0.686702 0 0
0.686702 0 0
0.686702 0 0
0.686702 0 0
0.686702 0 0
0 0.154467 0.00801099
0 0.14905 0.00758373
0 0.142092 0.00706493
0 0.13611 0.00662242
0 0.130236 0.00622568
0 0.128023 0.00572213
0 0.118502 0.0034638
0 0.088304 0.00149538
0 0.0574044 0.000518807
0 0.0434577 0.000366217
0.00030518 0.0247501 4.57771e-05
0.0123293 0.00753796 0
0.0885939 0.00328069 0
0.203815 0.00180056 0
0.31133 0.00105287 0
0.411795 0.00047303 0
0.49691 6.10361e-05 0
0.562188 0 0
0.604303 0 0
0.607263 0 0.00015259
0.632914 0 0.000167849
0.654017 0 0.000137331
0.670848 0 9.15541e-05
0.681804 0 4.57771e-05
0.686687 0 0
0.686702 0 0
0.686702 0 0
0.686702 0 0
0.686702 0 0
0.686702 0 0
0.686702 0 0
0.686702 0 0
0.686702 0 0
0 0.211872 0.0136873
0 0.206561 0.0130922
0 0.200076 0.0123751
0 0.19382 0.0117342
0 0.187686 0.0111086
0 0.182483 0.0108949
0 0.182605 0.00865187
0 0.166613 0.00463874
0 0.127062 0.00151064
0 0.0993362 0.000717174
3.0518e-05 0.0825971 0.000442512
0.00177005 0.0528878 3.0518e-05
0.035111 0.0236973 0
0.14931 0.0133669 0
0.276081 0.00827039 0
0.392737 0.00550851 0
0.490196 0.00326543 0
0.568475 0.0011902 0
0.624445 4.57771e-05 0
0.656214 0 0
0.62945 0 0.000122072
0.648646 0 0.000137331
0.666987 0 0.000106813
0.679469 0 6.10361e-05
0.686641 0 1.5259e-05
0.686702 0 0
0.686702 0 0
0.686702 0 0
0.686702 0 0
0.686702 0 0
0.686702 0 0
0.686702 0 0
0.686702 0 0
0 0.269566 0.0208591
0 0.264363 0.0201114
0 0.258534 0.0193027
0 0.252232 0.0185092
0 0.246494 0.017792
0 0.240726 0.0170748
0 0.236698 0.0169528
0 0.239963 0.0129244
0 0.208179 0.0055848
0 0.164446 0.00149538
0 0.144305 0.000946059
0.000366217 0.129641 0.000457771
0.0071107 0.0962997 1.5259e-05
0.0778821 0.0537881 0
0.213825 0.0356909 0
0.353094 0.0265354 0
0.472908 0.0199435 0
0.565438 0.013901 0
0.636683 0.00671397 0
0.684642 0.00137331 0
0.70071 0 0
0.648783 0 9.15541e-05
0.662837 0 0.000106813
0.676738 0 6.10361e-05
0.685512 0 1.5259e-05
0.686702 0 0
0.686702 0 0
0.686702 0 0
0.686702 0 0
0.686702 0 0
0.686702 0 0
0.686702 0 0
0.686702 0 0
0 0.324269 0.0292515
0 0.319615 0.0284886
0 0.314458 0.0276493
0 0.308492 0.0267185
0 0.302968 0.025864
0 0.297429 0.0249943
0 0.292103 0.0241703
0 0.289708 0.0235904
0 0.291279 0.0165255
0 0.243168 0.0059205
0 0.204135 0.00167849
7.62951e-05 0.188998 0.0011902
0.00184634 0.178454 0.000427253
0.0222171 0.144869 0
0.138094 0.0984512 0
0.285557 0.0736248 0
0.426001 0.0591745 0
0.543404 0.0475929 0
0.631754 0.036286 0
0.695613 0.0230564 0
0.738796 0.00791943 0
0.74995 9.15541e-05 0
0.667414 0 6.10361e-05
0.673808 0 7.62951e-05
0.683665 0 3.0518e-05
0.686702 0 0
0.686702 0 0
0.686702 0 0
0.686702 0 0
0.686702 0 0
0.686702 0 0
0.686702 0 0
0.686702 0 0
0 0.364782 0.0469673
0 0.362799 0.0440375
0 0.359991 0.0414435
0 0.356939 0.0389715
0 0.352605 0.0371862
0 0.348058 0.0357824
0 0.343297 0.0343328
0 0.338994 0.0328374
0 0.338582 0.0305638
0 0.338842 0.0193484
0 0.277867 0.00550851
1.5259e-05 0.245319 0.00199893
0.000732433 0.234684 0.00141909
0.00689708 0.228183 0.000335698
0.0540017 0.195422 0
0.209018 0.149355 0
0.358907 0.125002 0
0.491722 0.107866 0
0.605112 0.0910811 0
0.689845 0.0730449 0
0.748287 0.0532082 0
0.785885 0.0260624 0
0.800519 0.00231937 0
0.683955 0 3.0518e-05
0.681422 0 4.57771e-05
0.686931 0 0
0.686702 0 0
0.686702 0 0
0.686702 0 0
0.686702 0 0
0.686702 0 0
0.686702 0 0
0.686702 0 0
0 0.382025 0.107942
0 0.38027 0.100145
0 0.378424 0.0926375
0 0.376257 0.0850843
0 0.374304 0.0777905
0 0.372381 0.0724041
0 0.370428 0.0674601
0 0.369085 0.0619059
0 0.368414 0.0563516
0 0.371923 0.0492103
0 0.380835 0.0243229
0 0.316075 0.00404364
0.000167849 0.287419 0.00178531
0.00332647 0.283391 0.00138857
0.0208591 0.278782 0.000228885
0.112428 0.246723 0
0.2851 0.203403 0
0.428138 0.179171 0
0.550118 0.160815 0
0.659693 0.142657 0
0.741955 0.123033 0
0.793835 0.0996262 0
0.827497 0.0602274 0
0.842924 0.0129702 0
0.704479 0 0
0.68658 0 1.5259e-05
0.686702 0 0
0.686702 0 0
0.686702 0 0
0.686702 0 0
0.686702 0 0
0.686702 0 0
0.686702 0 0
0 0.39939 0.234104
0 0.395956 0.221469
0 0.393088 0.207919
0 0.390372 0.193423
0 0.389303 0.177401
0 0.388327 0.1626
0 0.388342 0.148547
0 0.387869 0.136706
0 0.386587 0.126772
0 0.384924 0.118181
0 0.385 0.109102
0 0.430259 0.0618601
0.000183108 0.363989 0.00982681
0.0011902 0.344228 0.00509651
0.0138399 0.347082 0.00280766
0.0553292 0.344961 0.000656138
0.185962 0.310124 0
0.361517 0.264118 0
0.492805 0.237369 0
0.604471 0.216632 0
0.707485 0.199542 0
0.786068 0.176608 0
0.832166 0.15259 0
0.864408 0.113268 0
0.880217 0.0399023 0
0.731487 0 0
0.686702 0 0
0.686702 0 0
0.686702 0 0
0.686702 0 0
0.686702 0 0
0.686702 0 0
0.686702 0 0
0 0.454078 0.31339
0 0.449363 0.307042
0 0.44419 0.300603
0 0.43888 0.294041
0 0.433371 0.287694
0 0.427878 0.281422
0 0.422568 0.274678
0 0.417304 0.267842
0 0.41181 0.260349
0 0.406439 0.249546
0 0.400961 0.239109
0 0.397574 0.226154
0 0.458076 0.149279
0.00108339 0.439628 0.0478828
0.0065156 0.411749 0.0206455
0.0460975 0.421332 0.0129702
0.128008 0.423972 0.00486763
0.268849 0.386481 0.000228885
0.438132 0.337285 0
0.564996 0.307591 0
0.672786 0.286259 0
0.760647 0.264302 0
0.822309 0.233967 0
0.865003 0.20914 0
0.895506 0.172839 0
0.915297 0.0945602 0
0.765774 0 0
0.686702 0 0
0.686702 0 0
0.686702 0 0
0.686702 0 0
0.686702 0 0
0.686702 0 0
0 0.500511 0.376318
0 0.496101 0.370535
0 0.491722 0.364599
0 0.48748 0.358816
0 0.482948 0.352941
0 0.478569 0.347158
0 0.474388 0.341176
0 0.470024 0.335256
0 0.465721 0.329046
0 0.461128 0.322805
0 0.456321 0.31635
0 0.451499 0.309834
0 0.446479 0.303471
0 0.495201 0.222919
0.00302129 0.513115 0.143938
0.0262455 0.48632 0.0724956
0.120775 0.500359 0.0534066
0.226947 0.507652 0.0323033
0.351614 0.473579 0.00627146
0.51284 0.42182 0.00030518
0.637446 0.388724 1.5259e-05
0.738537 0.364797 0
0.814038 0.337697 0
0.866194 0.30219 0
0.895552 0.269154 0
0.923644 0.237415 0
0.948791 0.178607 0
0.793927 0 0
0.686702 0 0
0.686702 0 0
0.686702 0 0
0.686702 0 0
0.686702 0 0
0 0.544518 0.431113
0 0.540413 0.42649
0 0.536339 0.4215
0 0.532433 0.416663
0 0.528084 0.411383
0 0.523903 0.406073
0 0.519692 0.400488
0 0.515526 0.395239
0 0.511574 0.390005
0 0.507225 0.384695
0 0.502693 0.379095
0 0.498405 0.37351
0 0.493996 0.367468
0 0.489479 0.361471
0 0.535164 0.278523
0.00775158 0.565835 0.235508
0.0676738 0.558038 0.153841
0.210697 0.571374 0.127214
0.3196 0.576074 0.0958267
0.427054 0.547692 0.0409705
0.580194 0.500572 0.0062562
0.698466 0.468879 0.00172427
0.791653 0.445701 0.000640879
0.857511 0.41677 0.000122072
0.904402 0.376074 0
0.931395 0.338766 0
0.95082 0.31107 0
0.957839 0.238956 0
0.830152 1.5259e-05 0
0.686702 0 0
0.686702 0 0
0.686702 0 0
0.686702 0 0
0 0.584268 0.477684
0 0.580545 0.473442
0 0.577005 0.469047
0 0.573388 0.464805
0 0.569665 0.460517
0 0.566064 0.456184
0 0.562387 0.451911
0 0.558389 0.447272
0 0.554574 0.442771
0 0.550622 0.438071
0 0.546609 0.433433
0 0.54258 0.428901
0 0.538415 0.424033
0 0.534524 0.419135
0 0.530327 0.414054
0 0.574639 0.332235
0.0138247 0.614771 0.302998
0.137438 0.620478 0.233371
0.29456 0.629465 0.20264
0.400992 0.632563 0.172183
0.495415 0.609491 0.113207
0.639246 0.568933 0.0362249
0.748302 0.539803 0.0185245
0.829236 0.517159 0.01178
0.891203 0.489479 0.00614939
0.937011 0.455589 0.00215152
0.965896 0.422812 0.000488289
0.970382 0.383749 3.0518e-05
0.961501 0.289906 0
0.86363 0.00047303 0
0.686702 0 0
0.686702 0 0
0.686702 0 0
0 0.619867 0.521385
0 0.616739 0.517311
0 0.613519 0.51339
0 0.610346 0.509346
0 0.607065 0.505211
0 0.603647 0.501106
0 0.600061 0.496956
0 0.596628 0.49276
0 0.593133 0.488304
0 0.589624 0.484031
0 0.585946 0.479805
0 0.582483 0.475639
0 0.578988 0.471275
0 0.575357 0.467048
0 0.57171 0.462821
0 0.568002 0.458473
0 0.614816 0.384115
0.0255131 0.661738 0.361517
0.211414 0.673869 0.306065
0.372396 0.679698 0.274357
0.47538 0.680476 0.247333
0.557977 0.663783 0.192813
0.689967 0.627405 0.0979477
0.78645 0.59968 0.0677806
0.860792 0.57847 0.0559548
0.920501 0.552666 0.0413977
0.964553 0.526772 0.0299229
0.983108 0.502876 0.0281987
0.977447 0.437079 0.00106813
0.964172 0.338094 0
0.891203 0.00251774 0
0.686702 0 0
0.686702 0 0
0 0.654353 0.561624
0 0.650935 0.558175
0 0.647532 0.554498
0 0.644129 0.55082
0 0.640925 0.54725
0 0.637446 0.54345
0 0.634043 0.539544
0 0.630762 0.535332
0 0.627512 0.53135
0 0.624308 0.527398
0 0.621286 0.523461
0 0.618372 0.51957
0 0.615198 0.515557
0 0.612146 0.51165
0 0.608896 0.507576
0 0.605646 0.503319
0 0.602045 0.499184
4.57771e-05 0.654719 0.428641
0.0593881 0.706935 0.411917
0.280079 0.718547 0.366644
0.445472 0.722988 0.334752
0.537652 0.722469 0.310338
0.61149 0.710811 0.263951
0.731319 0.678294 0.169497
0.817792 0.651942 0.145098
0.889799 0.632593 0.135531
0.948974 0.608194 0.120668
0.980453 0.590158 0.127184
0.981247 0.558267 0.0835431
0.982345 0.494484 0.0123598
0.966018 0.385657 1.5259e-05
0.91075 0.0118868 0
0.686702 0 0
0 0.690288 0.592081
0 0.68661 0.589685
0 0.683024 0.587091
0 0.679408 0.584405
0 0.675929 0.581827
0 0.67248 0.579156
0 0.668925 0.576288
0 0.665629 0.573358
0 0.662257 0.570092
0 0.659037 0.566812
0 0.655894 0.563317
0 0.652674 0.560037
0 0.64947 0.556512
0 0.646159 0.552941
0 0.642771 0.549325
0 0.63949 0.545739
0 0.635966 0.541711
0 0.632486 0.537591
0.000427253 0.690684 0.471214
0.123735 0.750088 0.456092
0.348592 0.757809 0.41651
0.512886 0.761044 0.386725
0.593011 0.76109 0.36379
0.657725 0.751064 0.324636
0.764355 0.722393 0.234409
0.847364 0.698711 0.220035
0.919478 0.680888 0.217838
0.973632 0.657404 0.215244
0.97792 0.638804 0.21355
0.97995 0.608591 0.15581
0.98146 0.550332 0.0513008
0.967086 0.431662 0.000106813
0.925063 0.0363928 0
0 0.731243 0.616526
0 0.726833 0.614191
0 0.722622 0.611841
0 0.718441 0.609522
0 0.714504 0.607279
0 0.710597 0.604746
0 0.706676 0.602457
0 0.702861 0.600031
0 0.699245 0.597482
0 0.695537 0.595483
0 0.691966 0.593164
0 0.688426 0.59089
0 0.684947 0.588663
0 0.681544 0.585992
0 0.678035 0.583307
0 0.674601 0.580789
0 0.671077 0.578073
0 0.66772 0.575204
0 0.664195 0.572061
0.00155642 0.728862 0.508278
0.18674 0.786587 0.493645
0.418357 0.793606 0.459937
0.571267 0.79556 0.430076
0.642054 0.795941 0.409628
0.695598 0.786969 0.375692
0.793881 0.761746 0.290227
0.878431 0.740291 0.286961
0.951659 0.722194 0.290822
0.972763 0.697475 0.299199
0.974868 0.679927 0.270771
0.977218 0.653529 0.223026
0.980102 0.60209 0.117357
0.967071 0.475837 0.000457771
0 0.787243 0.640253
0 0.780575 0.638239
0 0.774456 0.636149
0 0.768368 0.633631
0 0.76257 0.631296
0 0.756924 0.629191
0 0.751598 0.6271
0 0.746761 0.624918
0 0.742138 0.622477
0 0.737621 0.620081
0 0.733272 0.617777
0 0.729107 0.615244
0 0.724865 0.613077
0 0.720836 0.610941
0 0.716869 0.608652
0 0.713024 0.606332
0 0.709117 0.603845
0 0.705272 0.601358
0 0.701488 0.599023
0 0.697688 0.596536
0.00645457 0.77116 0.540734
0.238163 0.821729 0.521904
0.482383 0.827329 0.496452
0.622538 0.82855 0.466209
0.683604 0.82797 0.447959
0.726436 0.820508 0.418662
0.824033 0.798505 0.337163
0.911254 0.778256 0.345876
0.960739 0.751751 0.36321
0.963973 0.738323 0.346014
0.968246 0.720531 0.320958
0.973495 0.694591 0.278035
0.978561 0.649058 0.187564
0 0.818586 0.659937
0 0.817823 0.658122
0 0.817044 0.656184
0 0.81619 0.654505
0 0.815427 0.652583
0 0.81471 0.650797
0 0.814023 0.649149
0 0.81323 0.647303
0 0.805478 0.644984
