luts/hatsune.cube
TITLE "Generated by Resolve"
LUT_3D_SIZE 9
1.5259e-05 0 4.57771e-05
0.00196841 1.5259e-05 0.000457771
0.128817 0 0.000640879
0.421057 0 0.000457771
0.600992 0 0.000213626
0.680262 0 4.57771e-05
0.686702 0 0
0.686702 0 0
0.686702 0 0
0 9.15541e-05 0.000274662
0 0 6.10361e-05
0.0502785 0 0.000167849
0.347936 0 0.000518807
0.566751 0 0.000259403
0.668009 0 9.15541e-05
0.686702 0 0
0.686702 0 0
0.686702 0 0
0 0.020798 0.00129702
0 0.0105745 0.00062562
0.000427253 1.5259e-05 3.0518e-05
0.221927 0 0
0.525856 0 0.000289921
0.649378 0 0.000137331
0.686702 0 0
0.686702 0 0
0.686702 0 0
0 0.211872 0.0136873
0 0.187686 0.0111086
0 0.127062 0.00151064
0.035111 0.0236973 0
0.490196 0.00326543 0
0.62945 0 0.000122072
0.686641 0 1.5259e-05
0.686702 0 0
0.686702 0 0
0 0.382025 0.107942
0 0.374304 0.0777905
0 0.368414 0.0563516
0.000167849 0.287419 0.00178531
0.2851 0.203403 0
0.741955 0.123033 0
0.704479 0 0
0.686702 0 0
0.686702 0 0
0 0.544518 0.431113
0 0.528084 0.411383
0 0.511574 0.390005
0 0.493996 0.367468
0.0676738 0.558038 0.153841
0.580194 0.500572 0.0062562
0.904402 0.376074 0
0.830152 1.5259e-05 0
0.686702 0 0
0 0.690288 0.592081
0 0.675929 0.581827
0 0.662257 0.570092
0 0.64947 0.556512
0 0.635966 0.541711
0.348592 0.757809 0.41651
0.764355 0.722393 0.234409
0.97792 0.638804 0.21355
0.925063 0.0363928 0
0.000183108 0.826902 0.680873
6.10361e-05 0.823667 0.672572
1.5259e-05 0.820447 0.664546
0 0.817456 0.657252
0 0.81445 0.650156
0 0.794919 0.64239
0.593057 0.902541 0.561715
0.889448 0.876097 0.41294
0.941878 0.811139 0.410452
0.0345006 0.859358 0.764706
0.0264134 0.856687 0.758022
0.0200046 0.854139 0.751476
0.0146487 0.851469 0.744076
0.00996414 0.848325 0.736339
0.00656138 0.844999 0.728313
0.00421149 0.841733 0.719966
0.787945 0.907134 0.670893
0.880003 0.918578 0.602701
0 9.15541e-05 0.000457771
0.000274662 0 0.000122072
0.0739452 0 1.5259e-05
0.407797 0 1.5259e-05
0.608927 0 6.10361e-05
0.679362 0 6.10361e-05
0.686702 0 0
0.686702 0 0
0.686702 0 0
0 9.15541e-05 0.000366217
0 0 0
0.0254063 0 0
0.332235 0 0
0.570855 0 7.62951e-05
0.666484 0 0.000106813
0.686702 0 0
0.686702 0 0
0.686702 0 0
0 0.0127413 0.00411994
0 0.0059968 0.000991836
0.000259403 0.000320439 0
0.22768 0 0
0.526558 0 3.0518e-05
0.647303 0 0.000137331
0.686702 0 0
0.686702 0 0
0.686702 0 0
0 0.153567 0.0583505
0 0.13196 0.0396429
0 0.150851 0.00250248
0.0362402 0.0303044 0
0.501152 0.00456245 0
0.633387 0 3.0518e-05
0.686351 0 1.5259e-05
0.686702 0 0
0.686702 0 0
0 0.371435 0.245396
0 0.3458 0.21648
0 0.316823 0.18529
0.000762951 0.320745 0.0150607
0.295872 0.219684 0
0.742016 0.1205 0
0.707683 0 0
0.686702 0 0
0.686702 0 0
0 0.545953 0.444739
0 0.529305 0.423255
0 0.511345 0.398703
0 0.49044 0.366217
0.0599527 0.548531 0.142733
0.571756 0.48983 0.00442512
0.899184 0.365148 0
0.825925 0 0
0.686702 0 0
0 0.685542 0.589044
0 0.671412 0.578363
0 0.658 0.565698
0 0.645136 0.551751
0 0.631571 0.536568
0.338857 0.752636 0.410132
0.760159 0.716518 0.225849
0.978378 0.632975 0.204669
0.923568 0.032639 0
0.000122072 0.825833 0.678172
3.0518e-05 0.822614 0.669947
0 0.819409 0.66186
0 0.816373 0.654841
0 0.813443 0.647868
0 0.785763 0.639826
0.585657 0.896834 0.557107
0.883665 0.870344 0.408026
0.944167 0.804929 0.405127
0.0318303 0.858579 0.762631
0.0242008 0.855863 0.755932
0.0180667 0.853208 0.749004
0.0131228 0.850568 0.741711
0.00869764 0.847257 0.7337
0.00569161 0.843961 0.725551
0.00361639 0.840635 0.717235
0.782589 0.906722 0.668254
0.879774 0.918502 0.598215
0 0.000839246 0.014847
0 0 0.00392157
0.0187533 1.5259e-05 0.00122072
0.333471 0 0.000259403
0.60032 0 9.15541e-05
0.723186 0 1.5259e-05
0.686702 0 0
0.686702 0 0
0.686702 0 0
0 0.00205997 0.019028
0 0.000503548 0.00660716
0.00573739 0.000228885 0.00199893
0.282399 0 0.000106813
0.556649 0 4.57771e-05
0.698711 0 1.5259e-05
0.686702 0 0
0.686702 0 0
0.686702 0 0
0 0.0196841 0.0393835
0 0.00790417 0.0178683
0.000549325 0.00265507 0.00337224
0.226871 0.000411994 7.62951e-05
0.521065 0 0
0.67126 0 1.5259e-05
0.686702 0 0
0.686702 0 0
0.686702 0 0
0 0.181491 0.150134
0 0.157366 0.123613
0 0.114733 0.0452888
0.0632334 0.0650797 0.00131228
0.568078 0.0153201 0
0.656107 0 0
0.685878 0 1.5259e-05
0.686702 0 0
0.686702 0 0
0 0.380926 0.296193
0 0.361501 0.272221
0 0.341634 0.247654
0.000320439 0.37557 0.126894
0.33283 0.282994 0.00363165
0.794736 0.177554 0
0.755001 0 0
0.686702 0 0
0.686702 0 0
0 0.54728 0.46183
0 0.53254 0.445853
0 0.517037 0.42884
0 0.500603 0.410544
0.0629587 0.580865 0.275303
0.591012 0.528511 0.0614328
0.916777 0.420981 0.00929274
0.853529 0.000228885 0
0.686702 0 0
0 0.684413 0.594675
0 0.670481 0.585229
0 0.657389 0.573877
0 0.6448 0.561227
0 0.631617 0.546838
0.328634 0.752819 0.435782
0.759243 0.716594 0.255756
0.977111 0.634363 0.243046
0.925124 0.0365148 0
0.000122072 0.825681 0.677821
3.0518e-05 0.822538 0.669795
0 0.819379 0.661768
0 0.816373 0.654841
0 0.806699 0.647456
0 0.778592 0.640024
0.577829 0.891752 0.55819
0.87805 0.865202 0.409125
0.946319 0.798917 0.407279
0.0298314 0.857923 0.761044
0.0226139 0.855207 0.75436
0.0167544 0.852552 0.747204
0.0118563 0.84976 0.739696
0.00781262 0.846357 0.73164
0.005066 0.843076 0.7234
0.00311284 0.839796 0.714824
0.777356 0.906294 0.665629
0.87953 0.918425 0.593576
0 0.10779 0.277653
3.0518e-05 0.0940414 0.26157
0.00654612 0.027924 0.204456
0.395224 0.0292515 0.16022
0.561639 0 0.00303655
0.733501 0 0.00151064
0.770764 0 0.00047303
0.686702 0 0
0.686702 0 0
0 0.0746929 0.214954
0 0.0651408 0.203708
0.00195315 0.0401312 0.170489
0.298741 0.0423743 0.13962
0.55996 1.5259e-05 0.00325017
0.702113 0 0.000839246
0.76582 0 0.000244144
0.686702 0 0
0.686702 0 0
0 0.0838331 0.203479
0 0.0606699 0.172015
0.000137331 0.0584268 0.162005
0.202991 0.0538796 0.117662
0.595697 0.00259403 0.00880446
0.668406 0 0.000427253
0.760769 0 0.000122072
0.686702 0 0
0.686702 0 0
0 0.195621 0.277867
0 0.174319 0.252811
0 0.148257 0.204868
0.123812 0.171618 0.172885
0.591302 0.105531 0.0422065
0.716701 0.00015259 0.000823987
0.745861 0 6.10361e-05
0.686702 0 0
0.686702 0 0
0 0.389609 0.394766
0 0.370428 0.373205
0 0.351446 0.350164
0 0.347112 0.25771
0.374228 0.347662 0.102129
0.813825 0.242832 0.0155337
0.821958 0.000137331 0.000289921
0.686702 0 0
0.686702 0 0
0 0.550088 0.493507
0 0.535714 0.477348
0 0.520211 0.460624
0 0.504601 0.44361
0.0453193 0.591226 0.343038
0.599527 0.544244 0.135958
0.917967 0.444617 0.048127
0.910323 0.00593576 9.15541e-05
0.686702 0 0
0 0.682719 0.599268
0 0.668818 0.590219
0 0.655848 0.57937
0 0.643366 0.567346
0 0.630259 0.553414
0.31722 0.751812 0.452491
0.757366 0.715099 0.276707
0.976394 0.633585 0.268452
0.926345 0.0399481 0
0.000106813 0.825376 0.677104
3.0518e-05 0.822232 0.669017
0 0.81915 0.661234
0 0.816205 0.654444
0 0.79736 0.647395
0 0.771756 0.639796
0.570352 0.88687 0.559884
0.872908 0.859953 0.41236
0.948257 0.793423 0.414084
0.0277714 0.857282 0.759304
0.0210117 0.854505 0.752712
0.0154269 0.851911 0.745327
0.0106813 0.848905 0.737713
0.0071107 0.845609 0.7299
0.00462348 0.84242 0.721736
0.00285344 0.839155 0.713451
0.771054 0.90602 0.666468
0.879484 0.91841 0.592493
0.0841535 0.515175 0.663645
0.107836 0.49868 0.651423
0.176364 0.482811 0.64062
0.329625 0.406348 0.62295
0.753841 0.401694 0.619959
0.711437 0.000122072 0.0405432
0.785199 7.62951e-05 0.0206149
0.782574 0 0.00523384
0.686702 0 0
0.00695811 0.424796 0.594202
0.0319524 0.420417 0.589349
0.084596 0.409445 0.577966
0.247135 0.348806 0.553017
0.69958 0.347723 0.54931
0.756436 0.0010071 0.086305
0.783886 1.5259e-05 0.00941482
0.780652 0 0.00276188
0.686702 0 0
0 0.315435 0.498527
0.00285344 0.341588 0.514946
0.0216373 0.33727 0.506035
0.176791 0.306371 0.478981
0.631464 0.29601 0.469459
0.805554 0.0202945 0.183948
0.782162 0 0.00453193
0.778668 0 0.00155642
0.686702 0 0
0 0.298817 0.457053
0 0.304891 0.45655
0.00114443 0.31133 0.453666
0.120623 0.335531 0.456703
0.54612 0.316274 0.426596
0.824628 0.163317 0.29192
0.757687 0 0.00259403
0.775387 0 0.000900282
0.686702 0 0
0 0.410361 0.506416
0 0.39028 0.488243
0 0.383337 0.471153
0.0233158 0.423346 0.472068
0.441001 0.444297 0.448066
0.796445 0.383932 0.356558
0.918669 0.0907759 0.123903
0.772366 0 0.000579843
0.686702 0 0
0 0.561135 0.568856
0 0.545647 0.55404
0 0.52987 0.538903
0 0.51426 0.523964
0.0502785 0.584039 0.475273
0.633295 0.585977 0.355489
0.920302 0.503975 0.275685
0.966628 0.114031 0.0684977
0.686702 0 0
0 0.688212 0.623713
0 0.674601 0.615442
0 0.661204 0.606317
0 0.648402 0.596613
0 0.63534 0.584497
0.296757 0.758221 0.504448
0.760967 0.71986 0.347051
0.974075 0.639811 0.339742
0.976669 0.142611 0.0126955
0.000198367 0.827161 0.681529
6.10361e-05 0.824018 0.673426
1.5259e-05 0.820859 0.665568
0 0.817945 0.658396
0 0.790951 0.651926
0 0.766796 0.643885
0.559228 0.883101 0.569558
0.868757 0.855955 0.42356
0.950027 0.78822 0.42771
0.0269322 0.856962 0.75848
0.0202487 0.854185 0.751781
0.014847 0.851606 0.744457
0.0101778 0.848524 0.736675
0.00674449 0.845243 0.728756
0.00436408 0.842069 0.720699
0.00265507 0.838788 0.712291
0.764324 0.905745 0.667033
0.879423 0.918395 0.590951
0.425467 0.786969 0.880354
0.419821 0.76875 0.862791
0.427955 0.752453 0.845563
0.502953 0.740215 0.83473
0.629969 0.685527 0.828077
0.913451 0.658732 0.821561
0.760525 0.00303655 0.18468
0.766796 0.00184634 0.153216
0.780056 0.000457771 0.0732738
0.350286 0.725216 0.818494
0.351995 0.710246 0.805386
0.356832 0.695979 0.793576
0.435462 0.687083 0.78674
0.58323 0.637171 0.781613
0.873777 0.613672 0.780743
0.928176 0.0754559 0.492866
0.775326 0.000823987 0.104829
0.783856 0.000198367 0.0423438
0.25243 0.667613 0.769909
0.266911 0.6542 0.759487
0.273472 0.63975 0.748684
0.352926 0.631891 0.742412
0.521569 0.583368 0.734173
0.834485 0.561151 0.732494
0.955917 0.1355 0.521324
0.781231 0.000381476 0.064271
0.785168 7.62951e-05 0.0222629
0.149264 0.616709 0.724224
0.169848 0.604166 0.714961
0.183124 0.589456 0.704067
0.260624 0.581994 0.697734
0.463798 0.55346 0.685649
0.792294 0.525093 0.685267
0.954665 0.240238 0.561913
0.784405 0.000167849 0.0364843
0.7841 1.5259e-05 0.0104067
0.0252232 0.585397 0.677897
0.0430152 0.577142 0.670558
0.0771038 0.570367 0.664103
0.161288 0.569009 0.659648
0.413199 0.578012 0.660029
0.742458 0.54519 0.648249
0.936355 0.409842 0.58204
0.785229 6.10361e-05 0.0190585
0.782391 0 0.00512703
0 0.583017 0.643427
0 0.567895 0.633158
0 0.558755 0.6262
0.0080415 0.599451 0.639323
0.296132 0.646693 0.651377
0.671168 0.639292 0.626215
0.896956 0.587488 0.579263
0.96492 0.353689 0.479393
0.781064 0 0.00320439
0 0.704936 0.673762
0 0.690547 0.665034
0 0.677394 0.656901
0 0.664195 0.648417
0 0.650523 0.638834
0.306004 0.757473 0.614755
0.777127 0.736416 0.519844
0.968734 0.659297 0.508415
0.968215 0.345373 0.388525
0.00177005 0.836347 0.70634
0.000900282 0.833021 0.697246
0.000396735 0.829831 0.688472
0.00015259 0.822553 0.680598
1.5259e-05 0.793713 0.674952
0 0.770581 0.668666
0.532769 0.883818 0.606744
0.86688 0.855817 0.478874
0.950149 0.787503 0.488579
0.0312047 0.858427 0.762112
0.0237583 0.855726 0.755474
0.0177462 0.853101 0.748531
0.0128481 0.850355 0.741253
0.00854505 0.847105 0.733303
0.00563058 0.84387 0.725353
0.00361639 0.84062 0.717189
0.757702 0.90573 0.677211
0.87985 0.918517 0.599603
0.695644 0.912001 0.841276
0.6869 0.898756 0.842481
0.676753 0.889479 0.843809
0.679606 0.88188 0.844892
0.734936 0.875563 0.845045
0.868132 0.82919 0.853803
0.925643 0.803464 0.865019
0.945968 0.441978 0.865309
0.671534 0.0224002 0.389395
0.645502 0.878447 0.84593
0.632197 0.870527 0.847089
0.618845 0.862501 0.848203
0.6206 0.854948 0.848722
0.674983 0.849012 0.847684
0.787106 0.799329 0.851301
0.931579 0.774258 0.870939
0.945296 0.439002 0.864332
0.671534 0.0224002 0.389395
0.581552 0.851377 0.850584
0.567452 0.843397 0.852049
0.552331 0.835584 0.853727
0.552529 0.828397 0.85452
0.606958 0.822522 0.85272
0.71989 0.777691 0.848859
0.938354 0.744793 0.87689
0.951232 0.424155 0.84213
0.728115 0.0158389 0.29424
0.507713 0.826108 0.856764
0.492271 0.818158 0.858091
0.476356 0.810513 0.85951
0.474998 0.803326 0.865171
0.535073 0.792096 0.884428
0.668635 0.744884 0.874144
0.945403 0.706661 0.865492
0.962127 0.391135 0.796536
0.755596 0.00480659 0.206149
0.420035 0.805539 0.872862
0.407736 0.789334 0.870237
0.403357 0.772641 0.851133
0.411719 0.758129 0.835752
0.488884 0.748898 0.826032
0.649683 0.719997 0.815686
0.900649 0.680385 0.815869
0.958938 0.463096 0.778958
0.76817 0.00161746 0.1449
0.322606 0.780652 0.825208
0.298131 0.764126 0.809796
0.313558 0.752605 0.799054
0.322637 0.740322 0.788067
0.406989 0.735348 0.783139
0.618082 0.735241 0.781842
0.852857 0.693278 0.779126
0.95349 0.590967 0.759441
0.776165 0.000747692 0.0998093
0.0136416 0.750668 0.746731
0.00614939 0.731716 0.735836
0.00216678 0.713146 0.725017
0.0024567 0.710384 0.72285
0.211673 0.775464 0.754208
0.522072 0.788983 0.755322
0.790417 0.766491 0.737026
0.949432 0.719417 0.723339
0.95787 0.537209 0.688853
0.0332799 0.858961 0.76379
0.0255131 0.856458 0.757259
0.0192874 0.853834 0.750622
0.0131991 0.847562 0.742626
0.00517281 0.820768 0.732418
0.00187686 0.796841 0.722072
0.486595 0.879637 0.683742
0.869673 0.862959 0.619699
0.944778 0.802579 0.632395
0.0654765 0.865248 0.781308
0.049836 0.862715 0.774227
0.0389105 0.860471 0.767788
0.0303807 0.858167 0.761395
0.0234531 0.855573 0.755199
0.0176394 0.853025 0.748348
0.0127413 0.850263 0.741054
0.736904 0.908141 0.710521
0.882368 0.919264 0.642374
0.91368 0.923827 0.8589
0.91368 0.923827 0.8589
0.922103 0.92285 0.856626
0.912108 0.922316 0.853056
0.914275 0.922286 0.853498
0.91368 0.923827 0.8589
0.91368 0.923827 0.8589
0.91368 0.923827 0.8589
0.94966 0.656794 0.894316
0.893111 0.921691 0.848524
0.867826 0.921187 0.84622
0.84593 0.920638 0.845624
0.830427 0.92047 0.84596
0.831785 0.92047 0.845945
0.897932 0.92192 0.849241
0.91368 0.923827 0.8589
0.908125 0.928298 0.850919
0.95137 0.628305 0.897322
0.81622 0.920363 0.846067
0.799146 0.919844 0.845655
0.782803 0.919219 0.845121
0.770581 0.918807 0.844831
0.771756 0.918837 0.844846
0.816815 0.927352 0.845228
0.910399 0.916625 0.849973
0.914504 0.873106 0.855772
0.952132 0.600168 0.899886
0.758267 0.918379 0.844556
0.74374 0.9178 0.844205
0.718059 0.929122 0.843046
0.70573 0.926131 0.840558
0.716594 0.910094 0.841306
0.774212 0.899413 0.842084
0.937438 0.866697 0.85391
0.920226 0.834363 0.860258
0.952682 0.582803 0.900893
0.690776 0.926253 0.840589
0.684291 0.909636 0.841596
0.674998 0.897047 0.842969
0.664836 0.88777 0.844251
0.666835 0.88043 0.845197
0.721096 0.874571 0.845167
0.84625 0.828214 0.852567
0.925505 0.804257 0.864866
0.952087 0.601099 0.899779
0.640513 0.896895 0.844266
0.623468 0.886015 0.845808
0.611948 0.878096 0.84715
0.599207 0.870253 0.848341
0.600855 0.863066 0.848875
0.654536 0.857435 0.847318
0.787854 0.830594 0.845151
0.928328 0.789425 0.867887
0.948638 0.667216 0.892973
0.547951 0.910185 0.848112
0.532326 0.895094 0.850828
0.52015 0.883101 0.852384
0.507149 0.874067 0.85417
0.510719 0.866682 0.854383
0.570626 0.86247 0.850294
0.730053 0.859632 0.846464
0.924605 0.806653 0.878141
0.936812 0.748272 0.899763
0.227817 0.879118 0.831434
0.227817 0.879118 0.831434
0.227817 0.879118 0.831434
0.227817 0.879118 0.831434
0.232242 0.890501 0.842542
0.42266 0.914107 0.858244
0.635111 0.910719 0.847166
0.878386 0.887251 0.831754
0.924086 0.839902 0.824292
0.227817 0.879118 0.831434
0.227817 0.879118 0.831434
0.227817 0.879118 0.831434
0.222522 0.878492 0.82768
0.177905 0.875105 0.813855
0.135409 0.871733 0.803082
0.102754 0.869093 0.79382
0.672023 0.91075 0.791211
0.89305 0.921111 0.773266
0.91368 0.923827 0.8589
0.91368 0.923827 0.8589
0.91368 0.923827 0.8589
0.91368 0.923827 0.8589
0.91368 0.923827 0.8589
0.91368 0.923827 0.8589
0.91368 0.923827 0.8589
0.91368 0.923827 0.8589
0.91368 0.923827 0.8589
0.91368 0.923827 0.8589
0.91368 0.923827 0.8589
0.91368 0.923827 0.8589
0.91368 0.923827 0.8589
0.91368 0.923827 0.8589
0.91368 0.923827 0.8589
0.91368 0.923827 0.8589
0.91368 0.923827 0.8589
0.91368 0.923827 0.8589
0.91368 0.923827 0.8589
0.91368 0.923827 0.8589
0.91368 0.923827 0.8589
0.91368 0.923827 0.8589
0.91368 0.923827 0.8589
0.91368 0.923827 0.8589
0.91368 0.923827 0.8589
0.91368 0.923827 0.8589
0.91368 0.923827 0.8589
0.91368 0.923827 0.8589
0.91368 0.923827 0.8589
0.91368 0.923827 0.8589
0.91368 0.923827 0.8589
0.91368 0.923827 0.8589
0.91368 0.923827 0.8589
0.91368 0.923827 0.8589
0.91368 0.923827 0.8589
0.91368 0.923827 0.8589
0.91368 0.923827 0.8589
0.91368 0.923827 0.8589
0.915129 0.923644 0.858518
0.915831 0.922271 0.853834
0.895644 0.921813 0.84889
0.897139 0.921874 0.849119
0.91368 0.923827 0.8589
0.91368 0.923827 0.8589
0.91368 0.923827 0.8589
0.902205 0.922087 0.850385
0.874174 0.921355 0.84654
0.851438 0.92076 0.845685
0.831388 0.92047 0.845945
0.816815 0.920378 0.846082
0.817929 0.920394 0.846098
0.877668 0.92137 0.846815
0.91368 0.923827 0.8589
0.90811 0.928161 0.850904
0.815534 0.920348 0.846067
0.79646 0.919753 0.845579
0.780331 0.919127 0.845045
0.765118 0.918639 0.844724
0.753185 0.918196 0.84445
0.754635 0.918257 0.84448
0.801678 0.919951 0.845731
0.911482 0.927855 0.856123
0.912703 0.897215 0.853223
0.725383 0.917113 0.843885
0.709697 0.916625 0.843687
0.695933 0.916213 0.843488
0.682795 0.915801 0.84332
0.673045 0.91548 0.843259
0.677836 0.915633 0.84329
0.728511 0.917205 0.843915
0.884001 0.921386 0.847364
0.908492 0.931228 0.851392
0.227817 0.879118 0.831434
0.227817 0.879118 0.831434
0.227817 0.879118 0.831434
0.227817 0.879118 0.831434
0.227817 0.879118 0.831434
0.271489 0.90695 0.855329
0.564981 0.913329 0.846296
0.769635 0.918776 0.8448
0.91368 0.923827 0.8589
