luts/portra.cube
# reordered to R-innermost (standard .cube)
LUT_3D_SIZE 33
0.079899 0.058637 0.032755
0.113438 0.057292 0.031835
0.146977 0.055946 0.030915
0.180517 0.054601 0.029995
0.213541 0.053276 0.029089
0.246534 0.051952 0.028184
0.279633 0.050624 0.027276
0.312840 0.049292 0.026365
0.346154 0.047956 0.025451
0.379576 0.046615 0.024534
0.413104 0.045270 0.023614
0.446740 0.043921 0.022691
0.480482 0.042567 0.021766
0.514332 0.041209 0.020837
0.548290 0.039847 0.019906
0.582354 0.038480 0.018971
0.616526 0.037110 0.018034
0.650697 0.035739 0.017096
0.684762 0.034372 0.016162
0.718719 0.033010 0.015230
0.752569 0.031652 0.014302
0.786312 0.030299 0.013376
0.819947 0.028949 0.012453
0.853476 0.027604 0.011534
0.886897 0.026263 0.010617
0.920211 0.024927 0.009703
0.953418 0.023595 0.008792
0.986517 0.022267 0.007884
1.000000 0.020944 0.006979
1.000000 0.019619 0.006073
1.000000 0.018273 0.005153
1.000000 0.016928 0.004233
1.000000 0.015582 0.003313
0.074332 0.087407 0.029862
0.107871 0.086061 0.028942
0.141410 0.084716 0.028022
0.174949 0.083371 0.027102
0.207974 0.082046 0.026196
0.240966 0.080722 0.025291
0.274066 0.079394 0.024383
0.307273 0.078062 0.023472
0.340587 0.076726 0.022558
0.374008 0.075385 0.021641
0.407536 0.074040 0.020721
0.441172 0.072691 0.019799
0.474915 0.071337 0.018873
0.508765 0.069979 0.017945
0.542722 0.068617 0.017013
0.576786 0.067250 0.016079
0.610958 0.065880 0.015141
0.645130 0.064509 0.014204
0.679194 0.063142 0.013269
0.713151 0.061780 0.012338
0.747001 0.060422 0.011409
0.780744 0.059068 0.010483
0.814380 0.057719 0.009561
0.847908 0.056374 0.008641
0.881329 0.055033 0.007724
0.914643 0.053697 0.006810
0.947850 0.052365 0.005899
0.980950 0.051037 0.004991
1.000000 0.049713 0.004086
1.000000 0.048389 0.003180
1.000000 0.047043 0.002260
1.000000 0.045698 0.001340
1.000000 0.044352 0.000420
0.068764 0.116177 0.026970
0.102303 0.114831 0.026049
0.135842 0.113486 0.025129
0.169382 0.112140 0.024209
0.202406 0.110816 0.023303
0.235399 0.109492 0.022398
0.268498 0.108164 0.021490
0.301705 0.106832 0.020579
0.335019 0.105496 0.019665
0.368440 0.104155 0.018749
0.401969 0.102810 0.017829
0.435605 0.101461 0.016906
0.469347 0.100107 0.015980
0.503197 0.098749 0.015052
0.537155 0.097387 0.014120
0.571219 0.096020 0.013186
0.605390 0.094649 0.012248
0.639562 0.093279 0.011311
0.673626 0.091912 0.010377
0.707584 0.090550 0.009445
0.741434 0.089192 0.008516
0.775176 0.087838 0.007591
0.808812 0.086489 0.006668
0.842341 0.085144 0.005748
0.875762 0.083803 0.004831
0.909076 0.082467 0.003918
0.942283 0.081135 0.003007
0.975382 0.079807 0.002099
1.000000 0.078483 0.001193
1.000000 0.077158 0.000288
1.000000 0.075813 0.000000
1.000000 0.074468 0.000000
1.000000 0.073122 0.000000
0.063197 0.144947 0.024077
0.096736 0.143601 0.023157
0.130275 0.142256 0.022237
0.163814 0.140910 0.021317
0.196839 0.139586 0.020411
0.229831 0.138262 0.019506
0.262931 0.136934 0.018598
0.296138 0.135602 0.017687
0.329452 0.134266 0.016773
0.362873 0.132925 0.015856
0.396401 0.131580 0.014936
0.430037 0.130231 0.014013
0.463780 0.128877 0.013088
0.497630 0.127519 0.012159
0.531587 0.126157 0.011228
0.565651 0.124790 0.010293
0.599823 0.123419 0.009356
0.633995 0.122049 0.008418
0.668059 0.120682 0.007484
0.702016 0.119320 0.006552
0.735866 0.117962 0.005624
0.769609 0.116608 0.004698
0.803245 0.115259 0.003775
0.836773 0.113914 0.002856
0.870194 0.112573 0.001939
0.903508 0.111237 0.001025
0.936715 0.109905 0.000114
0.969815 0.108577 0.000000
1.000000 0.107253 0.000000
1.000000 0.105928 0.000000
1.000000 0.104612 0.000000
1.000000 0.103361 0.000000
1.000000 0.102110 0.000000
0.057714 0.173275 0.021229
0.091254 0.171930 0.020308
0.124793 0.170584 0.019388
0.158332 0.169239 0.018468
0.191357 0.167914 0.017562
0.224349 0.166591 0.016657
0.257449 0.165263 0.015749
0.290656 0.163931 0.014838
0.323970 0.162594 0.013924
0.357391 0.161253 0.013008
0.390919 0.159908 0.012088
0.424555 0.158559 0.011165
0.458298 0.157205 0.010239
0.492148 0.155847 0.009311
0.526105 0.154485 0.008379
0.560169 0.153119 0.007445
0.594341 0.151748 0.006507
0.628512 0.150377 0.005570
0.662577 0.149011 0.004636
0.696534 0.147648 0.003704
0.730384 0.146290 0.002775
0.764127 0.144937 0.001850
0.797762 0.143587 0.000927
0.831291 0.142242 0.000007
0.864712 0.140902 0.000000
0.898026 0.139565 0.000000
0.931233 0.138233 0.000000
0.964560 0.136947 0.000000
0.998064 0.135716 0.000000
1.000000 0.134484 0.000000
1.000000 0.133233 0.000000
1.000000 0.131982 0.000000
1.000000 0.130730 0.000000
0.052238 0.201576 0.018383
0.085777 0.200231 0.017463
0.119316 0.198885 0.016543
0.152855 0.197540 0.015623
0.185880 0.196215 0.014717
0.218872 0.194891 0.013812
0.251972 0.193564 0.012904
0.285179 0.192232 0.011993
0.318493 0.190895 0.011079
0.351914 0.189554 0.010162
0.385442 0.188209 0.009242
0.419078 0.186860 0.008320
0.452821 0.185506 0.007394
0.486671 0.184148 0.006465
0.520628 0.182786 0.005534
0.554692 0.181420 0.004599
0.588864 0.180049 0.003662
0.623036 0.178678 0.002724
0.657100 0.177311 0.001790
0.691057 0.175949 0.000858
0.724907 0.174591 0.000000
0.758650 0.173238 0.000000
0.792286 0.171888 0.000000
0.825814 0.170543 0.000000
0.859526 0.169255 0.000000
0.893357 0.168013 0.000000
0.927078 0.166774 0.000000
0.960691 0.165539 0.000000
0.994194 0.164308 0.000000
1.000000 0.163076 0.000000
1.000000 0.161825 0.000000
1.000000 0.160574 0.000000
1.000000 0.159323 0.000000
0.046743 0.229969 0.015528
0.080282 0.228624 0.014608
0.113821 0.227278 0.013688
0.147361 0.225933 0.012768
0.180385 0.224608 0.011862
0.213378 0.223284 0.010957
0.246477 0.221957 0.010049
0.279684 0.220624 0.009138
0.312998 0.219288 0.008224
0.346419 0.217947 0.007307
0.379948 0.216602 0.006388
0.413584 0.215253 0.005465
0.447326 0.213899 0.004539
0.481176 0.212541 0.003611
0.515134 0.211179 0.002679
0.549198 0.209813 0.001745
0.583369 0.208442 0.000807
0.617541 0.207071 0.000000
0.651605 0.205704 0.000000
0.685563 0.204342 0.000000
0.719413 0.202984 0.000000
0.753500 0.201693 0.000000
0.787657 0.200438 0.000000
0.821705 0.199188 0.000000
0.855644 0.197941 0.000000
0.889475 0.196698 0.000000
0.923196 0.195459 0.000000
0.956808 0.194225 0.000000
0.990312 0.192994 0.000000
1.000000 0.191762 0.000000
1.000000 0.190511 0.000000
1.000000 0.189260 0.000000
1.000000 0.188008 0.000000
0.041231 0.258454 0.012664
0.074770 0.257108 0.011744
0.108309 0.255763 0.010824
0.141848 0.254418 0.009904
0.174873 0.253093 0.008998
0.207865 0.251769 0.008093
0.240965 0.250441 0.007185
0.274172 0.249109 0.006274
0.307486 0.247773 0.005360
0.340907 0.246432 0.004443
0.374436 0.245087 0.003524
0.408071 0.243738 0.002601
0.441814 0.242384 0.001675
0.475664 0.241026 0.000747
0.509621 0.239664 0.000000
0.543686 0.238297 0.000000
0.577857 0.236927 0.000000
0.612029 0.235556 0.000000
0.646482 0.234260 0.000000
0.680966 0.232993 0.000000
0.715340 0.231730 0.000000
0.749606 0.230472 0.000000
0.783763 0.229217 0.000000
0.817811 0.227966 0.000000
0.851750 0.226719 0.000000
0.885580 0.225477 0.000000
0.919301 0.224238 0.000000
0.952914 0.223003 0.000000
0.986418 0.221772 0.000000
1.000000 0.220540 0.000000
1.000000 0.219289 0.000000
1.000000 0.218038 0.000000
1.000000 0.216787 0.000000
0.035701 0.287031 0.009791
0.069240 0.285685 0.008871
0.102779 0.284340 0.007951
0.136318 0.282994 0.007031
0.169343 0.281670 0.006125
0.202335 0.280346 0.005220
0.235435 0.279018 0.004312
0.268642 0.277686 0.003401
0.301956 0.276350 0.002487
0.335377 0.275009 0.001570
0.368905 0.273664 0.000650
0.402541 0.272315 0.000000
0.436284 0.270961 0.000000
0.470134 0.269603 0.000000
0.504091 0.268241 0.000000
0.538581 0.266951 0.000000
0.573282 0.265677 0.000000
0.607983 0.264402 0.000000
0.642575 0.263131 0.000000
0.677058 0.261864 0.000000
0.711433 0.260602 0.000000
0.745699 0.259343 0.000000
0.779855 0.258088 0.000000
0.813903 0.256837 0.000000
0.847842 0.255591 0.000000
0.881673 0.254348 0.000000
0.915394 0.253109 0.000000
0.949007 0.251874 0.000000
0.982510 0.250644 0.000000
1.000000 0.249412 0.000000
1.000000 0.248161 0.000000
1.000000 0.246909 0.000000
1.000000 0.245658 0.000000
0.030153 0.315700 0.006908
0.063692 0.314354 0.005988
0.097231 0.313009 0.005068
0.130770 0.311663 0.004148
0.163795 0.310338 0.003242
0.196787 0.309015 0.002337
0.229887 0.307687 0.001429
0.263094 0.306355 0.000518
0.296408 0.305018 0.000000
0.329829 0.303678 0.000000
0.363357 0.302333 0.000000
0.396993 0.300983 0.000000
0.431211 0.299716 0.000000
0.465585 0.298453 0.000000
0.500069 0.297186 0.000000
0.534661 0.295916 0.000000
0.569362 0.294641 0.000000
0.604063 0.293366 0.000000
0.638655 0.292095 0.000000
0.673139 0.290829 0.000000
0.707513 0.289566 0.000000
0.741779 0.288307 0.000000
0.775936 0.287052 0.000000
0.809984 0.285802 0.000000
0.843923 0.284555 0.000000
0.877753 0.283312 0.000000
0.911474 0.282073 0.000000
0.945087 0.280839 0.000000
0.978591 0.279608 0.000000
1.000000 0.278376 0.000000
1.000000 0.277125 0.000000
1.000000 0.275874 0.000000
1.000000 0.274622 0.000000
0.024587 0.344460 0.004017
0.058126 0.343115 0.003097
0.091665 0.341769 0.002177
0.125204 0.340424 0.001256
0.158229 0.339099 0.000351
0.191221 0.337775 0.000000
0.224321 0.336448 0.000000
0.257528 0.335116 0.000000
0.290869 0.333784 0.000000
0.324808 0.332537 0.000000
0.358856 0.331286 0.000000
0.393013 0.330032 0.000000
0.427278 0.328773 0.000000
0.461653 0.327510 0.000000
0.496136 0.326243 0.000000
0.530728 0.324973 0.000000
0.565430 0.323698 0.000000
0.600131 0.322423 0.000000
0.634723 0.321152 0.000000
0.669206 0.319886 0.000000
0.703581 0.318623 0.000000
0.737846 0.317364 0.000000
0.772003 0.316109 0.000000
0.806051 0.314859 0.000000
0.839990 0.313612 0.000000
0.873821 0.312369 0.000000
0.907542 0.311130 0.000000
0.941155 0.309896 0.000000
0.974658 0.308665 0.000000
1.000000 0.307433 0.000000
1.000000 0.306182 0.000000
1.000000 0.304931 0.000000
1.000000 0.303680 0.000000
0.019003 0.373313 0.001116
0.052542 0.371967 0.000196
0.086082 0.370622 0.000000
0.119621 0.369276 0.000000
0.152645 0.367952 0.000000
0.185760 0.366650 0.000000
0.219372 0.365415 0.000000
0.253094 0.364177 0.000000
0.286924 0.362934 0.000000
0.320863 0.361687 0.000000
0.354911 0.360436 0.000000
0.389068 0.359182 0.000000
0.423333 0.357923 0.000000
0.457708 0.356660 0.000000
0.492191 0.355393 0.000000
0.526784 0.354123 0.000000
0.561485 0.352848 0.000000
0.596186 0.351573 0.000000
0.630778 0.350302 0.000000
0.665261 0.349036 0.000000
0.699636 0.347773 0.000000
0.733901 0.346514 0.000000
0.768058 0.345260 0.000000
0.802106 0.344009 0.000000
0.836045 0.342762 0.000000
0.869876 0.341519 0.000000
0.903597 0.340280 0.000000
0.937210 0.339046 0.000000
0.970713 0.337815 0.000000
1.000000 0.336583 0.000000
1.000000 0.335332 0.000000
1.000000 0.334081 0.000000
1.000000 0.332830 0.000000
0.013402 0.402257 0.000000
0.046941 0.400912 0.000000
0.080703 0.399607 0.000000
0.114762 0.398356 0.000000
0.148298 0.397124 0.000000
0.181802 0.395893 0.000000
0.215415 0.394658 0.000000
0.249136 0.393420 0.000000
0.282966 0.392177 0.000000
0.316905 0.390930 0.000000
0.350953 0.389679 0.000000
0.385110 0.388425 0.000000
0.419376 0.387166 0.000000
0.453750 0.385903 0.000000
0.488234 0.384636 0.000000
0.522826 0.383366 0.000000
0.557527 0.382091 0.000000
0.592228 0.380816 0.000000
0.626820 0.379545 0.000000
0.661304 0.378279 0.000000
0.695678 0.377016 0.000000
0.729944 0.375757 0.000000
0.764101 0.374502 0.000000
0.798149 0.373252 0.000000
0.832088 0.372005 0.000000
0.865918 0.370762 0.000000
0.899640 0.369523 0.000000
0.933252 0.368289 0.000000
0.966756 0.367058 0.000000
1.000000 0.365826 0.000000
1.000000 0.364575 0.000000
1.000000 0.363324 0.000000
1.000000 0.362072 0.000000
0.008615 0.431445 0.000000
0.042674 0.430194 0.000000
0.076733 0.428943 0.000000
0.110792 0.427692 0.000000
0.144328 0.426460 0.000000
0.177832 0.425229 0.000000
0.211445 0.423994 0.000000
0.245166 0.422755 0.000000
0.278996 0.421513 0.000000
0.312935 0.420266 0.000000
0.346983 0.419015 0.000000
0.381140 0.417760 0.000000
0.415406 0.416502 0.000000
0.449780 0.415239 0.000000
0.484264 0.413972 0.000000
0.518856 0.412701 0.000000
0.553557 0.411427 0.000000
0.588258 0.410152 0.000000
0.622850 0.408881 0.000000
0.657334 0.407614 0.000000
0.691708 0.406352 0.000000
0.725974 0.405093 0.000000
0.760131 0.403838 0.000000
0.794179 0.402587 0.000000
0.828118 0.401341 0.000000
0.861948 0.400098 0.000000
0.895670 0.398859 0.000000
0.929282 0.397624 0.000000
0.962786 0.396394 0.000000
0.996322 0.395162 0.000000
1.000000 0.393911 0.000000
1.000000 0.392659 0.000000
1.000000 0.391408 0.000000
0.004633 0.460874 0.000000
0.038692 0.459623 0.000000
0.072751 0.458371 0.000000
0.106809 0.457120 0.000000
0.140346 0.455888 0.000000
0.173849 0.454658 0.000000
0.207462 0.453423 0.000000
0.241183 0.452184 0.000000
0.275014 0.450941 0.000000
0.308953 0.449695 0.000000
0.343001 0.448444 0.000000
0.377158 0.447189 0.000000
0.411423 0.445930 0.000000
0.445798 0.444668 0.000000
0.480281 0.443401 0.000000
0.514873 0.442130 0.000000
0.549574 0.440855 0.000000
0.584276 0.439581 0.000000
0.618868 0.438310 0.000000
0.653351 0.437043 0.000000
0.687726 0.435780 0.000000
0.721991 0.434522 0.000000
0.756148 0.433267 0.000000
0.790196 0.432016 0.000000
0.824135 0.430769 0.000000
0.857965 0.429527 0.000000
0.891687 0.428288 0.000000
0.925299 0.427053 0.000000
0.958803 0.425822 0.000000
0.992339 0.424590 0.000000
1.000000 0.423339 0.000000
1.000000 0.422088 0.000000
1.000000 0.420837 0.000000
0.000638 0.490395 0.000000
0.034697 0.489144 0.000000
0.068755 0.487893 0.000000
0.102814 0.486642 0.000000
0.136351 0.485410 0.000000
0.169854 0.484179 0.000000
0.203467 0.482944 0.000000
0.237188 0.481706 0.000000
0.271018 0.480463 0.000000
0.304958 0.479216 0.000000
0.339006 0.477965 0.000000
0.373162 0.476711 0.000000
0.407428 0.475452 0.000000
0.441803 0.474189 0.000000
0.476286 0.472922 0.000000
0.510878 0.471652 0.000000
0.545579 0.470377 0.000000
0.580280 0.469102 0.000000
0.614873 0.467831 0.000000
0.649356 0.466565 0.000000
0.683730 0.465302 0.000000
0.717996 0.464043 0.000000
0.752153 0.462788 0.000000
0.786201 0.461538 0.000000
0.820140 0.460291 0.000000
0.853970 0.459048 0.000000
0.887692 0.457809 0.000000
0.921304 0.456575 0.000000
0.954808 0.455344 0.000000
0.988344 0.454112 0.000000
1.000000 0.452861 0.000000
1.000000 0.451610 0.000000
1.000000 0.450359 0.000000
0.000000 0.520010 0.000000
0.030689 0.518759 0.000000
0.064748 0.517508 0.000000
0.098806 0.516256 0.000000
0.132343 0.515024 0.000000
0.165846 0.513794 0.000000
0.199459 0.512559 0.000000
0.233180 0.511320 0.000000
0.267011 0.510077 0.000000
0.300950 0.508831 0.000000
0.334998 0.507580 0.000000
0.369155 0.506325 0.000000
0.403420 0.505066 0.000000
0.437795 0.503804 0.000000
0.472278 0.502537 0.000000
0.506870 0.501266 0.000000
0.541571 0.499991 0.000000
0.576273 0.498717 0.000000
0.610865 0.497446 0.000000
0.645348 0.496179 0.000000
0.679723 0.494916 0.000000
0.713988 0.493658 0.000000
0.748145 0.492403 0.000000
0.782193 0.491152 0.000000
0.816132 0.489905 0.000000
0.849962 0.488663 0.000000
0.883684 0.487424 0.000000
0.917296 0.486189 0.000000
0.950800 0.484958 0.000000
0.984337 0.483727 0.000000
1.000000 0.482475 0.000000
1.000000 0.481224 0.000000
1.000000 0.479973 0.000000
0.000000 0.549624 0.000000
0.026681 0.548373 0.000000
0.060740 0.547122 0.000000
0.094799 0.545871 0.000000
0.128335 0.544639 0.000000
0.161839 0.543408 0.000000
0.195451 0.542173 0.000000
0.229173 0.540935 0.000000
0.263003 0.539692 0.000000
0.296942 0.538445 0.000000
0.330990 0.537194 0.000000
0.365147 0.535940 0.000000
0.399412 0.534681 0.000000
0.433787 0.533418 0.000000
0.468270 0.532151 0.000000
0.502863 0.530881 0.000000
0.537564 0.529606 0.000000
0.572265 0.528331 0.000000
0.606857 0.527060 0.000000
0.641340 0.525794 0.000000
0.675715 0.524531 0.000000
0.709981 0.523272 0.000000
0.744137 0.522017 0.000000
0.778185 0.520767 0.000000
0.812124 0.519520 0.000000
0.845955 0.518277 0.000000
0.879676 0.517038 0.000000
0.913289 0.515804 0.000000
0.946792 0.514573 0.000000
0.980329 0.513341 0.000000
1.000000 0.512090 0.000000
1.000000 0.510839 0.000000
1.000000 0.509588 0.000000
0.000000 0.579146 0.000000
0.022686 0.577895 0.000000
0.056745 0.576644 0.000000
0.090803 0.575393 0.000000
0.124340 0.574161 0.000000
0.157844 0.572930 0.000000
0.191456 0.571695 0.000000
0.225177 0.570456 0.000000
0.259008 0.569214 0.000000
0.292947 0.567967 0.000000
0.326995 0.566716 0.000000
0.361152 0.565461 0.000000
0.395417 0.564203 0.000000
0.429792 0.562940 0.000000
0.464275 0.561673 0.000000
0.498867 0.560402 0.000000
0.533568 0.559128 0.000000
0.568270 0.557853 0.000000
0.602862 0.556582 0.000000
0.637345 0.555315 0.000000
0.671720 0.554053 0.000000
0.705985 0.552794 0.000000
0.740142 0.551539 0.000000
0.774190 0.550288 0.000000
0.808129 0.549042 0.000000
0.841960 0.547799 0.000000
0.875681 0.546560 0.000000
0.909293 0.545325 0.000000
0.942797 0.544095 0.000000
0.976334 0.542863 0.000000
1.000000 0.541611 0.000000
1.000000 0.540360 0.000000
1.000000 0.539109 0.000000
0.000000 0.608575 0.000000
0.018703 0.607324 0.000000
0.052762 0.606072 0.000000
0.086821 0.604821 0.000000
0.120357 0.603589 0.000000
0.153861 0.602359 0.000000
0.187473 0.601124 0.000000
0.221195 0.599885 0.000000
0.255025 0.598642 0.000000
0.288964 0.597395 0.000000
0.323012 0.596145 0.000000
0.357169 0.594890 0.000000
0.391435 0.593631 0.000000
0.425809 0.592368 0.000000
0.460293 0.591102 0.000000
0.494885 0.589831 0.000000
0.529586 0.588556 0.000000
0.564287 0.587282 0.000000
0.598879 0.586011 0.000000
0.633363 0.584744 0.000000
0.667737 0.583481 0.000000
0.702003 0.582223 0.000000
0.736160 0.580968 0.000000
0.770208 0.579717 0.000000
0.804147 0.578470 0.000000
0.837977 0.577228 0.000000
0.871698 0.575989 0.000000
0.905311 0.574754 0.000000
0.938815 0.573523 0.000000
0.972351 0.572291 0.000000
1.000000 0.571040 0.000000
1.000000 0.569789 0.000000
1.000000 0.568538 0.000000
0.000000 0.637910 0.000000
0.014733 0.636659 0.000000
0.048792 0.635408 0.000000
0.082851 0.634157 0.000000
0.116387 0.632925 0.000000
0.149891 0.631694 0.000000
0.183503 0.630460 0.000000
0.217225 0.629221 0.000000
0.251055 0.627978 0.000000
0.284994 0.626731 0.000000
0.319042 0.625481 0.000000
0.353199 0.624226 0.000000
0.387465 0.622967 0.000000
0.421839 0.621704 0.000000
0.456322 0.620438 0.000000
0.490915 0.619167 0.000000
0.525616 0.617892 0.000000
0.560317 0.616617 0.000000
0.594909 0.615347 0.000000
0.629392 0.614080 0.000000
0.663767 0.612817 0.000000
0.698033 0.611558 0.000000
0.732189 0.610304 0.000000
0.766237 0.609053 0.000000
0.800177 0.607806 0.000000
0.834007 0.606563 0.000000
0.867728 0.605325 0.000000
0.901341 0.604090 0.000000
0.934844 0.602859 0.000000
0.968381 0.601627 0.000000
1.000000 0.600376 0.000000
1.000000 0.599125 0.000000
1.000000 0.597874 0.000000
0.000000 0.667153 0.000000
0.010776 0.665902 0.000000
0.044834 0.664651 0.000000
0.078893 0.663400 0.000000
0.112430 0.662168 0.000000
0.145933 0.660937 0.000000
0.179546 0.659702 0.000000
0.213267 0.658464 0.000000
0.247098 0.657221 0.000000
0.281037 0.655974 0.000000
0.315085 0.654723 0.000000
0.349241 0.653469 0.000000
0.383507 0.652210 0.000000
0.417882 0.650947 0.000000
0.452365 0.649680 0.000000
0.486957 0.648410 0.000000
0.521658 0.647135 0.000000
0.556359 0.645860 0.000000
0.590952 0.644589 0.000000
0.625435 0.643323 0.000000
0.659810 0.642060 0.000000
0.694075 0.640801 0.000000
0.728232 0.639546 0.000000
0.762280 0.638296 0.000000
0.796219 0.637049 0.000000
0.830049 0.635806 0.000000
0.863771 0.634567 0.000000
0.897383 0.633333 0.000000
0.930887 0.632102 0.000000
0.964423 0.630870 0.000000
0.998482 0.629619 0.000000
1.000000 0.628368 0.000000
1.000000 0.627117 0.000000
0.000000 0.696303 0.000000
0.006831 0.695052 0.000000
0.040890 0.693801 0.000000
0.074948 0.692550 0.000000
0.108485 0.691318 0.000000
0.141988 0.690087 0.000000
0.175601 0.688852 0.000000
0.209322 0.687614 0.000000
0.243153 0.686371 0.000000
0.277092 0.685124 0.000000
0.311140 0.683873 0.000000
0.345297 0.682619 0.000000
0.379562 0.681360 0.000000
0.413937 0.680097 0.000000
0.448420 0.678830 0.000000
0.483012 0.677560 0.000000
0.517713 0.676285 0.000000
0.552414 0.675010 0.000000
0.587007 0.673739 0.000000
0.621490 0.672473 0.000000
0.655865 0.671210 0.000000
0.690130 0.669951 0.000000
0.724287 0.668696 0.000000
0.758335 0.667446 0.000000
0.792274 0.666199 0.000000
0.826104 0.664956 0.000000
0.859826 0.663717 0.000000
0.893438 0.662483 0.000000
0.926942 0.661252 0.000000
0.960478 0.660020 0.000000
0.994537 0.658769 0.000000
1.000000 0.657518 0.000000
1.000000 0.656267 0.000000
0.000000 0.725360 0.000000
0.002898 0.724109 0.000000
0.036957 0.722858 0.000000
0.071016 0.721607 0.000000
0.104552 0.720375 0.000000
0.138056 0.719144 0.000000
0.171669 0.717910 0.000000
0.205390 0.716671 0.000000
0.239220 0.715428 0.000000
0.273159 0.714181 0.000000
0.307207 0.712931 0.000000
0.341364 0.711676 0.000000
0.375630 0.710417 0.000000
0.410004 0.709154 0.000000
0.444488 0.707888 0.000000
0.479080 0.706617 0.000000
0.513781 0.705342 0.000000
0.548482 0.704067 0.000000
0.583074 0.702797 0.000000
0.617558 0.701530 0.000000
0.651932 0.700267 0.000000
0.686198 0.699008 0.000000
0.720355 0.697754 0.000000
0.754403 0.696503 0.000000
0.788342 0.695256 0.000000
0.822172 0.694013 0.000000
0.855893 0.692775 0.000000
0.889506 0.691540 0.000000
0.923010 0.690309 0.000000
0.956546 0.689077 0.000000
0.990605 0.687826 0.000000
1.000000 0.686575 0.000000
1.000000 0.685324 0.000000
0.000000 0.754325 0.000000
0.000000 0.753074 0.000000
0.033037 0.751822 0.000000
0.067096 0.750571 0.000000
0.100633 0.749339 0.000000
0.134136 0.748109 0.000000
0.167749 0.746874 0.000000
0.201470 0.745635 0.000000
0.235301 0.744392 0.000000
0.269240 0.743146 0.000000
0.303288 0.741895 0.000000
0.337444 0.740640 0.000000
0.371710 0.739381 0.000000
0.406085 0.738119 0.000000
0.440568 0.736852 0.000000
0.475160 0.735581 0.000000
0.509861 0.734306 0.000000
0.544562 0.733032 0.000000
0.579155 0.731761 0.000000
0.613638 0.730494 0.000000
0.648012 0.729231 0.000000
0.682278 0.727973 0.000000
0.716435 0.726718 0.000000
0.750483 0.725467 0.000000
0.784422 0.724220 0.000000
0.818252 0.722978 0.000000
0.851974 0.721739 0.000000
0.885586 0.720504 0.000000
0.919090 0.719273 0.000000
0.952626 0.718041 0.000000
0.986685 0.716790 0.000000
1.000000 0.715539 0.000000
1.000000 0.714288 0.000000
0.000000 0.783196 0.000000
0.000000 0.781945 0.000000
0.029130 0.780694 0.000000
0.063189 0.779443 0.000000
0.096725 0.778211 0.000000
0.130229 0.776980 0.000000
0.163842 0.775745 0.000000
0.197563 0.774506 0.000000
0.231393 0.773264 0.000000
0.265332 0.772017 0.000000
0.299380 0.770766 0.000000
0.333537 0.769511 0.000000
0.367803 0.768253 0.000000
0.402177 0.766990 0.000000
0.436661 0.765723 0.000000
0.471253 0.764452 0.000000
0.505954 0.763178 0.000000
0.540655 0.761903 0.000000
0.575247 0.760632 0.000000
0.609731 0.759365 0.000000
0.644105 0.758103 0.000000
0.678371 0.756844 0.000000
0.712528 0.755589 0.000000
0.746576 0.754338 0.000000
0.780515 0.753092 0.000000
0.814345 0.751849 0.000000
0.848067 0.750610 0.000000
0.881679 0.749375 0.000000
0.915183 0.748145 0.000000
0.948719 0.746913 0.000000
0.982778 0.745661 0.000000
1.000000 0.744410 0.000000
1.000000 0.743159 0.000000
0.000000 0.811974 0.000000
0.000000 0.810723 0.000000
0.025236 0.809472 0.000000
0.059294 0.808221 0.000000
0.092831 0.806989 0.000000
0.126334 0.805758 0.000000
0.159947 0.804524 0.000000
0.193668 0.803285 0.000000
0.227499 0.802042 0.000000
0.261438 0.800795 0.000000
0.295486 0.799545 0.000000
0.329643 0.798290 0.000000
0.363908 0.797031 0.000000
0.398283 0.795768 0.000000
0.432766 0.794502 0.000000
0.467358 0.793231 0.000000
0.502059 0.791956 0.000000
0.536761 0.790681 0.000000
0.571353 0.789411 0.000000
0.605836 0.788144 0.000000
0.640211 0.786881 0.000000
0.674476 0.785622 0.000000
0.708633 0.784368 0.000000
0.742681 0.783117 0.000000
0.776620 0.781870 0.000000
0.810450 0.780627 0.000000
0.844172 0.779389 0.000000
0.877784 0.778154 0.000000
