luts/portra.cube
# reordered to R-innermost (standard .cube)
LUT_3D_SIZE 5
0.079899 0.058637 0.032755
0.346154 0.047956 0.025451
0.616526 0.037110 0.018034
0.886897 0.026263 0.010617
1.000000 0.015582 0.003313
0.035701 0.287031 0.009791
0.301956 0.276350 0.002487
0.573282 0.265677 0.000000
0.847842 0.255591 0.000000
1.000000 0.245658 0.000000
0.000000 0.520010 0.000000
0.267011 0.510077 0.000000
0.541571 0.499991 0.000000
0.816132 0.489905 0.000000
1.000000 0.479973 0.000000
0.000000 0.754325 0.000000
0.235301 0.744392 0.000000
0.509861 0.734306 0.000000
0.784422 0.724220 0.000000
1.000000 0.714288 0.000000
0.000000 0.985072 0.000000
0.204073 0.975140 0.000000
0.478634 0.965054 0.000000
0.753195 0.954968 0.000000
1.000000 0.945035 0.000000
0.076062 0.055722 0.256060
0.342317 0.045040 0.248756
0.612688 0.034194 0.241339
0.883060 0.023348 0.233922
1.000000 0.012667 0.226618
0.031863 0.284115 0.233096
0.298118 0.273434 0.225792
0.570571 0.262966 0.217049
0.845131 0.252880 0.206963
1.000000 0.242947 0.197031
0.000000 0.517299 0.205357
0.264300 0.507366 0.195425
0.538860 0.497280 0.185339
0.813421 0.487194 0.175253
1.000000 0.477262 0.165320
0.000000 0.751614 0.173647
0.232589 0.741681 0.163715
0.507150 0.731595 0.153629
0.781711 0.721509 0.143543
1.000000 0.711577 0.133610
0.000000 0.982361 0.142420
0.201362 0.972429 0.132487
0.475923 0.962343 0.122401
0.750484 0.952257 0.112315
1.000000 0.942324 0.102383
0.072165 0.052761 0.482817
0.338421 0.042080 0.475513
0.608792 0.031234 0.468096
0.879163 0.020387 0.460679
1.000000 0.009706 0.453375
0.027967 0.281155 0.459853
0.294222 0.270474 0.452549
0.567818 0.260213 0.443078
0.842378 0.250127 0.432992
1.000000 0.240194 0.423059
0.000000 0.514546 0.431386
0.261547 0.504613 0.421453
0.536107 0.494527 0.411367
0.810668 0.484441 0.401281
1.000000 0.474509 0.391349
0.000000 0.748861 0.399676
0.229836 0.738928 0.389743
0.504397 0.728842 0.379657
0.778958 0.718756 0.369571
1.000000 0.708824 0.359639
0.000000 0.979608 0.368448
0.198609 0.969676 0.358516
0.473170 0.959590 0.348430
0.747731 0.949504 0.338344
1.000000 0.939571 0.328411
0.068269 0.049801 0.709574
0.334524 0.039119 0.702270
0.604895 0.028273 0.694853
0.875267 0.017427 0.687436
1.000000 0.006746 0.680132
0.024070 0.278194 0.686610
0.290504 0.267546 0.679192
0.565065 0.257460 0.669106
0.839625 0.247374 0.659020
1.000000 0.237441 0.649088
0.000000 0.511793 0.657414
0.258794 0.501860 0.647482
0.533354 0.491774 0.637396
0.807915 0.481688 0.627310
1.000000 0.471756 0.617377
0.000000 0.746108 0.625704
0.227083 0.736175 0.615772
0.501644 0.726089 0.605686
0.776205 0.716003 0.595600
1.000000 0.706071 0.585667
0.000000 0.976855 0.594477
0.195856 0.966923 0.584544
0.470417 0.956837 0.574458
0.744978 0.946751 0.564372
1.000000 0.936818 0.554440
0.064432 0.046885 0.932879
0.330687 0.036204 0.925574
0.601058 0.025358 0.918157
0.871429 0.014511 0.910740
1.000000 0.003982 0.902902
0.020233 0.275279 0.909915
0.287793 0.264834 0.901779
0.562353 0.254748 0.891693
0.836914 0.244662 0.881607
1.000000 0.234730 0.871675
0.000000 0.509082 0.880002
0.256083 0.499149 0.870069
0.530643 0.489063 0.859983
0.805204 0.478977 0.849897
1.000000 0.469045 0.839965
0.000000 0.743397 0.848292
0.224372 0.733464 0.838359
0.498933 0.723378 0.828273
0.773494 0.713292 0.818187
1.000000 0.703360 0.808255
0.000000 0.974144 0.817064
0.193145 0.964212 0.807132
0.467706 0.954126 0.797046
0.742266 0.944040 0.786960
1.000000 0.934107 0.777027
