luts/portra.cube
# reordered to R-innermost (standard .cube)
LUT_3D_SIZE 9
0.079899 0.058637 0.032755
0.213541 0.053276 0.029089
0.346154 0.047956 0.025451
0.480482 0.042567 0.021766
0.616526 0.037110 0.018034
0.752569 0.031652 0.014302
0.886897 0.026263 0.010617
1.000000 0.020944 0.006979
1.000000 0.015582 0.003313
0.057714 0.173275 0.021229
0.191357 0.167914 0.017562
0.323970 0.162594 0.013924
0.458298 0.157205 0.010239
0.594341 0.151748 0.006507
0.730384 0.146290 0.002775
0.864712 0.140902 0.000000
0.998064 0.135716 0.000000
1.000000 0.130730 0.000000
0.035701 0.287031 0.009791
0.169343 0.281670 0.006125
0.301956 0.276350 0.002487
0.436284 0.270961 0.000000
0.573282 0.265677 0.000000
0.711433 0.260602 0.000000
0.847842 0.255591 0.000000
0.982510 0.250644 0.000000
1.000000 0.245658 0.000000
0.013402 0.402257 0.000000
0.148298 0.397124 0.000000
0.282966 0.392177 0.000000
0.419376 0.387166 0.000000
0.557527 0.382091 0.000000
0.695678 0.377016 0.000000
0.832088 0.372005 0.000000
0.966756 0.367058 0.000000
1.000000 0.362072 0.000000
0.000000 0.520010 0.000000
0.132343 0.515024 0.000000
0.267011 0.510077 0.000000
0.403420 0.505066 0.000000
0.541571 0.499991 0.000000
0.679723 0.494916 0.000000
0.816132 0.489905 0.000000
0.950800 0.484958 0.000000
1.000000 0.479973 0.000000
0.000000 0.637910 0.000000
0.116387 0.632925 0.000000
0.251055 0.627978 0.000000
0.387465 0.622967 0.000000
0.525616 0.617892 0.000000
0.663767 0.612817 0.000000
0.800177 0.607806 0.000000
0.934844 0.602859 0.000000
1.000000 0.597874 0.000000
0.000000 0.754325 0.000000
0.100633 0.749339 0.000000
0.235301 0.744392 0.000000
0.371710 0.739381 0.000000
0.509861 0.734306 0.000000
0.648012 0.729231 0.000000
0.784422 0.724220 0.000000
0.919090 0.719273 0.000000
1.000000 0.714288 0.000000
0.000000 0.869253 0.000000
0.085079 0.864267 0.000000
0.219747 0.859320 0.000000
0.356157 0.854309 0.000000
0.494308 0.849234 0.000000
0.632459 0.844159 0.000000
0.768869 0.839148 0.000000
0.903537 0.834201 0.000000
1.000000 0.829216 0.000000
0.000000 0.985072 0.000000
0.069405 0.980087 0.000000
0.204073 0.975140 0.000000
0.340483 0.970129 0.000000
0.478634 0.965054 0.000000
0.616785 0.959979 0.000000
0.753195 0.954968 0.000000
0.887863 0.950021 0.000000
1.000000 0.945035 0.000000
0.077973 0.057174 0.144839
0.211615 0.051812 0.141173
0.344228 0.046493 0.137535
0.478556 0.041104 0.133850
0.614600 0.035646 0.130118
0.750643 0.030189 0.126386
0.884971 0.024800 0.122701
1.000000 0.019480 0.119063
1.000000 0.014119 0.115397
0.055788 0.171812 0.133312
0.189431 0.166451 0.129646
0.322044 0.161131 0.126008
0.456372 0.155742 0.122323
0.592415 0.150285 0.118591
0.728458 0.144827 0.114859
0.862786 0.139438 0.111174
0.996703 0.134355 0.106706
1.000000 0.129370 0.101720
0.033775 0.285567 0.121875
0.167417 0.280206 0.118209
0.300030 0.274886 0.114571
0.434358 0.269498 0.110886
0.571921 0.264316 0.106185
0.710072 0.259241 0.101111
0.846482 0.254230 0.096100
0.981150 0.249283 0.091152
1.000000 0.244297 0.086167
0.011476 0.400794 0.110289
0.146938 0.395763 0.105464
0.281606 0.390816 0.100517
0.418015 0.385805 0.095506
0.556166 0.380730 0.090431
0.694318 0.375655 0.085356
0.830727 0.370644 0.080345
0.965395 0.365697 0.075398
1.000000 0.360712 0.070413
0.000000 0.518649 0.094494
0.130982 0.513664 0.089508
0.265650 0.508717 0.084561
0.402059 0.503706 0.079550
0.540211 0.498631 0.074475
0.678362 0.493556 0.069400
0.814771 0.488545 0.064389
0.949439 0.483598 0.059442
1.000000 0.478612 0.054457
0.000000 0.636550 0.078538
0.115026 0.631564 0.073553
0.249694 0.626617 0.068606
0.386104 0.621606 0.063595
0.524255 0.616531 0.058520
0.662406 0.611456 0.053445
0.798816 0.606445 0.048434
0.933484 0.601498 0.043487
1.000000 0.596513 0.038501
0.000000 0.752964 0.062784
0.099272 0.747979 0.057798
0.233940 0.743031 0.052851
0.370349 0.738020 0.047840
0.508501 0.732946 0.042765
0.646652 0.727871 0.037690
0.783061 0.722860 0.032679
0.917729 0.717912 0.027732
1.000000 0.712927 0.022747
0.000000 0.867892 0.047230
0.083718 0.862906 0.042245
0.218386 0.857959 0.037298
0.354796 0.852948 0.032287
0.492947 0.847873 0.027212
0.631098 0.842798 0.022137
0.767508 0.837787 0.017126
0.902176 0.832840 0.012179
1.000000 0.827855 0.007193
0.000000 0.983712 0.031556
0.068044 0.978726 0.026571
0.202712 0.973779 0.021624
0.339122 0.968768 0.016613
0.477273 0.963693 0.011538
0.615424 0.958618 0.006463
0.751834 0.953607 0.001452
0.886502 0.948660 0.000000
1.000000 0.943675 0.000000
0.076062 0.055722 0.256060
0.209704 0.050360 0.252394
0.342317 0.045040 0.248756
0.476645 0.039652 0.245071
0.612688 0.034194 0.241339
0.748732 0.028737 0.237607
0.883060 0.023348 0.233922
1.000000 0.018028 0.230284
1.000000 0.012667 0.226618
0.053877 0.170360 0.244533
0.187519 0.164999 0.240867
0.320132 0.159679 0.237229
0.454460 0.154290 0.233544
0.590504 0.148832 0.229812
0.726547 0.143375 0.226080
0.860875 0.137986 0.222395
0.995353 0.133005 0.217569
1.000000 0.128019 0.212584
0.031863 0.284115 0.233096
0.165505 0.278754 0.229430
0.298118 0.273434 0.225792
0.432447 0.268045 0.222107
0.570571 0.262966 0.217049
0.708722 0.257891 0.211974
0.845131 0.252880 0.206963
0.979799 0.247933 0.202016
1.000000 0.242947 0.197031
0.009874 0.399398 0.221313
0.145587 0.394413 0.216328
0.280255 0.389466 0.211381
0.416665 0.384455 0.206370
0.554816 0.379380 0.201295
0.692967 0.374305 0.196220
0.829377 0.369294 0.191209
0.964045 0.364347 0.186262
1.000000 0.359361 0.181276
0.000000 0.517299 0.205357
0.129632 0.512313 0.200372
0.264300 0.507366 0.195425
0.400709 0.502355 0.190414
0.538860 0.497280 0.185339
0.677012 0.492205 0.180264
0.813421 0.487194 0.175253
0.948089 0.482247 0.170306
1.000000 0.477262 0.165320
0.000000 0.635199 0.189402
0.113676 0.630214 0.184416
0.248344 0.625267 0.179469
0.384754 0.620256 0.174458
0.522905 0.615181 0.169383
0.661056 0.610106 0.164308
0.797465 0.605095 0.159297
0.932133 0.600148 0.154350
1.000000 0.595163 0.149365
0.000000 0.751614 0.173647
0.097922 0.746628 0.168662
0.232589 0.741681 0.163715
0.368999 0.736670 0.158704
0.507150 0.731595 0.153629
0.645301 0.726520 0.148554
0.781711 0.721509 0.143543
0.916379 0.716562 0.138596
1.000000 0.711577 0.133610
0.000000 0.866541 0.158094
0.082368 0.861556 0.153108
0.217036 0.856609 0.148161
0.353446 0.851598 0.143150
0.491597 0.846523 0.138075
0.629748 0.841448 0.133000
0.766158 0.836437 0.127989
0.900826 0.831490 0.123042
1.000000 0.826505 0.118057
0.000000 0.982361 0.142420
0.066694 0.977376 0.137434
0.201362 0.972429 0.132487
0.337772 0.967418 0.127476
0.475923 0.962343 0.122401
0.614074 0.957268 0.117326
0.750484 0.952257 0.112315
0.885151 0.947310 0.107368
1.000000 0.942324 0.102383
0.074126 0.054251 0.368719
0.207768 0.048890 0.365053
0.340381 0.043570 0.361415
0.474709 0.038181 0.357730
0.610752 0.032723 0.353998
0.746796 0.027266 0.350266
0.881124 0.021877 0.346581
1.000000 0.016557 0.342943
1.000000 0.011196 0.339277
0.051941 0.168889 0.357193
0.185583 0.163528 0.353526
0.318196 0.158208 0.349889
0.452525 0.152819 0.346204
0.588568 0.147362 0.342472
0.724611 0.141904 0.338740
0.859317 0.136584 0.334814
0.993985 0.131637 0.329867
1.000000 0.126651 0.324881
0.029927 0.282644 0.345755
0.163570 0.277283 0.342089
0.296183 0.271963 0.338451
0.431052 0.266673 0.334421
0.569203 0.261598 0.329346
0.707354 0.256523 0.324271
0.843764 0.251512 0.319260
0.978431 0.246565 0.314313
1.000000 0.241579 0.309328
0.008507 0.398030 0.333610
0.144220 0.393045 0.328625
0.278888 0.388098 0.323678
0.415297 0.383087 0.318667
0.553448 0.378012 0.313592
0.691599 0.372937 0.308517
0.828009 0.367926 0.303506
0.962677 0.362979 0.298559
1.000000 0.357994 0.293573
0.000000 0.515931 0.317655
0.128264 0.510946 0.312669
0.262932 0.505999 0.307722
0.399341 0.500988 0.302711
0.537493 0.495913 0.297636
0.675644 0.490838 0.292561
0.812053 0.485827 0.287550
0.946721 0.480880 0.282603
1.000000 0.475894 0.277618
0.000000 0.633832 0.301699
0.112308 0.628846 0.296714
0.246976 0.623899 0.291767
0.383386 0.618888 0.286756
0.521537 0.613813 0.281681
0.659688 0.608738 0.276606
0.796098 0.603727 0.271595
0.930766 0.598780 0.266648
1.000000 0.593795 0.261662
0.000000 0.750246 0.285944
0.096554 0.745260 0.280959
0.231222 0.740313 0.276012
0.367631 0.735302 0.271001
0.505782 0.730227 0.265926
0.643934 0.725152 0.260851
0.780343 0.720141 0.255840
0.915011 0.715194 0.250893
1.000000 0.710209 0.245908
0.000000 0.865174 0.270391
0.081000 0.860188 0.265406
0.215668 0.855241 0.260459
0.352078 0.850230 0.255448
0.490229 0.845155 0.250373
0.628380 0.840080 0.245298
0.764790 0.835069 0.240287
0.899458 0.830122 0.235340
1.000000 0.825137 0.230354
0.000000 0.980993 0.254717
0.065326 0.976008 0.249732
0.199994 0.971061 0.244785
0.336404 0.966050 0.239774
0.474555 0.960975 0.234699
0.612706 0.955900 0.229624
0.749116 0.950889 0.224613
0.883784 0.945942 0.219666
1.000000 0.940957 0.214680
0.072165 0.052761 0.482817
0.205807 0.047400 0.479151
0.338421 0.042080 0.475513
0.472749 0.036691 0.471828
0.608792 0.031234 0.468096
0.744835 0.025776 0.464364
0.879163 0.020387 0.460679
1.000000 0.015068 0.457041
1.000000 0.009706 0.453375
0.049981 0.167399 0.471290
0.183623 0.162038 0.467624
0.316236 0.156718 0.463986
0.450564 0.151329 0.460301
0.586607 0.145872 0.456569
0.722650 0.140414 0.452837
0.857932 0.135199 0.448545
0.992600 0.130252 0.443598
1.000000 0.125266 0.438613
0.027967 0.281155 0.459853
0.161609 0.275794 0.456187
0.294222 0.270474 0.452549
0.429666 0.265288 0.448153
0.567818 0.260213 0.443078
0.705969 0.255138 0.438003
0.842378 0.250127 0.432992
0.977046 0.245180 0.428045
1.000000 0.240194 0.423059
0.007121 0.396645 0.447341
0.142834 0.391660 0.442356
0.277502 0.386713 0.437409
0.413912 0.381702 0.432398
0.552063 0.376627 0.427323
0.690214 0.371552 0.422248
0.826624 0.366541 0.417237
0.961292 0.361594 0.412290
1.000000 0.356608 0.407305
0.000000 0.514546 0.431386
0.126879 0.509560 0.426400
0.261547 0.504613 0.421453
0.397956 0.499602 0.416442
0.536107 0.494527 0.411367
0.674259 0.489452 0.406292
0.810668 0.484441 0.401281
0.945336 0.479494 0.396334
1.000000 0.474509 0.391349
0.000000 0.632446 0.415430
0.110923 0.627461 0.410445
0.245591 0.622514 0.405498
0.382001 0.617503 0.400487
0.520152 0.612428 0.395412
0.658303 0.607353 0.390337
0.794712 0.602342 0.385326
0.929380 0.597395 0.380379
1.000000 0.592410 0.375393
0.000000 0.748861 0.399676
0.095169 0.743875 0.394690
0.229836 0.738928 0.389743
0.366246 0.733917 0.384732
0.504397 0.728842 0.379657
0.642548 0.723767 0.374582
0.778958 0.718756 0.369571
0.913626 0.713809 0.364624
1.000000 0.708824 0.359639
0.000000 0.863788 0.384122
0.079615 0.858803 0.379137
0.214283 0.853856 0.374190
0.350693 0.848845 0.369179
0.488844 0.843770 0.364104
0.626995 0.838695 0.359029
0.763405 0.833684 0.354018
0.898073 0.828737 0.349071
1.000000 0.823752 0.344085
0.000000 0.979608 0.368448
0.063941 0.974623 0.363463
0.198609 0.969676 0.358516
0.335019 0.964665 0.353505
0.473170 0.959590 0.348430
0.611321 0.954515 0.343355
0.747731 0.949504 0.338344
0.882398 0.944557 0.333397
1.000000 0.939571 0.328411
0.070205 0.051271 0.596914
0.203847 0.045910 0.593248
0.336460 0.040590 0.589610
0.470788 0.035202 0.585925
0.606831 0.029744 0.582193
0.742874 0.024287 0.578461
0.877202 0.018898 0.574776
1.000000 0.013578 0.571138
1.000000 0.008217 0.567472
0.048020 0.165910 0.585388
0.181662 0.160548 0.581722
0.314275 0.155229 0.578084
0.448603 0.149840 0.574399
0.584646 0.144382 0.570667
0.720690 0.138925 0.566935
0.856546 0.133813 0.562276
0.991214 0.128866 0.557329
1.000000 0.123881 0.552344
0.026006 0.279665 0.573950
0.159648 0.274304 0.570284
0.292261 0.268984 0.566646
0.428281 0.263902 0.561884
0.566432 0.258827 0.556809
0.704584 0.253752 0.551734
0.840993 0.248741 0.546723
0.975661 0.243794 0.541776
1.000000 0.238809 0.536790
0.005736 0.395260 0.561073
0.141449 0.390275 0.556087
0.276117 0.385328 0.551140
0.412527 0.380317 0.546129
0.550678 0.375242 0.541054
0.688829 0.370167 0.535979
0.825239 0.365156 0.530968
0.959906 0.360209 0.526021
1.000000 0.355223 0.521036
0.000000 0.513161 0.545117
0.125493 0.508175 0.540132
0.260161 0.503228 0.535184
0.396571 0.498217 0.530173
0.534722 0.493142 0.525099
0.672873 0.488067 0.520024
0.809283 0.483056 0.515013
0.943951 0.478109 0.510066
1.000000 0.473124 0.505080
0.000000 0.631061 0.529161
0.109538 0.626076 0.524176
0.244206 0.621129 0.519229
0.380615 0.616118 0.514218
0.518766 0.611043 0.509143
0.656918 0.605968 0.504068
0.793327 0.600957 0.499057
0.927995 0.596010 0.494110
1.000000 0.591024 0.489124
0.000000 0.747475 0.513407
0.093783 0.742490 0.508421
0.228451 0.737543 0.503474
0.364861 0.732532 0.498463
0.503012 0.727457 0.493388
0.641163 0.722382 0.488313
0.777573 0.717371 0.483302
0.912241 0.712424 0.478355
1.000000 0.707439 0.473370
0.000000 0.862403 0.497853
0.078230 0.857418 0.492868
0.212898 0.852471 0.487921
0.349307 0.847460 0.482910
0.487459 0.842385 0.477835
0.625610 0.837310 0.472760
0.762019 0.832299 0.467749
0.896687 0.827352 0.462802
1.000000 0.822366 0.457817
0.000000 0.978223 0.482179
0.062556 0.973238 0.477194
0.197224 0.968291 0.472247
0.333633 0.963280 0.467236
0.471785 0.958205 0.462161
0.609936 0.953130 0.457086
0.746345 0.948119 0.452075
0.881013 0.943172 0.447128
1.000000 0.938186 0.442142
0.068269 0.049801 0.709574
0.201911 0.044439 0.705908
0.334524 0.039119 0.702270
0.468852 0.033731 0.698585
0.604895 0.028273 0.694853
0.740938 0.022816 0.691121
0.875267 0.017427 0.687436
1.000000 0.012107 0.683798
1.000000 0.006746 0.680132
0.046084 0.164439 0.698047
0.179726 0.159078 0.694381
0.312339 0.153758 0.690743
0.446667 0.148369 0.687058
0.582711 0.142911 0.683326
0.718769 0.137457 0.679584
0.855179 0.132446 0.674573
0.989847 0.127499 0.669626
1.000000 0.122513 0.664641
0.024070 0.278194 0.686610
0.157712 0.272833 0.682944
0.290504 0.267546 0.679192
0.426913 0.262535 0.674181
0.565065 0.257460 0.669106
0.703216 0.252385 0.664031
0.839625 0.247374 0.659020
0.974293 0.242427 0.654073
1.000000 0.237441 0.649088
0.004368 0.393892 0.673370
0.140081 0.388907 0.668385
0.274749 0.383960 0.663438
0.411159 0.378949 0.658427
0.549310 0.373874 0.653352
0.687461 0.368799 0.648277
0.823871 0.363788 0.643266
0.958539 0.358841 0.638319
1.000000 0.353855 0.633333
0.000000 0.511793 0.657414
0.124126 0.506807 0.652429
0.258794 0.501860 0.647482
0.395203 0.496849 0.642471
0.533354 0.491774 0.637396
0.671506 0.486699 0.632321
0.807915 0.481688 0.627310
0.942583 0.476741 0.622363
1.000000 0.471756 0.617377
0.000000 0.629693 0.641459
0.108170 0.624708 0.636473
0.242838 0.619761 0.631526
0.379247 0.614750 0.626515
0.517399 0.609675 0.621440
0.655550 0.604600 0.616365
0.791959 0.599589 0.611354
0.926627 0.594642 0.606407
1.000000 0.589657 0.601422
0.000000 0.746108 0.625704
0.092416 0.741122 0.620719
0.227083 0.736175 0.615772
0.363493 0.731164 0.610761
0.501644 0.726089 0.605686
0.639795 0.721014 0.600611
0.776205 0.716003 0.595600
0.910873 0.711056 0.590653
1.000000 0.706071 0.585667
0.000000 0.861035 0.610151
0.076862 0.856050 0.605165
0.211530 0.851103 0.600218
0.347940 0.846092 0.595207
0.486091 0.841017 0.590132
0.624242 0.835942 0.585057
0.760652 0.830931 0.580046
0.895320 0.825984 0.575099
1.000000 0.820999 0.570114
0.000000 0.976855 0.594477
0.061188 0.971870 0.589491
0.195856 0.966923 0.584544
0.332266 0.961912 0.579533
0.470417 0.956837 0.574458
0.608568 0.951762 0.569383
0.744978 0.946751 0.564372
0.879645 0.941804 0.559425
1.000000 0.936818 0.554440
0.066358 0.048348 0.820795
0.200000 0.042987 0.817128
0.332613 0.037667 0.813491
0.466941 0.032279 0.809806
0.602984 0.026821 0.806074
0.739027 0.021364 0.802341
0.873355 0.015975 0.798656
1.000000 0.010655 0.795019
1.000000 0.005343 0.791179
0.044173 0.162987 0.809268
0.177815 0.157625 0.805602
0.310428 0.152306 0.801964
0.444756 0.146917 0.798279
0.580799 0.141459 0.794547
0.717419 0.136106 0.790448
0.853828 0.131095 0.785437
0.988496 0.126148 0.780490
1.000000 0.121163 0.775505
0.022159 0.276742 0.797831
0.155801 0.271381 0.794164
0.289153 0.266195 0.790056
0.425563 0.261184 0.785045
0.563714 0.256109 0.779970
0.701865 0.251034 0.774895
0.838275 0.246023 0.769884
0.972943 0.241076 0.764937
1.000000 0.236091 0.759951
0.003018 0.392542 0.784234
0.138731 0.387556 0.779248
0.273399 0.382609 0.774301
0.409809 0.377598 0.769290
0.547960 0.372523 0.764215
0.686111 0.367448 0.759140
0.822520 0.362437 0.754129
0.957188 0.357490 0.749182
1.000000 0.352505 0.744197
0.000000 0.510442 0.768278
0.122775 0.505457 0.763292
0.257443 0.500510 0.758345
0.393853 0.495499 0.753334
0.532004 0.490424 0.748259
0.670155 0.485349 0.743184
0.806565 0.480338 0.738173
0.941233 0.475391 0.733226
1.000000 0.470406 0.728241
0.000000 0.628343 0.752322
0.106820 0.623358 0.747337
0.241488 0.618411 0.742390
0.377897 0.613400 0.737379
0.516048 0.608325 0.732304
0.654200 0.603250 0.727229
0.790609 0.598239 0.722218
0.925277 0.593292 0.717271
1.000000 0.588306 0.712285
0.000000 0.744757 0.736568
0.091065 0.739772 0.731582
0.225733 0.734825 0.726635
0.362143 0.729814 0.721624
0.500294 0.724739 0.716549
0.638445 0.719664 0.711474
0.774855 0.714653 0.706463
0.909523 0.709706 0.701516
1.000000 0.704720 0.696531
0.000000 0.859685 0.721014
0.075512 0.854700 0.716029
0.210180 0.849753 0.711082
0.346589 0.844742 0.706071
0.484741 0.839667 0.700996
0.622892 0.834592 0.695921
0.759301 0.829581 0.690910
0.893969 0.824634 0.685963
1.000000 0.819648 0.680977
0.000000 0.975505 0.705340
0.059838 0.970519 0.700355
0.194506 0.965572 0.695408
0.330915 0.960561 0.690397
0.469066 0.955486 0.685322
0.607218 0.950411 0.680247
0.743627 0.945400 0.675236
0.878295 0.940453 0.670289
1.000000 0.935468 0.665303
0.064432 0.046885 0.932879
0.198074 0.041524 0.929212
0.330687 0.036204 0.925574
0.465015 0.030815 0.921889
0.601058 0.025358 0.918157
0.737101 0.019900 0.914425
0.871429 0.014511 0.910740
1.000000 0.009192 0.907103
1.000000 0.003982 0.902902
0.042247 0.161523 0.921352
0.175889 0.156162 0.917686
0.308502 0.150842 0.914048
0.442830 0.145453 0.910363
0.578873 0.139996 0.906631
0.716058 0.134746 0.902172
0.852468 0.129735 0.897161
0.987136 0.124788 0.892214
1.000000 0.119802 0.887228
0.020233 0.275279 0.909915
0.153875 0.269918 0.906248
0.287793 0.264834 0.901779
0.424202 0.259823 0.896768
0.562353 0.254748 0.891693
0.700505 0.249673 0.886618
0.836914 0.244662 0.881607
0.971582 0.239715 0.876660
1.000000 0.234730 0.871675
0.001657 0.391181 0.895957
0.137370 0.386196 0.890972
0.272038 0.381249 0.886025
0.408448 0.376238 0.881014
0.546599 0.371163 0.875939
0.684750 0.366088 0.870864
0.821160 0.361077 0.865853
0.955828 0.356130 0.860906
1.000000 0.351144 0.855921
0.000000 0.509082 0.880002
0.121415 0.504096 0.875016
0.256083 0.499149 0.870069
0.392492 0.494138 0.865058
0.530643 0.489063 0.859983
0.668794 0.483988 0.854908
0.805204 0.478977 0.849897
0.939872 0.474030 0.844950
1.000000 0.469045 0.839965
0.000000 0.626982 0.864046
0.105459 0.621997 0.859061
0.240127 0.617050 0.854114
0.376536 0.612039 0.849103
0.514688 0.606964 0.844028
0.652839 0.601889 0.838953
0.789248 0.596878 0.833942
0.923916 0.591931 0.828995
1.000000 0.586945 0.824009
0.000000 0.743397 0.848292
0.089704 0.738411 0.843306
0.224372 0.733464 0.838359
0.360782 0.728453 0.833348
0.498933 0.723378 0.828273
0.637084 0.718303 0.823198
0.773494 0.713292 0.818187
0.908162 0.708345 0.813240
1.000000 0.703360 0.808255
0.000000 0.858324 0.832738
0.074151 0.853339 0.827753
0.208819 0.848392 0.822806
0.345229 0.843381 0.817795
0.483380 0.838306 0.812720
0.621531 0.833231 0.807645
0.757940 0.828220 0.802634
0.892608 0.823273 0.797687
1.000000 0.818288 0.792701
0.000000 0.974144 0.817064
0.058477 0.969159 0.812079
0.193145 0.964212 0.807132
0.329554 0.959201 0.802121
0.467706 0.954126 0.797046
0.605857 0.949051 0.791971
0.742266 0.944040 0.786960
0.876934 0.939093 0.782013
1.000000 0.934107 0.777027
