luts/rikka.cube
TITLE "Generated by Resolve"
LUT_3D_SIZE 5
1.5259e-05 0 0.00015259
0.0646372 0 0.000167849
0.28333 0 1.5259e-05
0.0149386 0.0010071 0.00154116
0.0149386 0.0010071 0.00154116
1.5259e-05 0.014435 0.0012665
0.00195315 0.000869764 0.00030518
0.269459 0 1.5259e-05
0.0149386 0.0010071 0.00154116
0.0149386 0.0010071 0.00154116
0 0.347723 0.0357977
0 0.305669 0.0157321
0.305486 0.254475 6.10361e-05
0.138766 6.10361e-05 0.000122072
0.0149386 0.0010071 0.00154116
0.0183719 0.809552 0.659495
0.00471504 0.77438 0.60032
0.00157168 0.738903 0.539239
0.862776 0.829068 0.323583
0.0149386 0.0010071 0.00154116
0.726375 0.926833 0.889601
0.69752 0.926802 0.884077
0.671275 0.926497 0.878294
0.646586 0.92604 0.872068
0.970001 0.977356 0.793606
0 0.000762951 0.043595
0.0290684 0 0.0133822
0.403113 0 0.00178531
0.0149386 0.0010071 0.00154116
0.0149386 0.0010071 0.00154116
1.5259e-05 0.0180667 0.0418708
0.00244144 0.00717174 0.0157015
0.420737 0 0.000808728
0.0149386 0.0010071 0.00154116
0.0149386 0.0010071 0.00154116
0 0.36286 0.187366
1.5259e-05 0.315038 0.145434
0.355871 0.314733 0.0120241
0.356588 0.000122072 0.000183108
0.0149386 0.0010071 0.00154116
0.0133364 0.799786 0.653727
0.00376898 0.76527 0.59823
0.00129702 0.72932 0.541207
0.856443 0.82211 0.340658
0.0149386 0.0010071 0.00154116
0.718013 0.926833 0.888014
0.689723 0.926772 0.882506
0.663905 0.926406 0.876509
0.639536 0.925841 0.870024
0.969894 0.977295 0.787472
0.148867 0.513008 0.793362
0.234409 0.463462 0.771466
0.800137 0.35964 0.73695
0.314214 0.00198367 0.0291142
0.0149386 0.0010071 0.00154116
0.00047303 0.296376 0.596048
0.0470588 0.299641 0.61355
0.650828 0.249058 0.575387
0.318273 0.0012665 0.0161135
0.0149386 0.0010071 0.00154116
0 0.385946 0.473152
7.62951e-05 0.387381 0.47129
0.425269 0.445609 0.481819
0.899565 0.0836805 0.196582
0.0149386 0.0010071 0.00154116
0.0171969 0.796368 0.686137
0.00463874 0.760815 0.637186
0.00166323 0.724422 0.586938
0.853635 0.820752 0.433158
0.521218 0.00526436 0.00677501
0.712886 0.926848 0.887037
0.685222 0.92668 0.881453
0.660014 0.926314 0.875563
0.636347 0.92575 0.869078
0.969879 0.977295 0.78613
0.842329 0.966873 0.954467
0.826047 0.948592 0.953582
0.865507 0.934157 0.952377
0.978531 0.88661 0.956069
0.074815 0.0201724 0.0825666
0.748318 0.909712 0.95378
0.721874 0.891218 0.954314
0.767178 0.874159 0.95314
0.982391 0.821805 0.957977
0.148394 0.0131685 0.0918441
0.596506 0.856672 0.958511
0.547753 0.826825 0.944183
0.611475 0.80058 0.929213
0.95407 0.739467 0.911009
0.246006 0.00550851 0.0674601
0.324529 0.833143 0.838285
0.198489 0.800244 0.813565
0.266697 0.85684 0.860319
0.866712 0.855909 0.85034
0.986679 0.578592 0.774777
0.765164 0.926238 0.895949
0.732967 0.926772 0.890791
0.704494 0.926818 0.88539
0.678004 0.926635 0.879866
0.970565 0.977691 0.82034
0.979889 0.980835 0.963943
0.979889 0.980835 0.963943
0.979889 0.980835 0.963943
0.979889 0.980835 0.963943
0.979889 0.980835 0.963943
0.979889 0.980835 0.963943
0.979889 0.980835 0.963943
0.979889 0.980835 0.963943
0.979889 0.980835 0.963943
0.979889 0.980835 0.963943
0.979889 0.980835 0.963943
0.980591 0.980209 0.963226
0.95729 0.978973 0.960204
0.979889 0.980835 0.963943
0.979889 0.980835 0.963943
0.913191 0.977661 0.959518
0.890547 0.976852 0.958999
0.872328 0.976272 0.958755
0.90692 0.977432 0.95935
0.976852 0.952148 0.957443
0.862379 0.921935 0.904738
0.862379 0.921935 0.904738
0.862379 0.921935 0.904738
0.734707 0.974044 0.959274
0.979889 0.980835 0.963943
