luts/rikka.cube
TITLE "Generated by Resolve"
LUT_3D_SIZE 9
1.5259e-05 0 0.00015259
0.00224308 1.5259e-05 0.000167849
0.0646372 0 0.000167849
0.221103 0 6.10361e-05
0.28333 0 1.5259e-05
0.128038 7.62951e-05 0.000137331
0.0149386 0.0010071 0.00154116
0.0149386 0.0010071 0.00154116
0.0149386 0.0010071 0.00154116
1.5259e-05 0.000411994 0.000381476
0.000106813 4.57771e-05 0.000228885
0.027451 0 0.000198367
0.183719 0 9.15541e-05
0.281758 0 1.5259e-05
0.202625 0 4.57771e-05
0.0149386 0.0010071 0.00154116
0.0149386 0.0010071 0.00154116
0.0149386 0.0010071 0.00154116
1.5259e-05 0.014435 0.0012665
0 0.00862135 0.00111391
0.00195315 0.000869764 0.00030518
0.147448 9.15541e-05 3.0518e-05
0.269459 0 1.5259e-05
0.248264 0 3.0518e-05
0.0149386 0.0010071 0.00154116
0.0149386 0.0010071 0.00154116
0.0149386 0.0010071 0.00154116
1.5259e-05 0.145495 0.00477607
1.5259e-05 0.125765 0.00425727
4.57771e-05 0.103944 0.00233463
0.0482032 0.0396735 0.000198367
0.385489 0.017258 0
0.273976 0 3.0518e-05
0.0370489 0.000488289 0.000686656
0.0149386 0.0010071 0.00154116
0.0149386 0.0010071 0.00154116
0 0.347723 0.0357977
0 0.325216 0.0243381
0 0.305669 0.0157321
0.00680552 0.292851 0.00221256
0.305486 0.254475 6.10361e-05
0.674327 0.212116 1.5259e-05
0.138766 6.10361e-05 0.000122072
0.0149386 0.0010071 0.00154116
0.0149386 0.0010071 0.00154116
3.0518e-05 0.610147 0.33576
1.5259e-05 0.587213 0.305394
1.5259e-05 0.562936 0.27425
0 0.538216 0.243992
0.140642 0.636805 0.122255
0.667262 0.604425 0.0263523
0.892515 0.550042 0.0167086
0.0149386 0.0010071 0.00154116
0.0149386 0.0010071 0.00154116
0.0183719 0.809552 0.659495
0.0087892 0.791592 0.630198
0.00471504 0.77438 0.60032
0.00271611 0.75697 0.570321
0.00157168 0.738903 0.539239
0.479362 0.850401 0.431952
0.862776 0.829068 0.323583
0.988251 0.805402 0.417945
0.0149386 0.0010071 0.00154116
0.597772 0.924422 0.855985
0.587808 0.92398 0.852033
0.578515 0.923522 0.848142
0.569802 0.922988 0.844144
0.561425 0.922515 0.84007
0.45417 0.911131 0.819287
0.766445 0.961028 0.689677
0.965148 0.946929 0.618143
0.984146 0.915557 0.602777
0.726375 0.926833 0.889601
0.711681 0.926818 0.886763
0.69752 0.926802 0.884077
0.684062 0.926711 0.881209
0.671275 0.926497 0.878294
0.658778 0.926299 0.875303
0.646586 0.92604 0.872068
0.903075 0.972122 0.819654
0.970001 0.977356 0.793606
1.5259e-05 3.0518e-05 0.00360113
0.00103761 3.0518e-05 0.00178531
0.0539254 1.5259e-05 0.000549325
0.257282 0 0.000167849
0.345144 0 6.10361e-05
0.136416 6.10361e-05 0.000122072
0.0149386 0.0010071 0.00154116
0.0149386 0.0010071 0.00154116
0.0149386 0.0010071 0.00154116
1.5259e-05 0.000595102 0.00213626
4.57771e-05 0.000183108 0.000915541
0.0257267 4.57771e-05 0.000274662
0.228489 0 0.000106813
0.33077 0 6.10361e-05
0.20798 0 4.57771e-05
0.0149386 0.0010071 0.00154116
0.0149386 0.0010071 0.00154116
0.0149386 0.0010071 0.00154116
3.0518e-05 0.0143893 0.00395209
0 0.00924697 0.00207523
0.00196841 0.00259403 0.00015259
0.174746 0.000488289 0
0.33846 0 3.0518e-05
0.251728 0 3.0518e-05
0.0149386 0.0010071 0.00154116
0.0149386 0.0010071 0.00154116
0.0149386 0.0010071 0.00154116
6.10361e-05 0.134005 0.0235599
6.10361e-05 0.114565 0.014847
3.0518e-05 0.12639 0.00302129
0.052781 0.0489662 4.57771e-05
0.417151 0.0213931 0
0.317922 0 1.5259e-05
0.0468147 0.000381476 0.000549325
0.0149386 0.0010071 0.00154116
0.0149386 0.0010071 0.00154116
0 0.361654 0.132464
1.5259e-05 0.334203 0.106279
3.0518e-05 0.304738 0.0802014
0.00738537 0.335592 0.0137026
0.324971 0.271153 0.000320439
0.686213 0.209628 1.5259e-05
0.157382 6.10361e-05 0.000106813
0.0149386 0.0010071 0.00154116
0.0149386 0.0010071 0.00154116
3.0518e-05 0.606714 0.356573
1.5259e-05 0.583551 0.324834
1.5259e-05 0.559274 0.291081
0 0.533333 0.252552
0.132219 0.626322 0.111986
0.657481 0.593423 0.0218509
0.886 0.538598 0.0133059
0.0149386 0.0010071 0.00154116
0.0149386 0.0010071 0.00154116
0.0148013 0.803967 0.651972
0.00714122 0.786053 0.620691
0.00392157 0.76878 0.590539
0.00227359 0.751049 0.560311
0.00131228 0.732815 0.529061
0.467735 0.845624 0.422141
0.858534 0.823957 0.312337
0.987823 0.801038 0.411261
0.0149386 0.0010071 0.00154116
0.594568 0.9243 0.854719
0.584741 0.923858 0.850797
0.575494 0.923354 0.846799
0.566903 0.92285 0.842847
0.55874 0.922332 0.838712
0.402258 0.905165 0.809216
0.758206 0.957458 0.681163
0.961654 0.943358 0.60824
0.98471 0.912016 0.596948
0.721599 0.926818 0.88867
0.707042 0.926833 0.885908
0.692988 0.926772 0.883177
0.679805 0.92665 0.880278
0.667002 0.926436 0.877287
0.65478 0.926207 0.874296
0.642695 0.925948 0.870924
0.899901 0.971939 0.816983
0.969955 0.977325 0.790494
0 0.000762951 0.043595
0.000244144 3.0518e-05 0.0284733
0.0290684 0 0.0133822
0.2318 1.5259e-05 0.00463874
0.403113 0 0.00178531
0.353765 1.5259e-05 0.000640879
0.0149386 0.0010071 0.00154116
0.0149386 0.0010071 0.00154116
0.0149386 0.0010071 0.00154116
0 0.00343328 0.0398871
1.5259e-05 0.0018616 0.0314031
0.0135195 0.000976577 0.0184176
0.242008 4.57771e-05 0.00410468
0.373098 0 0.00112917
0.380728 0 0.000366217
0.0149386 0.0010071 0.00154116
0.0149386 0.0010071 0.00154116
0.0149386 0.0010071 0.00154116
1.5259e-05 0.0180667 0.0418708
0 0.0121309 0.0312047
0.00244144 0.00717174 0.0157015
0.207492 0.00233463 0.00311284
0.420737 0 0.000808728
0.384192 0 0.000228885
0.0149386 0.0010071 0.00154116
0.0149386 0.0010071 0.00154116
0.0149386 0.0010071 0.00154116
3.0518e-05 0.145083 0.0885634
3.0518e-05 0.123751 0.0696117
0 0.113939 0.0373388
0.0751507 0.0813458 0.00610361
0.507774 0.0353399 0.000885023
0.483589 0 0.000228885
0.0568551 0.00030518 0.000442512
0.0149386 0.0010071 0.00154116
0.0149386 0.0010071 0.00154116
0 0.36286 0.187366
0 0.338781 0.165911
1.5259e-05 0.315038 0.145434
0.00476081 0.370428 0.0816815
0.355871 0.314733 0.0120241
0.772473 0.243305 0.00273136
0.356588 0.000122072 0.000183108
0.0149386 0.0010071 0.00154116
0.0149386 0.0010071 0.00154116
4.57771e-05 0.60296 0.379538
1.5259e-05 0.580407 0.35375
1.5259e-05 0.557336 0.328557
0 0.533639 0.303914
0.12224 0.645472 0.226032
0.668589 0.615747 0.0992752
0.920089 0.556298 0.0690929
0.0388647 0.00169375 0.00189212
0.0149386 0.0010071 0.00154116
0.0133364 0.799786 0.653727
0.00669871 0.782376 0.626245
0.00376898 0.76527 0.59823
0.00222782 0.74757 0.570306
0.00129702 0.72932 0.541207
0.452247 0.844327 0.449271
0.856443 0.82211 0.340658
0.989548 0.798474 0.432959
0.0149386 0.0010071 0.00154116
0.594217 0.924285 0.854597
0.584527 0.923858 0.85069
0.575494 0.923354 0.846799
0.567086 0.92285 0.842878
0.518669 0.918029 0.83209
0.359731 0.899626 0.801846
0.749264 0.954299 0.678614
0.958358 0.940017 0.60412
0.985229 0.908675 0.597147
0.718013 0.926833 0.888014
0.703593 0.926818 0.885206
0.689723 0.926772 0.882506
0.67657 0.926589 0.879499
0.663905 0.926406 0.876509
0.651804 0.926162 0.873487
0.639536 0.925841 0.870024
0.896559 0.971786 0.814633
0.969894 0.977295 0.787472
1.5259e-05 0.0858167 0.367834
0.00280766 0.0748302 0.373281
0.0361791 0.0339971 0.330312
0.387564 0.0188296 0.271122
0.368902 0 0.0217441
0.43122 7.62951e-05 0.00918593
0.277043 0.000808728 0.00515755
0.0149386 0.0010071 0.00154116
0.0149386 0.0010071 0.00154116
0 0.0504616 0.236133
0.000289921 0.0563973 0.285298
0.0125429 0.0421302 0.269429
0.30222 0.0348211 0.238712
0.502571 0.000320439 0.0422217
0.443732 1.5259e-05 0.00665293
0.255497 0.000747692 0.00381476
0.0149386 0.0010071 0.00154116
0.0149386 0.0010071 0.00154116
0 0.058732 0.20763
0 0.0549325 0.217014
0.00238041 0.0538643 0.22153
0.205356 0.0465095 0.191379
0.566415 0.0052491 0.0584421
0.43827 0 0.00453193
0.231464 0.000701915 0.00289921
0.0149386 0.0010071 0.00154116
0.0149386 0.0010071 0.00154116
0 0.156008 0.230259
0 0.138918 0.211231
7.62951e-05 0.139651 0.203037
0.110628 0.157671 0.193469
0.561807 0.101015 0.0871138
0.668437 0.00105287 0.0125734
0.313436 0.00015259 0.00144961
0.0149386 0.0010071 0.00154116
0.0149386 0.0010071 0.00154116
0 0.365454 0.298421
0 0.341176 0.275135
0 0.319051 0.252644
0.00154116 0.36318 0.212558
0.381277 0.363058 0.120211
0.803616 0.284794 0.0525673
0.648234 0.000732433 0.00343328
0.0149386 0.0010071 0.00154116
0.0149386 0.0010071 0.00154116
7.62951e-05 0.600824 0.425299
3.0518e-05 0.578332 0.39881
1.5259e-05 0.555367 0.372915
0 0.53167 0.347921
0.10193 0.651682 0.291249
0.670985 0.623896 0.168368
0.925307 0.563622 0.132311
0.295155 0.00282292 0.00251774
0.0149386 0.0010071 0.00154116
0.0122225 0.795895 0.656275
0.00619516 0.778393 0.62948
0.00354009 0.761166 0.602487
0.002121 0.743496 0.575616
0.00125124 0.725063 0.547616
0.437324 0.841962 0.466697
0.853727 0.819287 0.359304
0.990387 0.795499 0.448936
0.0149386 0.0010071 0.00154116
0.593317 0.924239 0.854231
0.583963 0.923812 0.850446
0.574914 0.923323 0.846586
0.566659 0.922835 0.84268
0.467567 0.912261 0.823728
0.321828 0.894316 0.795087
0.738933 0.951186 0.676799
0.955261 0.936782 0.601801
0.985733 0.905531 0.600427
0.714382 0.926848 0.887312
0.700114 0.926802 0.884565
0.686564 0.926726 0.881804
0.673579 0.926558 0.878813
0.661204 0.926345 0.875853
0.649516 0.926116 0.872831
0.637552 0.925765 0.869413
0.892958 0.971695 0.814267
0.969894 0.977295 0.786892
0.148867 0.513008 0.793362
0.171954 0.487144 0.781292
0.234409 0.463462 0.771466
0.431189 0.40943 0.75848
0.800137 0.35964 0.73695
0.388205 0.000396735 0.0464179
0.314214 0.00198367 0.0291142
0.319142 0.00134279 0.0176547
0.0149386 0.0010071 0.00154116
0.0192874 0.398413 0.706996
0.0753948 0.394171 0.710414
0.13106 0.375998 0.700145
0.320012 0.337453 0.686336
0.734401 0.304036 0.664073
0.733516 0.00621042 0.237995
0.31899 0.00155642 0.0218509
0.314321 0.00112917 0.0128634
0.0149386 0.0010071 0.00154116
0.00047303 0.296376 0.596048
0.0161288 0.311086 0.621988
0.0470588 0.299641 0.61355
0.2206 0.27892 0.603189
0.650828 0.249058 0.575387
0.800671 0.0285801 0.316075
0.318273 0.0012665 0.0161135
0.304738 0.000961318 0.00910964
0.0149386 0.0010071 0.00154116
0 0.253437 0.461082
0.000457771 0.288304 0.524376
0.00749218 0.289738 0.528893
0.136324 0.301717 0.539284
0.555611 0.276356 0.509621
0.83331 0.143786 0.381094
0.39617 0.000289921 0.0115816
0.291295 0.000869764 0.00668345
0.0149386 0.0010071 0.00154116
0 0.385946 0.473152
0 0.360052 0.448661
7.62951e-05 0.387381 0.47129
0.0289616 0.425132 0.489204
0.425269 0.445609 0.481819
0.81709 0.382971 0.402029
0.899565 0.0836805 0.196582
0.27837 0.000808728 0.00526436
0.0149386 0.0010071 0.00154116
0.000228885 0.604654 0.542046
0.000137331 0.581918 0.51754
9.15541e-05 0.559075 0.492958
4.57771e-05 0.535195 0.468025
0.100557 0.653834 0.467277
0.688319 0.654261 0.389944
0.934752 0.595041 0.347082
0.854337 0.0713359 0.100343
0.0149386 0.0010071 0.00154116
0.0171969 0.796368 0.686137
0.00840772 0.778103 0.661662
0.00463874 0.760815 0.637186
0.00277714 0.743145 0.612619
0.00166323 0.724422 0.586938
0.414893 0.843885 0.533455
0.853635 0.820752 0.433158
0.99173 0.794461 0.500923
0.521218 0.00526436 0.00677501
0.598779 0.924483 0.856397
0.589303 0.924071 0.852613
0.580072 0.923598 0.848814
0.571435 0.92314 0.844968
0.429343 0.907362 0.819379
0.295811 0.88983 0.792676
0.727184 0.948699 0.683803
0.952361 0.933883 0.607233
0.986221 0.902556 0.610025
0.712886 0.926848 0.887037
0.698558 0.926802 0.884245
0.685222 0.92668 0.881453
0.672297 0.926513 0.878523
0.660014 0.926314 0.875563
0.648188 0.926085 0.872435
0.636347 0.92575 0.869078
0.889403 0.971603 0.814038
0.969879 0.977295 0.78613
0.606104 0.837201 0.958343
0.583108 0.821408 0.954238
0.576532 0.80473 0.944717
0.637278 0.790494 0.938415
0.77882 0.756359 0.93312
0.959518 0.717357 0.917937
0.611383 0.0423438 0.321584
0.235172 0.00624094 0.0716869
0.286442 0.00341802 0.0487526
0.47892 0.777188 0.92668
0.47602 0.759426 0.917601
0.471275 0.740932 0.908598
0.542153 0.726986 0.90312
0.715923 0.693172 0.898024
0.928603 0.650294 0.884474
0.884077 0.145846 0.587839
0.268605 0.0043183 0.0579538
0.304021 0.002533 0.0376898
0.35581 0.711009 0.889982
0.360739 0.691188 0.880827
0.359411 0.669703 0.870726
0.434073 0.654276 0.864897
0.635752 0.619394 0.859037
0.893263 0.574533 0.843336
0.920928 0.177035 0.593851
0.292058 0.00314336 0.0455634
0.314626 0.00195315 0.0287785
0.225528 0.651423 0.848005
0.236942 0.630426 0.83798
0.245151 0.607645 0.826993
0.317922 0.59118 0.820264
0.547997 0.567407 0.814572
0.851331 0.522026 0.797238
0.948531 0.239277 0.649851
0.307103 0.00238041 0.0352636
0.319158 0.00155642 0.0217288
0.0726024 0.636652 0.793988
0.087602 0.618906 0.783856
0.123537 0.604273 0.775952
0.195865 0.59353 0.770428
0.450828 0.593912 0.772931
0.799435 0.556283 0.755138
0.954223 0.417319 0.680095
0.315953 0.0018616 0.0272068
0.318471 0.00128176 0.0163577
0.0024567 0.631067 0.685649
0.00123598 0.607599 0.666773
0.000961318 0.608438 0.668742
0.0244144 0.669505 0.713756
0.294499 0.706828 0.730907
0.712169 0.704021 0.715755
0.935271 0.652003 0.666712
0.977066 0.370855 0.554406
0.314656 0.00112917 0.0130312
0.0705119 0.807523 0.758083
0.0381781 0.78854 0.738613
0.0195773 0.769345 0.718624
0.00956741 0.750301 0.698589
0.00491341 0.731121 0.678187
0.408637 0.846815 0.688182
0.859632 0.831708 0.624643
0.990982 0.799847 0.646021
0.955779 0.248783 0.385534
0.628931 0.92549 0.866789
0.617761 0.925124 0.863294
0.607569 0.924804 0.859693
0.583185 0.922774 0.853986
0.431495 0.904936 0.829084
0.308751 0.88809 0.806287
0.705394 0.948638 0.725704
0.950683 0.933089 0.653422
0.98584 0.901091 0.658061
0.720867 0.926818 0.888594
0.706462 0.926848 0.885817
0.692653 0.926757 0.883131
0.679545 0.926635 0.880186
0.667002 0.926436 0.877226
0.654932 0.926223 0.874342
0.643015 0.925902 0.870985
0.885237 0.971633 0.821317
0.96997 0.97734 0.791836
0.842329 0.966873 0.954467
0.834333 0.957076 0.953902
0.826047 0.948592 0.953582
0.827848 0.940871 0.95317
0.865507 0.934157 0.952377
0.95668 0.912444 0.953063
0.978531 0.88661 0.956069
0.793423 0.228687 0.723507
0.074815 0.0201724 0.0825666
0.801236 0.937545 0.953521
0.790539 0.929335 0.953353
0.779263 0.921141 0.953292
0.779812 0.913039 0.952972
0.821591 0.905943 0.952071
0.912184 0.881285 0.951232
0.980209 0.855451 0.956832
0.853529 0.28188 0.790646
0.074815 0.0201724 0.0825666
0.748318 0.909712 0.95378
0.7355 0.900557 0.954009
0.721874 0.891218 0.954314
0.721096 0.882063 0.954299
0.767178 0.874159 0.95314
0.867277 0.849058 0.950469
0.982391 0.821805 0.957977
0.887373 0.291798 0.803189
0.148394 0.0131685 0.0918441
0.682582 0.880568 0.955337
0.66746 0.870253 0.955657
0.65275 0.859663 0.956039
0.650172 0.849073 0.95668
0.695399 0.838315 0.960143
0.818662 0.810346 0.958572
0.98172 0.774868 0.943267
0.948882 0.335851 0.820722
0.205707 0.0083772 0.0816815
0.596506 0.856672 0.958511
0.566445 0.842237 0.954437
0.547753 0.826825 0.944183
0.543252 0.811688 0.934997
0.611475 0.80058 0.929213
0.775753 0.779049 0.924666
0.95407 0.739467 0.911009
0.981689 0.481651 0.846723
0.246006 0.00550851 0.0674601
0.447425 0.852094 0.927825
0.409262 0.836591 0.916899
0.412955 0.824125 0.908934
0.41265 0.810483 0.900374
0.495232 0.802152 0.895933
0.714824 0.798428 0.895262
0.921996 0.763775 0.884489
0.986099 0.670359 0.848142
0.274693 0.00399786 0.0549325
0.324529 0.833143 0.838285
0.256306 0.816831 0.826108
0.198489 0.800244 0.813565
0.128664 0.797864 0.813962
0.266697 0.85684 0.860319
0.581888 0.867597 0.863737
0.866712 0.855909 0.85034
0.983963 0.823774 0.827695
0.986679 0.578592 0.774777
0.723064 0.926818 0.88896
0.708492 0.926818 0.886168
0.694667 0.926772 0.883467
0.671626 0.925246 0.879515
0.540017 0.907942 0.86186
0.426764 0.892378 0.845472
0.66894 0.94934 0.817761
0.951324 0.937179 0.774762
0.983154 0.905699 0.776287
0.765164 0.926238 0.895949
0.748409 0.926574 0.893385
0.732967 0.926772 0.890791
0.718441 0.926818 0.888106
0.704494 0.926818 0.88539
0.691096 0.926757 0.882765
0.678004 0.926635 0.879866
0.875731 0.972473 0.851164
0.970565 0.977691 0.82034
0.979889 0.980835 0.963943
0.979889 0.980835 0.963943
0.980514 0.980301 0.963317
0.972351 0.97969 0.962142
0.973358 0.979721 0.962295
0.979889 0.980835 0.963943
0.979889 0.980835 0.963943
0.979889 0.980835 0.963943
0.074815 0.0201724 0.0825666
0.961563 0.979065 0.960479
0.947707 0.978637 0.959838
0.93521 0.978302 0.959747
0.925933 0.978103 0.959777
0.926726 0.978119 0.959777
0.96376 0.979171 0.960693
0.979889 0.980835 0.963943
0.97731 0.974456 0.959121
0.074815 0.0201724 0.0825666
0.917525 0.977813 0.959625
0.906355 0.977417 0.959335
0.895674 0.97702 0.959091
0.887205 0.976745 0.958938
0.887861 0.976761 0.958938
0.919326 0.980133 0.958679
0.977401 0.967758 0.958389
0.976791 0.939178 0.956847
0.074815 0.0201724 0.0825666
0.879408 0.976486 0.958846
0.869276 0.976181 0.958724
0.856901 0.978592 0.957336
0.84889 0.971633 0.95491
0.853605 0.961776 0.953964
0.890883 0.953765 0.953124
0.983764 0.935286 0.955535
0.9776 0.909117 0.956024
0.115679 0.0264744 0.114031
0.83888 0.972061 0.955016
0.830503 0.961501 0.954238
0.821134 0.952316 0.953902
0.811933 0.943969 0.953613
0.813672 0.936431 0.953201
0.85388 0.929763 0.952346
0.945418 0.907515 0.952712
0.978714 0.882414 0.956146
0.948287 0.460472 0.903655
0.7944 0.952346 0.954498
0.779706 0.943206 0.95436
0.769329 0.935134 0.954208
0.757763 0.926863 0.954131
0.759167 0.919203 0.95378
0.804425 0.912627 0.952453
0.905028 0.895216 0.950698
0.979477 0.867536 0.956451
0.984314 0.680568 0.958999
0.723369 0.961212 0.957305
0.70489 0.950774 0.957565
0.691447 0.941283 0.957458
0.677684 0.932662 0.957504
0.679438 0.925032 0.957031
0.734142 0.919676 0.954635
0.86276 0.915343 0.951797
0.978088 0.885603 0.963409
0.981216 0.819913 0.959731
0.862379 0.921935 0.904738
0.862379 0.921935 0.904738
0.862379 0.921935 0.904738
0.862379 0.921935 0.904738
0.853925 0.921538 0.904128
0.609384 0.964691 0.950149
0.774823 0.963836 0.946227
0.954269 0.951507 0.934615
0.977844 0.922698 0.923125
0.862379 0.921935 0.904738
0.862379 0.921935 0.904738
0.862379 0.921935 0.904738
0.85211 0.922698 0.904616
0.827817 0.924071 0.903258
0.806928 0.925078 0.901305
0.788052 0.925689 0.899138
0.841306 0.973938 0.916899
0.973129 0.978897 0.901991
0.979889 0.980835 0.963943
0.979889 0.980835 0.963943
0.979889 0.980835 0.963943
0.979889 0.980835 0.963943
0.979889 0.980835 0.963943
0.979889 0.980835 0.963943
0.979889 0.980835 0.963943
0.979889 0.980835 0.963943
0.979889 0.980835 0.963943
0.979889 0.980835 0.963943
0.979889 0.980835 0.963943
0.979889 0.980835 0.963943
0.979889 0.980835 0.963943
0.979889 0.980835 0.963943
0.979889 0.980835 0.963943
0.979889 0.980835 0.963943
0.979889 0.980835 0.963943
0.979889 0.980835 0.963943
0.979889 0.980835 0.963943
0.979889 0.980835 0.963943
0.979889 0.980835 0.963943
0.979889 0.980835 0.963943
0.979889 0.980835 0.963943
0.979889 0.980835 0.963943
0.979889 0.980835 0.963943
0.979889 0.980835 0.963943
0.979889 0.980835 0.963943
0.979889 0.980835 0.963943
0.979889 0.980835 0.963943
0.979889 0.980835 0.963943
0.979889 0.980835 0.963943
0.979889 0.980835 0.963943
0.979889 0.980835 0.963943
0.979889 0.980835 0.963943
0.979889 0.980835 0.963943
0.979889 0.980835 0.963943
0.979889 0.980835 0.963943
0.979889 0.980835 0.963943
0.980591 0.980209 0.963226
0.968475 0.979461 0.961318
0.95729 0.978973 0.960204
0.958663 0.979004 0.960296
0.979889 0.980835 0.963943
0.979889 0.980835 0.963943
0.979889 0.980835 0.963943
0.9617 0.97908 0.960494
0.946761 0.978607 0.959823
0.93431 0.978286 0.959747
0.922698 0.977996 0.959747
0.913802 0.977691 0.959548
0.914961 0.977722 0.959564
0.950957 0.978759 0.95993
0.979889 0.980835 0.963943
0.977386 0.968719 0.958404
0.913191 0.977661 0.959518
0.901137 0.977218 0.959213
0.890547 0.976852 0.958999
0.880217 0.976516 0.958846
0.872328 0.976272 0.958755
0.873869 0.976318 0.95877
0.90692 0.977432 0.95935
0.977752 0.979385 0.960494
0.976852 0.952148 0.957443
0.851453 0.975647 0.95845
0.840162 0.975372 0.958297
0.830579 0.975158 0.958236
0.821134 0.97496 0.95819
0.814054 0.974853 0.95816
0.818509 0.974914 0.958175
0.857816 0.97583 0.958541
0.959197 0.979019 0.960327
0.977295 0.975387 0.959365
0.862379 0.921935 0.904738
0.862379 0.921935 0.904738
0.862379 0.921935 0.904738
0.862379 0.921935 0.904738
0.862379 0.921935 0.904738
0.862379 0.921935 0.904738
0.734707 0.974044 0.959274
0.890593 0.976852 0.958999
0.979889 0.980835 0.963943
