luts/rikka.cube
TITLE "Generated by Resolve"
LUT_3D_SIZE 33
1.5259e-05 0 0.00015259
3.0518e-05 0 9.15541e-05
0.000213626 0 7.62951e-05
0.000747692 1.5259e-05 0.000106813
0.00224308 1.5259e-05 0.000167849
0.00624094 1.5259e-05 0.000198367
0.016144 1.5259e-05 0.000198367
0.0347906 1.5259e-05 0.000198367
0.0646372 0 0.000167849
0.105226 0 0.00015259
0.147097 0 0.000122072
0.186282 0 9.15541e-05
0.221103 0 6.10361e-05
0.249836 0 4.57771e-05
0.270787 0 1.5259e-05
0.282017 0 1.5259e-05
0.28333 0 1.5259e-05
0.272175 0 3.0518e-05
0.245853 0 3.0518e-05
0.200336 0 6.10361e-05
0.128038 7.62951e-05 0.000137331
0.027985 0.00062562 0.000900282
0.0149386 0.0010071 0.00154116
0.0149386 0.0010071 0.00154116
0.0149386 0.0010071 0.00154116
0.0149386 0.0010071 0.00154116
0.0149386 0.0010071 0.00154116
0.0149386 0.0010071 0.00154116
0.0149386 0.0010071 0.00154116
0.0149386 0.0010071 0.00154116
0.0149386 0.0010071 0.00154116
0.0149386 0.0010071 0.00154116
0.0149386 0.0010071 0.00154116
1.5259e-05 1.5259e-05 7.62951e-05
0 0 7.62951e-05
9.15541e-05 0 0.00015259
0.000442512 0 0.000183108
0.00143435 0 0.000198367
0.00440986 1.5259e-05 0.000198367
0.0121157 1.5259e-05 0.000198367
0.0280919 1.5259e-05 0.000198367
0.0547189 1.5259e-05 0.000183108
0.0933089 0 0.00015259
0.135714 0 0.000122072
0.176074 0 0.000106813
0.212268 0 7.62951e-05
0.242863 0 4.57771e-05
0.266194 0 3.0518e-05
0.280003 0 1.5259e-05
0.284199 0 1.5259e-05
0.276341 0 3.0518e-05
0.254627 0 3.0518e-05
0.214389 0 4.57771e-05
0.149722 4.57771e-05 0.000106813
0.0532387 0.000335698 0.00047303
0.0149386 0.0010071 0.00154116
0.0149386 0.0010071 0.00154116
0.0149386 0.0010071 0.00154116
0.0149386 0.0010071 0.00154116
0.0149386 0.0010071 0.00154116
0.0149386 0.0010071 0.00154116
0.0149386 0.0010071 0.00154116
0.0149386 0.0010071 0.00154116
0.0149386 0.0010071 0.00154116
0.0149386 0.0010071 0.00154116
0.0149386 0.0010071 0.00154116
1.5259e-05 6.10361e-05 0.000213626
0 4.57771e-05 0.000213626
1.5259e-05 1.5259e-05 0.000167849
0.000198367 0 0.000167849
0.00077821 0 0.000213626
0.00270085 0 0.000228885
0.00827039 0 0.000244144
0.0220951 0 0.000228885
0.0462806 0 0.000198367
0.0818799 0 0.000167849
0.124331 0 0.000137331
0.165652 0 0.000106813
0.202899 0 7.62951e-05
0.235477 0 4.57771e-05
0.260945 0 3.0518e-05
0.277241 0 1.5259e-05
0.284245 0 1.5259e-05
0.279606 0 1.5259e-05
0.262196 0 3.0518e-05
0.226566 0 4.57771e-05
0.169055 3.0518e-05 7.62951e-05
0.0809491 0.000198367 0.000289921
0.0149386 0.0010071 0.00154116
0.0149386 0.0010071 0.00154116
0.0149386 0.0010071 0.00154116
0.0149386 0.0010071 0.00154116
0.0149386 0.0010071 0.00154116
0.0149386 0.0010071 0.00154116
0.0149386 0.0010071 0.00154116
0.0149386 0.0010071 0.00154116
0.0149386 0.0010071 0.00154116
0.0149386 0.0010071 0.00154116
0.0149386 0.0010071 0.00154116
1.5259e-05 0.000167849 0.00030518
1.5259e-05 0.000137331 0.000274662
0 7.62951e-05 0.000228885
4.57771e-05 3.0518e-05 0.000213626
0.000335698 0 0.000183108
0.00149538 0 0.000198367
0.00509651 0 0.000228885
0.0154116 0 0.000228885
0.0368505 0 0.000213626
0.0720378 0 0.000183108
0.115923 0 0.00015259
0.154818 0 0.000122072
0.193423 0 9.15541e-05
0.22768 0 6.10361e-05
0.254932 0 3.0518e-05
0.274083 0 1.5259e-05
0.283238 0 1.5259e-05
0.281926 0 1.5259e-05
0.268162 0 3.0518e-05
0.237415 0 3.0518e-05
0.186847 1.5259e-05 6.10361e-05
0.108003 0.000106813 0.000183108
0.0149386 0.0010071 0.00154116
0.0149386 0.0010071 0.00154116
0.0149386 0.0010071 0.00154116
0.0149386 0.0010071 0.00154116
0.0149386 0.0010071 0.00154116
0.0149386 0.0010071 0.00154116
0.0149386 0.0010071 0.00154116
0.0149386 0.0010071 0.00154116
0.0149386 0.0010071 0.00154116
0.0149386 0.0010071 0.00154116
0.0149386 0.0010071 0.00154116
1.5259e-05 0.000411994 0.000381476
1.5259e-05 0.000320439 0.000366217
0 0.000244144 0.000366217
0 0.000122072 0.000259403
0.000106813 4.57771e-05 0.000228885
0.000671397 1.5259e-05 0.000198367
0.00296025 0 0.000183108
0.00999466 0 0.000198367
0.027451 0 0.000198367
0.0589456 0 0.000183108
0.104524 0 0.00015259
0.14992 0 0.000122072
0.183719 0 9.15541e-05
0.219089 0 6.10361e-05
0.248402 0 4.57771e-05
0.270024 0 1.5259e-05
0.281758 0 1.5259e-05
0.283558 0 1.5259e-05
0.273014 0 3.0518e-05
0.247349 0 3.0518e-05
0.202625 0 4.57771e-05
0.131701 6.10361e-05 0.000137331
0.0318761 0.000564584 0.000808728
0.0149386 0.0010071 0.00154116
0.0149386 0.0010071 0.00154116
0.0149386 0.0010071 0.00154116
0.0149386 0.0010071 0.00154116
0.0149386 0.0010071 0.00154116
0.0149386 0.0010071 0.00154116
0.0149386 0.0010071 0.00154116
0.0149386 0.0010071 0.00154116
0.0149386 0.0010071 0.00154116
0.0149386 0.0010071 0.00154116
1.5259e-05 0.00105287 0.000488289
1.5259e-05 0.00077821 0.000457771
0 0.000610361 0.000442512
0 0.000396735 0.000350958
1.5259e-05 0.000167849 0.00030518
0.000228885 6.10361e-05 0.000244144
0.00143435 3.0518e-05 0.000198367
0.00613413 0 0.000167849
0.0196231 0 0.000167849
0.0466316 0 0.000167849
0.0901808 0 0.00015259
0.138582 0 0.000122072
0.181338 0 0.000106813
0.210254 0 7.62951e-05
0.241413 0 4.57771e-05
0.265431 0 3.0518e-05
0.279591 0 1.5259e-05
0.284291 0 1.5259e-05
0.276921 0 3.0518e-05
0.255924 0 3.0518e-05
0.216236 0 4.57771e-05
0.152529 4.57771e-05 0.000106813
0.0570382 0.00030518 0.000442512
0.0149386 0.0010071 0.00154116
0.0149386 0.0010071 0.00154116
0.0149386 0.0010071 0.00154116
0.0149386 0.0010071 0.00154116
0.0149386 0.0010071 0.00154116
0.0149386 0.0010071 0.00154116
0.0149386 0.0010071 0.00154116
0.0149386 0.0010071 0.00154116
0.0149386 0.0010071 0.00154116
0.0149386 0.0010071 0.00154116
1.5259e-05 0.00283818 0.000671397
1.5259e-05 0.00218204 0.000610361
1.5259e-05 0.00173953 0.000579843
0 0.00132753 0.000564584
0 0.000717174 0.000396735
3.0518e-05 0.00030518 0.000335698
0.000534066 9.15541e-05 0.000259403
0.00302129 3.0518e-05 0.000198367
0.0120394 1.5259e-05 0.00015259
0.0350805 0 0.000137331
0.0740368 0 0.000122072
0.125383 0 0.000106813
0.174151 0 9.15541e-05
0.213443 0 7.62951e-05
0.234195 0 4.57771e-05
0.260105 0 3.0518e-05
0.276844 0 1.5259e-05
0.284001 0 1.5259e-05
0.279911 0 1.5259e-05
0.262989 0 3.0518e-05
0.228077 0 4.57771e-05
0.171511 3.0518e-05 7.62951e-05
0.0849012 0.000183108 0.000274662
0.0149386 0.0010071 0.00154116
0.0149386 0.0010071 0.00154116
0.0149386 0.0010071 0.00154116
0.0149386 0.0010071 0.00154116
0.0149386 0.0010071 0.00154116
0.0149386 0.0010071 0.00154116
0.0149386 0.0010071 0.00154116
0.0149386 0.0010071 0.00154116
0.0149386 0.0010071 0.00154116
0.0149386 0.0010071 0.00154116
1.5259e-05 0.00674449 0.0009308
1.5259e-05 0.00549325 0.000854505
1.5259e-05 0.00445563 0.000793469
0 0.00329595 0.000762951
0 0.00257877 0.000640879
0 0.00149538 0.000457771
7.62951e-05 0.000747692 0.000381476
0.00102235 0.000259403 0.000289921
0.00547799 0.00015259 0.000198367
0.0201877 9.15541e-05 0.000137331
0.0549477 3.0518e-05 7.62951e-05
0.109957 1.5259e-05 6.10361e-05
0.162997 0 6.10361e-05
0.211933 0 4.57771e-05
0.245533 0 4.57771e-05
0.253956 0 3.0518e-05
0.273533 0 1.5259e-05
0.283024 0 1.5259e-05
0.282292 0 1.5259e-05
0.268833 0 3.0518e-05
0.238758 0 3.0518e-05
0.1888 1.5259e-05 6.10361e-05
0.111086 0.000106813 0.000183108
0.0149386 0.0010071 0.00154116
0.0149386 0.0010071 0.00154116
0.0149386 0.0010071 0.00154116
0.0149386 0.0010071 0.00154116
0.0149386 0.0010071 0.00154116
0.0149386 0.0010071 0.00154116
0.0149386 0.0010071 0.00154116
0.0149386 0.0010071 0.00154116
0.0149386 0.0010071 0.00154116
0.0149386 0.0010071 0.00154116
1.5259e-05 0.014435 0.0012665
1.5259e-05 0.0127413 0.0011902
1.5259e-05 0.0110933 0.00112917
1.5259e-05 0.00976577 0.00108339
0 0.00862135 0.00111391
0 0.00654612 0.000823987
1.5259e-05 0.00399786 0.000595102
0.000213626 0.00215152 0.000457771
0.00195315 0.000869764 0.00030518
0.0105898 0.000503548 0.000167849
0.0352178 0.000381476 0.000106813
0.0849775 0.000228885 6.10361e-05
0.147448 9.15541e-05 3.0518e-05
0.206973 1.5259e-05 1.5259e-05
0.253712 0 1.5259e-05
0.279515 0 1.5259e-05
0.269459 0 1.5259e-05
0.281422 0 1.5259e-05
0.283619 0 1.5259e-05
0.273579 0 3.0518e-05
0.248264 0 3.0518e-05
0.204349 0 4.57771e-05
0.134188 6.10361e-05 0.000137331
0.0346532 0.000518807 0.000732433
0.0149386 0.0010071 0.00154116
0.0149386 0.0010071 0.00154116
0.0149386 0.0010071 0.00154116
0.0149386 0.0010071 0.00154116
0.0149386 0.0010071 0.00154116
0.0149386 0.0010071 0.00154116
0.0149386 0.0010071 0.00154116
0.0149386 0.0010071 0.00154116
0.0149386 0.0010071 0.00154116
1.5259e-05 0.0312505 0.00183108
1.5259e-05 0.0289006 0.00175479
1.5259e-05 0.0260777 0.00167849
1.5259e-05 0.0237888 0.0016022
0 0.0220493 0.00167849
0 0.019852 0.00146487
0 0.0149233 0.00105287
6.10361e-05 0.0091249 0.000762951
0.000564584 0.00561532 0.000518807
0.00396735 0.00248722 0.000320439
0.02121 0.00151064 0.00015259
0.0617838 0.00120546 7.62951e-05
0.126192 0.000869764 4.57771e-05
0.192264 0.000503548 1.5259e-05
0.256519 0.000167849 0
0.302968 1.5259e-05 0
0.315587 0 0
0.279286 0 1.5259e-05
0.284215 0 1.5259e-05
0.277195 0 3.0518e-05
0.256764 0 3.0518e-05
0.217563 0 4.57771e-05
0.154742 4.57771e-05 9.15541e-05
0.0600595 0.000289921 0.000411994
0.0149386 0.0010071 0.00154116
0.0149386 0.0010071 0.00154116
0.0149386 0.0010071 0.00154116
0.0149386 0.0010071 0.00154116
0.0149386 0.0010071 0.00154116
0.0149386 0.0010071 0.00154116
0.0149386 0.0010071 0.00154116
0.0149386 0.0010071 0.00154116
0.0149386 0.0010071 0.00154116
1.5259e-05 0.0590677 0.00259403
1.5259e-05 0.0558785 0.00251774
1.5259e-05 0.0515145 0.00239567
1.5259e-05 0.0478981 0.00228885
0 0.0450294 0.00228885
0 0.0431373 0.00238041
0 0.0387732 0.00184634
1.5259e-05 0.0286564 0.00120546
0.000244144 0.0206149 0.000915541
0.00144961 0.0141604 0.000549325
0.00914015 0.00683604 0.000289921
0.0410163 0.00428778 0.000137331
0.104784 0.00340276 6.10361e-05
0.176028 0.00262455 3.0518e-05
0.24712 0.00175479 0
0.312444 0.000869764 0
0.361486 0.000167849 0
0.357549 0 0
0.283925 0 1.5259e-05
0.280232 0 1.5259e-05
0.263645 0 3.0518e-05
0.229374 0 4.57771e-05
0.173541 1.5259e-05 7.62951e-05
0.0879377 0.000167849 0.000259403
0.0149386 0.0010071 0.00154116
0.0149386 0.0010071 0.00154116
0.0149386 0.0010071 0.00154116
0.0149386 0.0010071 0.00154116
0.0149386 0.0010071 0.00154116
0.0149386 0.0010071 0.00154116
0.0149386 0.0010071 0.00154116
0.0149386 0.0010071 0.00154116
0.0149386 0.0010071 0.00154116
1.5259e-05 0.099855 0.00360113
1.5259e-05 0.0956436 0.00349432
1.5259e-05 0.0904555 0.00335698
1.5259e-05 0.0856489 0.00323491
1.5259e-05 0.080705 0.00311284
0 0.0781109 0.00334173
0 0.0765393 0.00306706
0 0.067628 0.00218204
0.000106813 0.0503853 0.00129702
0.000747692 0.0412299 0.00102235
0.00381476 0.0308995 0.000549325
0.0222019 0.0179294 0.000259403
0.0774853 0.0124361 0.000106813
0.158038 0.00979629 4.57771e-05
0.236362 0.00787366 1.5259e-05
0.312093 0.0056611 0
0.37763 0.00315862 0
0.422156 0.00102235 0
0.409232 4.57771e-05 0
0.282475 0 1.5259e-05
0.269368 0 3.0518e-05
0.239811 0 3.0518e-05
0.190539 1.5259e-05 6.10361e-05
0.113741 0.000106813 0.000167849
0.0156863 0.000976577 0.00148013
0.0149386 0.0010071 0.00154116
0.0149386 0.0010071 0.00154116
0.0149386 0.0010071 0.00154116
0.0149386 0.0010071 0.00154116
0.0149386 0.0010071 0.00154116
0.0149386 0.0010071 0.00154116
0.0149386 0.0010071 0.00154116
0.0149386 0.0010071 0.00154116
1.5259e-05 0.145495 0.00477607
1.5259e-05 0.141024 0.004654
1.5259e-05 0.13576 0.00451667
1.5259e-05 0.130709 0.00437934
1.5259e-05 0.125765 0.00425727
1.5259e-05 0.121401 0.00418097
0 0.120989 0.00456245
0 0.120363 0.00378424
4.57771e-05 0.103944 0.00233463
0.000411994 0.0856794 0.00144961
0.00215152 0.0749065 0.00111391
0.0101778 0.0594797 0.000503548
0.0482032 0.0396735 0.000198367
0.131899 0.0310369 9.15541e-05
0.221698 0.0258488 3.0518e-05
0.307118 0.0220798 0
0.385489 0.017258 0
0.450782 0.0110018 0
0.490196 0.00418097 0
0.473671 0.000320439 0
0.273976 0 3.0518e-05
0.24921 0 3.0518e-05
0.205829 0 4.57771e-05
0.136416 6.10361e-05 0.000122072
0.0370489 0.000488289 0.000686656
0.0149386 0.0010071 0.00154116
0.0149386 0.0010071 0.00154116
0.0149386 0.0010071 0.00154116
0.0149386 0.0010071 0.00154116
0.0149386 0.0010071 0.00154116
0.0149386 0.0010071 0.00154116
0.0149386 0.0010071 0.00154116
0.0149386 0.0010071 0.00154116
1.5259e-05 0.193881 0.00598154
1.5259e-05 0.189151 0.00587472
1.5259e-05 0.1841 0.00575265
1.5259e-05 0.178851 0.00563058
1.5259e-05 0.1738 0.00549325
1.5259e-05 0.16875 0.00537118
0 0.165621 0.00552377
0 0.167315 0.00564584
0 0.165057 0.0041352
0.000274662 0.143023 0.00224308
0.0012665 0.1299 0.0016022
0.00630198 0.120958 0.00112917
0.0259251 0.103777 0.000411994
0.0948806 0.0781262 0.000137331
0.193973 0.0646067 6.10361e-05
0.292653 0.0564736 1.5259e-05
0.383688 0.0501411 0
0.463783 0.0427863 0
0.525826 0.0310521 0
0.561379 0.0153658 0
0.536919 0.00180056 0
0.257603 0 3.0518e-05
0.218921 0 4.57771e-05
0.156771 3.0518e-05 9.15541e-05
0.0626993 0.000274662 0.000396735
0.0149386 0.0010071 0.00154116
0.0149386 0.0010071 0.00154116
0.0149386 0.0010071 0.00154116
0.0149386 0.0010071 0.00154116
0.0149386 0.0010071 0.00154116
0.0149386 0.0010071 0.00154116
0.0149386 0.0010071 0.00154116
0.0149386 0.0010071 0.00154116
0 0.244434 0.00714122
0 0.239475 0.00703441
0 0.234546 0.0069276
0 0.228992 0.00680552
0 0.223835 0.00668345
1.5259e-05 0.21883 0.00657664
1.5259e-05 0.21384 0.00645457
0 0.211002 0.00669871
0 0.21767 0.00653086
0.000106813 0.208286 0.00407416
0.000915541 0.187259 0.00224308
0.00387579 0.179278 0.00167849
0.0170748 0.171832 0.00103761
0.055787 0.155291 0.00030518
0.154559 0.130709 7.62951e-05
0.263661 0.11545 3.0518e-05
0.368536 0.106279 0
0.462577 0.0981155 0
0.539605 0.0876173 0
0.597482 0.0691844 0
0.629938 0.0421302 0
0.60293 0.00848402 0
0.230488 0 4.57771e-05
0.17528 1.5259e-05 7.62951e-05
0.0906844 0.000167849 0.000244144
0.0149386 0.0010071 0.00154116
0.0149386 0.0010071 0.00154116
0.0149386 0.0010071 0.00154116
0.0149386 0.0010071 0.00154116
0.0149386 0.0010071 0.00154116
0.0149386 0.0010071 0.00154116
0.0149386 0.0010071 0.00154116
0.0149386 0.0010071 0.00154116
0 0.294713 0.0124056
0 0.289799 0.0112001
0 0.28481 0.0100404
0 0.2795 0.00936904
0 0.27454 0.00891127
0 0.269657 0.00848402
0 0.265156 0.0080415
0 0.260334 0.00759899
0 0.257862 0.00761425
0 0.270359 0.0069276
0.000503548 0.250843 0.0037232
0.00257877 0.238148 0.00225834
0.0113985 0.232166 0.00167849
0.0386816 0.228626 0.000839246
0.107652 0.212619 0.000198367
0.224994 0.187778 3.0518e-05
0.34139 0.174578 3.0518e-05
0.446387 0.165377 1.5259e-05
0.537331 0.156283 0
0.609705 0.145312 0
0.661936 0.127047 0
0.690608 0.0919509 1.5259e-05
0.666682 0.0306859 3.0518e-05
0.192279 1.5259e-05 6.10361e-05
0.116136 9.15541e-05 0.000167849
0.0174258 0.000915541 0.00135805
0.0149386 0.0010071 0.00154116
0.0149386 0.0010071 0.00154116
0.0149386 0.0010071 0.00154116
0.0149386 0.0010071 0.00154116
0.0149386 0.0010071 0.00154116
0.0149386 0.0010071 0.00154116
0.0149386 0.0010071 0.00154116
0 0.347723 0.0357977
0 0.342061 0.032517
0 0.336522 0.029572
0 0.330755 0.0268406
0 0.325216 0.0243381
0 0.319982 0.0221103
0 0.314748 0.0200809
0 0.310185 0.0178378
0 0.305669 0.0157321
0 0.30341 0.0137484
6.10361e-05 0.325994 0.00740063
0.0015259 0.30277 0.00306706
0.00680552 0.292851 0.00221256
0.0285191 0.292134 0.00155642
0.0779126 0.290547 0.00062562
0.174304 0.275578 0.000167849
0.305486 0.254475 6.10361e-05
0.421683 0.242145 4.57771e-05
0.520012 0.233066 1.5259e-05
0.605966 0.224155 1.5259e-05
0.674327 0.212116 1.5259e-05
0.720088 0.193973 3.0518e-05
0.744427 0.157916 9.15541e-05
0.721355 0.0792248 0.000183108
0.138766 6.10361e-05 0.000122072
0.0393835 0.000457771 0.000656138
0.0149386 0.0010071 0.00154116
0.0149386 0.0010071 0.00154116
0.0149386 0.0010071 0.00154116
0.0149386 0.0010071 0.00154116
0.0149386 0.0010071 0.00154116
0.0149386 0.0010071 0.00154116
0.0149386 0.0010071 0.00154116
0 0.410452 0.101869
0 0.403662 0.0935225
0 0.397131 0.0851301
0 0.390433 0.0763409
0 0.384344 0.06804
0 0.378607 0.0608225
0 0.373083 0.0542611
0 0.367437 0.049012
0 0.361486 0.0441444
0 0.355489 0.0402686
0 0.349477 0.0365454
0.000167849 0.396277 0.0220035
0.00436408 0.379507 0.00682078
0.0165713 0.37084 0.00440986
0.0615854 0.373281 0.00297551
0.140734 0.372717 0.00151064
0.258015 0.35555 0.000488289
0.396323 0.331685 0.000106813
0.503014 0.317586 7.62951e-05
0.590387 0.308415 6.10361e-05
0.668284 0.300999 7.62951e-05
0.73019 0.289052 0.000106813
0.770809 0.27158 0.000228885
0.790127 0.236622 0.000595102
0.767117 0.156817 0.0012665
0.0654765 0.000259403 0.000381476
0.0149386 0.0010071 0.00154116
0.0149386 0.0010071 0.00154116
0.0149386 0.0010071 0.00154116
0.0149386 0.0010071 0.00154116
0.0149386 0.0010071 0.00154116
0.0149386 0.0010071 0.00154116
0.0149386 0.0010071 0.00154116
0 0.482033 0.178744
0 0.475639 0.171221
0 0.469123 0.164004
0 0.462455 0.156832
0 0.455329 0.149233
0 0.448173 0.141863
0 0.441337 0.134386
0 0.434562 0.12697
0 0.427329 0.119539
0 0.41973 0.111986
0 0.41265 0.104219
0 0.405921 0.0957504
0.000366217 0.467353 0.0620432
0.0107271 0.472786 0.0267033
0.0382544 0.462348 0.0158999
0.120363 0.467124 0.0111391
0.222156 0.468452 0.00633249
0.355367 0.448997 0.002121
0.494804 0.422415 0.000717174
0.597772 0.406683 0.00047303
0.678035 0.396323 0.000411994
0.737804 0.386267 0.000442512
0.776593 0.373892 0.000686656
0.812345 0.358679 0.00141909
0.827207 0.330282 0.00389105
0.802213 0.260899 0.01178
0.0149386 0.0010071 0.00154116
0.0149386 0.0010071 0.00154116
0.0149386 0.0010071 0.00154116
0.0149386 0.0010071 0.00154116
0.0149386 0.0010071 0.00154116
0.0149386 0.0010071 0.00154116
0.0149386 0.0010071 0.00154116
1.5259e-05 0.548165 0.256382
0 0.541939 0.248753
0 0.53576 0.241093
0 0.529351 0.233463
0 0.522774 0.225727
0 0.516365 0.218311
0 0.509941 0.210742
0 0.503517 0.203311
0 0.497093 0.195895
0 0.4907 0.188479
0 0.484428 0.181231
0 0.478019 0.173739
0 0.471382 0.166369
0.000488289 0.541115 0.124743
0.0221408 0.56492 0.085771
0.080415 0.555428 0.0533608
0.197482 0.561532 0.0421149
0.322072 0.565759 0.0304723
0.453346 0.547234 0.0146334
0.588098 0.518685 0.00518807
0.687083 0.500679 0.00320439
0.759915 0.488273 0.00250248
0.809781 0.476234 0.00244144
0.838849 0.463905 0.00331121
0.844175 0.452552 0.00886549
0.855573 0.43714 0.0293431
0.815518 0.411704 0.135103
0.0149386 0.0010071 0.00154116
0.0149386 0.0010071 0.00154116
0.0149386 0.0010071 0.00154116
0.0149386 0.0010071 0.00154116
0.0149386 0.0010071 0.00154116
0.0149386 0.0010071 0.00154116
3.0518e-05 0.610147 0.33576
3.0518e-05 0.604639 0.328069
1.5259e-05 0.598917 0.320516
1.5259e-05 0.593164 0.313085
1.5259e-05 0.587213 0.305394
1.5259e-05 0.581338 0.297612
1.5259e-05 0.575174 0.289799
1.5259e-05 0.569162 0.282094
1.5259e-05 0.562936 0.27425
1.5259e-05 0.55671 0.266804
1.5259e-05 0.55053 0.259159
0 0.544442 0.251652
0 0.538216 0.243992
0 0.531914 0.236194
0.00111391 0.609476 0.191287
0.0424201 0.63856 0.163821
0.140642 0.636805 0.122255
0.290959 0.645014 0.103807
0.420478 0.64654 0.0845502
0.540352 0.630243 0.0540169
0.667262 0.604425 0.0263523
0.758236 0.588281 0.0187991
0.824552 0.576806 0.0165255
0.868772 0.564385 0.0155642
0.892515 0.550042 0.0167086
0.89514 0.543755 0.0368658
0.873487 0.559182 0.17261
0.835477 0.48304 0.19649
0.0149386 0.0010071 0.00154116
0.0149386 0.0010071 0.00154116
0.0149386 0.0010071 0.00154116
0.0149386 0.0010071 0.00154116
0.0149386 0.0010071 0.00154116
0.000183108 0.665293 0.415961
0.00015259 0.660166 0.407919
0.000137331 0.654917 0.400031
0.000106813 0.649805 0.392416
9.15541e-05 0.644511 0.384543
7.62951e-05 0.639323 0.376776
7.62951e-05 0.634043 0.369207
6.10361e-05 0.628641 0.361608
4.57771e-05 0.623178 0.353902
4.57771e-05 0.6177 0.346258
3.0518e-05 0.612238 0.33875
3.0518e-05 0.606973 0.331243
3.0518e-05 0.601556 0.323629
1.5259e-05 0.595636 0.316167
1.5259e-05 0.589883 0.308415
0.00311284 0.673106 0.258961
0.0683757 0.702281 0.239551
0.2159 0.707469 0.20058
0.384543 0.713817 0.179599
0.51252 0.71284 0.159777
0.618891 0.69897 0.127382
0.732357 0.677485 0.07953
0.812284 0.662989 0.064332
0.868284 0.652445 0.0615854
0.907088 0.641337 0.0629435
0.932479 0.630396 0.0718547
0.937667 0.631693 0.127291
0.888792 0.643534 0.316243
0.853849 0.540154 0.237293
0.0149386 0.0010071 0.00154116
0.0149386 0.0010071 0.00154116
0.0149386 0.0010071 0.00154116
0.0149386 0.0010071 0.00154116
0.000793469 0.716335 0.50016
0.000686656 0.711437 0.491814
0.000595102 0.706615 0.483665
0.000518807 0.701778 0.475517
0.000442512 0.696941 0.467353
0.000396735 0.692119 0.45919
0.000335698 0.687343 0.451087
0.000289921 0.682231 0.443076
0.000259403 0.677195 0.434928
0.000228885 0.672328 0.427085
0.000198367 0.667338 0.419181
0.000167849 0.662348 0.411337
0.000137331 0.657237 0.403449
0.000122072 0.65211 0.395804
0.000106813 0.646998 0.388113
9.15541e-05 0.641688 0.380163
0.00801099 0.730083 0.328084
0.109651 0.755917 0.312413
0.302831 0.765515 0.279973
0.47567 0.768597 0.258473
0.593668 0.76701 0.23946
0.687083 0.756695 0.20856
0.785977 0.737774 0.156268
0.853284 0.724559 0.142138
0.901015 0.715267 0.144106
0.936049 0.706447 0.152621
0.960494 0.701595 0.182879
0.967681 0.712291 0.284398
0.924361 0.678996 0.297398
0.86891 0.592691 0.280324
0.0149386 0.0010071 0.00154116
0.0149386 0.0010071 0.00154116
0.0149386 0.0010071 0.00154116
0.00335698 0.764141 0.582269
0.00292973 0.759457 0.574502
0.00254826 0.754772 0.566613
0.00221256 0.750179 0.558816
0.0019379 0.745602 0.55111
0.00169375 0.741115 0.543282
0.00146487 0.736568 0.535378
0.0012665 0.731853 0.527581
0.00111391 0.727398 0.519753
0.000961318 0.72282 0.51162
0.000839246 0.718196 0.503594
0.000732433 0.713588 0.49546
0.000640879 0.708873 0.487419
0.000549325 0.704021 0.479225
0.00047303 0.699306 0.471077
0.000411994 0.694453 0.462974
0.000366217 0.689647 0.454765
0.019852 0.777478 0.399619
0.169574 0.80238 0.386114
0.391928 0.812375 0.358343
0.559197 0.813245 0.336706
0.662959 0.811658 0.319265
0.743801 0.804242 0.291814
0.828931 0.7879 0.240177
0.885481 0.77641 0.23061
0.927932 0.768505 0.238636
0.960494 0.761959 0.260471
0.982513 0.767681 0.342626
0.978821 0.749767 0.327306
0.954269 0.713573 0.289113
0.881636 0.64097 0.325261
0.0149386 0.0010071 0.00154116
0.0149386 0.0010071 0.00154116
0.0183719 0.809552 0.659495
0.0152438 0.804944 0.651926
0.0126497 0.800351 0.644556
0.0104982 0.795956 0.637339
0.0087892 0.791592 0.630198
0.00746166 0.787366 0.622889
0.00636301 0.782986 0.615335
0.00544747 0.778653 0.607828
0.00471504 0.77438 0.60032
0.00410468 0.770092 0.592782
0.00357061 0.765896 0.585382
0.00311284 0.761532 0.577935
0.00271611 0.75697 0.570321
0.00238041 0.752499 0.562661
0.00207523 0.747875 0.55494
0.00181582 0.74345 0.547097
0.00157168 0.738903 0.539239
0.00135805 0.734188 0.531212
0.0414282 0.818418 0.47158
0.247578 0.84303 0.458335
0.479362 0.850401 0.431952
0.631128 0.850797 0.409552
0.722072 0.849241 0.393942
0.791379 0.842832 0.371344
0.862776 0.829068 0.323583
0.912764 0.819394 0.321752
0.951995 0.813046 0.338964
0.9823 0.810071 0.388571
0.988251 0.805402 0.417945
0.984985 0.784787 0.377676
0.97203 0.748547 0.313741
0.891463 0.685252 0.371115
0.0149386 0.0010071 0.00154116
0.125994 0.857816 0.735943
0.107271 0.852766 0.728313
0.090135 0.847791 0.72076
0.0741436 0.842969 0.713161
0.0610971 0.838224 0.705867
0.0505531 0.833646 0.698528
0.0420386 0.829175 0.691188
0.0348058 0.824598 0.683879
0.0289769 0.820188 0.676661
0.0239719 0.815839 0.669505
0.019852 0.811429 0.662364
0.0165408 0.806989 0.655238
0.0137484 0.802441 0.647929
0.0115358 0.798093 0.640787
0.00959792 0.793805 0.633799
0.0081178 0.789548 0.626551
0.00691234 0.78526 0.619242
0.00590524 0.78085 0.611658
0.00505074 0.77644 0.603998
0.0781109 0.854826 0.538857
0.339254 0.877317 0.527306
0.561807 0.881788 0.50161
0.696269 0.881697 0.479393
0.773129 0.880293 0.464652
0.829892 0.874891 0.445304
0.890944 0.863722 0.403479
0.937514 0.855314 0.411368
0.974838 0.850202 0.442908
0.991806 0.84712 0.488777
0.990875 0.835203 0.464866
0.988571 0.816526 0.426627
0.98117 0.782956 0.355825
0.899535 0.725048 0.418067
0.415946 0.906752 0.811917
0.377035 0.902022 0.804059
0.340932 0.897368 0.796674
