luts/usui_ao.cube
TITLE "usui_ao"
LUT_3D_SIZE 5
0.000000 0.058423 0.080479
0.160582 0.051250 0.070970
0.392867 0.044077 0.061461
0.625151 0.036904 0.051952
0.857436 0.029731 0.042443
0.000000 0.275429 0.045144
0.189950 0.268256 0.035635
0.422235 0.261083 0.026127
0.654520 0.253910 0.016618
0.886805 0.246737 0.007109
0.000000 0.492435 0.009810
0.219074 0.485628 0.000765
0.445138 0.487787 0.003077
0.671201 0.489947 0.005389
0.897265 0.492106 0.007701
0.000000 0.734511 0.006231
0.225752 0.736670 0.008543
0.451815 0.738829 0.010855
0.677879 0.740989 0.013167
0.903356 0.743148 0.015919
0.006366 0.985553 0.014009
0.229696 0.987712 0.018371
0.452441 0.989872 0.023172
0.675186 0.992031 0.027973
0.897931 0.994191 0.032774
0.000000 0.055487 0.337630
0.163702 0.048314 0.328122
0.395987 0.041141 0.318613
0.628272 0.033968 0.309104
0.860557 0.026795 0.299595
0.000000 0.272493 0.302296
0.193070 0.265320 0.292787
0.425355 0.258147 0.283278
0.657640 0.250974 0.273770
0.889925 0.243801 0.264261
0.000000 0.489499 0.266962
0.219749 0.486361 0.262564
0.445812 0.488521 0.264876
0.671875 0.490680 0.267189
0.897939 0.492840 0.269501
0.000363 0.735244 0.268030
0.226426 0.737403 0.270342
0.452489 0.739563 0.272655
0.678553 0.741722 0.274967
0.902725 0.743882 0.278697
0.006320 0.986286 0.276349
0.229065 0.988446 0.281149
0.451811 0.990605 0.285950
0.674556 0.992764 0.290751
0.897301 0.994924 0.295552
0.000000 0.052551 0.594782
0.166822 0.045378 0.585273
0.399107 0.038205 0.575765
0.631392 0.031032 0.566256
0.863677 0.023859 0.556747
0.000000 0.269557 0.559448
0.196191 0.262384 0.549939
0.428476 0.255211 0.540430
0.660760 0.248038 0.530921
0.891935 0.242531 0.523522
0.000000 0.486563 0.524114
0.220423 0.487095 0.524364
0.446486 0.489254 0.526676
0.672549 0.491413 0.528988
0.898613 0.493573 0.531300
0.001037 0.735977 0.529830
0.227100 0.738137 0.532142
0.453164 0.740296 0.534454
0.679227 0.742456 0.536766
0.902095 0.744615 0.541475
0.005690 0.987019 0.539127
0.228435 0.989179 0.543928
0.451180 0.991338 0.548728
0.673925 0.993498 0.553529
0.896670 0.995657 0.558330
0.000000 0.049615 0.851934
0.169943 0.042442 0.842425
0.402228 0.035269 0.832916
0.634512 0.028096 0.823408
0.866797 0.020924 0.813899
0.000000 0.266621 0.816600
0.199311 0.259448 0.807091
0.431596 0.252275 0.797582
0.663881 0.245102 0.788073
0.892609 0.243264 0.785322
0.000000 0.485668 0.783851
0.221097 0.487828 0.786163
0.447160 0.489987 0.788476
0.673223 0.492147 0.790788
0.899287 0.494306 0.793100
0.001711 0.736711 0.791630
0.227774 0.738870 0.793942
0.453838 0.741030 0.796254
0.678719 0.743189 0.799453
0.901464 0.745348 0.804253
0.005059 0.987753 0.801905
0.227804 0.989912 0.806706
0.450549 0.992072 0.811506
0.673295 0.994231 0.816307
0.896040 0.996391 0.821108
0.000000 0.046679 1.000000
0.173063 0.039506 1.000000
0.405348 0.032333 1.000000
0.637633 0.025160 1.000000
0.869918 0.017988 1.000000
0.000000 0.263685 1.000000
0.202431 0.256512 1.000000
0.434716 0.249339 1.000000
0.667001 0.242166 1.000000
0.893283 0.243997 1.000000
0.000000 0.486402 1.000000
0.221771 0.488561 1.000000
0.447834 0.490721 1.000000
0.673898 0.492880 1.000000
0.899961 0.495040 1.000000
0.002385 0.737444 1.000000
0.228448 0.739603 1.000000
0.454512 0.741763 1.000000
0.678088 0.743922 1.000000
0.900834 0.746082 1.000000
0.004428 0.988486 1.000000
0.227174 0.990646 1.000000
0.449919 0.992805 1.000000
0.672664 0.994965 1.000000
0.895409 0.997124 1.000000
