luts/usui_ao.cube
TITLE "usui_ao"
LUT_3D_SIZE 9
0.000000 0.058423 0.080479
0.044439 0.054836 0.075724
0.160582 0.051250 0.070970
0.276724 0.047664 0.066215
0.392867 0.044077 0.061461
0.509009 0.040491 0.056707
0.625151 0.036904 0.051952
0.741294 0.033318 0.047198
0.857436 0.029731 0.042443
0.000000 0.166926 0.062811
0.059123 0.163339 0.058057
0.175266 0.159753 0.053303
0.291408 0.156167 0.048548
0.407551 0.152580 0.043794
0.523693 0.148994 0.039039
0.639836 0.145407 0.034285
0.755978 0.141821 0.029531
0.872121 0.138234 0.024776
0.000000 0.275429 0.045144
0.073808 0.271842 0.040390
0.189950 0.268256 0.035635
0.306092 0.264670 0.030881
0.422235 0.261083 0.026127
0.538377 0.257497 0.021372
0.654520 0.253910 0.016618
0.770662 0.250324 0.011863
0.886805 0.246737 0.007109
0.000000 0.383932 0.027477
0.088492 0.380345 0.022723
0.204634 0.376759 0.017968
0.320777 0.373173 0.013214
0.436919 0.369586 0.008460
0.553062 0.366000 0.003705
0.667862 0.364426 0.001500
0.780894 0.365505 0.002656
0.893926 0.366585 0.003812
0.000000 0.492435 0.009810
0.103176 0.488848 0.005056
0.219074 0.485628 0.000765
0.332106 0.486708 0.001921
0.445138 0.487787 0.003077
0.558169 0.488867 0.004233
0.671201 0.489947 0.005389
0.784233 0.491026 0.006545
0.897265 0.492106 0.007701
0.000000 0.608989 0.002342
0.109382 0.610069 0.003498
0.222413 0.611149 0.004654
0.335445 0.612229 0.005810
0.448477 0.613308 0.006966
0.561508 0.614388 0.008122
0.674540 0.615468 0.009278
0.787572 0.616548 0.010434
0.900603 0.617627 0.011590
0.000000 0.734511 0.006231
0.112720 0.735590 0.007387
0.225752 0.736670 0.008543
0.338784 0.737750 0.009699
0.451815 0.738829 0.010855
0.564847 0.739909 0.012011
0.677879 0.740989 0.013167
0.790910 0.742069 0.014323
0.903356 0.743148 0.015919
0.003027 0.860032 0.010120
0.116059 0.861111 0.011276
0.229091 0.862191 0.012432
0.342122 0.863271 0.013588
0.455153 0.864351 0.014745
0.566526 0.865430 0.017145
0.677898 0.866510 0.019546
0.789271 0.867590 0.021946
0.900644 0.868669 0.024346
0.006366 0.985553 0.014009
0.118323 0.986632 0.015971
0.229696 0.987712 0.018371
0.341068 0.988792 0.020772
0.452441 0.989872 0.023172
0.563814 0.990951 0.025572
0.675186 0.992031 0.027973
0.786559 0.993111 0.030373
0.897931 0.994191 0.032774
0.000000 0.056955 0.209055
0.045999 0.053368 0.204300
0.162142 0.049782 0.199546
0.278284 0.046196 0.194791
0.394427 0.042609 0.190037
0.510569 0.039023 0.185283
0.626712 0.035436 0.180528
0.742854 0.031850 0.175774
0.858997 0.028263 0.171019
0.000000 0.165458 0.191387
0.060684 0.161871 0.186633
0.176826 0.158285 0.181879
0.292968 0.154699 0.177124
0.409111 0.151112 0.172370
0.525253 0.147526 0.167615
0.641396 0.143939 0.162861
0.757538 0.140353 0.158107
0.873681 0.136766 0.153352
0.000000 0.273961 0.173720
0.075368 0.270374 0.168966
0.191510 0.266788 0.164211
0.307653 0.263202 0.159457
0.423795 0.259615 0.154703
0.539938 0.256029 0.149948
0.656080 0.252442 0.145194
0.772222 0.248856 0.140439
0.888365 0.245269 0.135685
0.000000 0.382464 0.156053
0.090052 0.378877 0.151299
0.206194 0.375291 0.146544
0.322337 0.371705 0.141790
0.438479 0.368118 0.137035
0.554622 0.364532 0.132281
0.668199 0.364792 0.132400
0.781231 0.365872 0.133556
0.894263 0.366952 0.134712
0.000000 0.490967 0.138386
0.104736 0.487380 0.133631
0.219411 0.485994 0.131664
0.332443 0.487074 0.132820
0.445475 0.488154 0.133977
0.558507 0.489234 0.135133
0.671538 0.490313 0.136289
0.784570 0.491393 0.137445
0.897602 0.492473 0.138601
0.000000 0.609356 0.133241
0.109719 0.610436 0.134397
0.222750 0.611516 0.135554
0.335782 0.612595 0.136710
0.448814 0.613675 0.137866
0.561845 0.614755 0.139022
0.674877 0.615835 0.140178
0.787909 0.616914 0.141334
0.900940 0.617994 0.142490
0.000026 0.734877 0.137130
0.113057 0.735957 0.138287
0.226089 0.737037 0.139443
0.339121 0.738116 0.140599
0.452152 0.739196 0.141755
0.565184 0.740276 0.142911
0.678216 0.741356 0.144067
0.791247 0.742435 0.145223
0.903040 0.743515 0.147308
0.003364 0.860398 0.141020
0.116396 0.861478 0.142176
0.229428 0.862558 0.143332
0.342459 0.863637 0.144488
0.454838 0.864717 0.146134
0.566211 0.865797 0.148534
0.677583 0.866877 0.150935
0.788956 0.867956 0.153335
0.900328 0.869036 0.155735
0.006635 0.985919 0.144960
0.118008 0.986999 0.147360
0.229381 0.988079 0.149760
0.340753 0.989159 0.152161
0.452126 0.990238 0.154561
0.563498 0.991318 0.156962
0.674871 0.992398 0.159362
0.786244 0.993477 0.161762
0.897616 0.994557 0.164163
0.000000 0.055487 0.337630
0.047560 0.051901 0.332876
0.163702 0.048314 0.328122
0.279844 0.044728 0.323367
0.395987 0.041141 0.318613
0.512129 0.037555 0.313858
0.628272 0.033968 0.309104
0.744414 0.030382 0.304350
0.860557 0.026795 0.299595
0.000000 0.163990 0.319963
0.062244 0.160403 0.315209
0.178386 0.156817 0.310454
0.294529 0.153231 0.305700
0.410671 0.149644 0.300946
0.526814 0.146058 0.296191
0.642956 0.142471 0.291437
0.759098 0.138885 0.286682
0.875241 0.135298 0.281928
0.000000 0.272493 0.302296
0.076928 0.268906 0.297542
0.193070 0.265320 0.292787
0.309213 0.261734 0.288033
0.425355 0.258147 0.283278
0.541498 0.254561 0.278524
0.657640 0.250974 0.273770
0.773783 0.247388 0.269015
0.889925 0.243801 0.264261
0.000000 0.380996 0.284629
0.091612 0.377409 0.279875
0.207755 0.373823 0.275120
0.323897 0.370237 0.270366
0.440039 0.366650 0.265611
0.555505 0.364079 0.262143
0.668536 0.365159 0.263299
0.781568 0.366239 0.264455
0.894600 0.367318 0.265612
0.000000 0.489499 0.266962
0.106296 0.485912 0.262207
0.219749 0.486361 0.262564
0.332780 0.487441 0.263720
0.445812 0.488521 0.264876
0.558844 0.489600 0.266032
0.671875 0.490680 0.267189
0.784907 0.491760 0.268345
0.897939 0.492840 0.269501
0.000000 0.609723 0.264141
0.110056 0.610803 0.265297
0.223087 0.611882 0.266453
0.336119 0.612962 0.267609
0.449151 0.614042 0.268765
0.562182 0.615121 0.269922
0.675214 0.616201 0.271078
0.788246 0.617281 0.272234
0.901277 0.618361 0.273390
0.000363 0.735244 0.268030
0.113394 0.736324 0.269186
0.226426 0.737403 0.270342
0.339458 0.738483 0.271499
0.452489 0.739563 0.272655
0.565521 0.740643 0.273811
0.678553 0.741722 0.274967
0.791353 0.742802 0.276297
0.902725 0.743882 0.278697
0.003701 0.860765 0.271919
0.116733 0.861845 0.273075
0.229765 0.862924 0.274232
0.342797 0.864004 0.275388
0.454523 0.865084 0.277523
0.565895 0.866164 0.279923
0.677268 0.867243 0.282324
0.788640 0.868323 0.284724
0.900013 0.869403 0.287124
0.006320 0.986286 0.276349
0.117693 0.987366 0.278749
0.229065 0.988446 0.281149
0.340438 0.989525 0.283550
0.451811 0.990605 0.285950
0.563183 0.991685 0.288351
0.674556 0.992764 0.290751
0.785928 0.993844 0.293151
0.897301 0.994924 0.295552
0.000000 0.054019 0.466206
0.049120 0.050433 0.461452
0.165262 0.046846 0.456698
0.281405 0.043260 0.451943
0.397547 0.039673 0.447189
0.513690 0.036087 0.442434
0.629832 0.032500 0.437680
0.745974 0.028914 0.432926
0.862117 0.025327 0.428171
0.000000 0.162522 0.448539
0.063804 0.158936 0.443785
0.179946 0.155349 0.439030
0.296089 0.151763 0.434276
0.412231 0.148176 0.429522
0.528374 0.144590 0.424767
0.644516 0.141003 0.420013
0.760659 0.137417 0.415258
0.876801 0.133830 0.410504
0.000000 0.271025 0.430872
0.078488 0.267438 0.426118
0.194630 0.263852 0.421363
0.310773 0.260266 0.416609
0.426915 0.256679 0.411854
0.543058 0.253093 0.407100
0.659200 0.249506 0.402346
0.775343 0.245920 0.397591
0.891485 0.242333 0.392837
0.000000 0.379528 0.413205
0.093172 0.375941 0.408450
0.209315 0.372355 0.403696
0.325457 0.368769 0.398942
0.441600 0.365182 0.394187
0.555842 0.364446 0.393043
0.668874 0.365526 0.394199
0.781905 0.366605 0.395355
0.894937 0.367685 0.396511
0.000000 0.488031 0.395538
0.107054 0.485648 0.392308
0.220086 0.486728 0.393464
0.333117 0.487808 0.394620
0.446149 0.488887 0.395776
0.559181 0.489967 0.396932
0.672212 0.491047 0.398088
0.785244 0.492127 0.399244
0.898276 0.493206 0.400400
0.000000 0.610089 0.395041
0.110393 0.611169 0.396197
0.223424 0.612249 0.397353
0.336456 0.613329 0.398509
0.449488 0.614408 0.399665
0.562519 0.615488 0.400821
0.675551 0.616568 0.401977
0.788583 0.617648 0.403134
0.901614 0.618727 0.404290
0.000700 0.735611 0.398930
0.113731 0.736690 0.400086
0.226763 0.737770 0.401242
0.339795 0.738850 0.402398
0.452826 0.739929 0.403554
0.565858 0.741009 0.404710
0.678890 0.742089 0.405867
0.791037 0.743169 0.407686
0.902410 0.744248 0.410086
0.004039 0.861132 0.402819
0.117070 0.862211 0.403975
0.230102 0.863291 0.405131
0.342835 0.864371 0.406512
0.454207 0.865451 0.408912
0.565580 0.866530 0.411312
0.676953 0.867610 0.413713
0.788325 0.868690 0.416113
0.899698 0.869770 0.418514
0.006005 0.986653 0.407738
0.117377 0.987732 0.410138
0.228750 0.988812 0.412538
0.340123 0.989892 0.414939
0.451495 0.990972 0.417339
0.562868 0.992051 0.419740
0.674240 0.993131 0.422140
0.785613 0.994211 0.424540
0.896986 0.995291 0.426941
0.000000 0.052551 0.594782
0.050680 0.048965 0.590028
0.166822 0.045378 0.585273
0.282965 0.041792 0.580519
0.399107 0.038205 0.575765
0.515250 0.034619 0.571010
0.631392 0.031032 0.566256
0.747535 0.027446 0.561501
0.863677 0.023859 0.556747
0.000000 0.161054 0.577115
0.065364 0.157468 0.572361
0.181506 0.153881 0.567606
0.297649 0.150295 0.562852
0.413791 0.146708 0.558097
0.529934 0.143122 0.553343
0.646076 0.139535 0.548589
0.762219 0.135949 0.543834
0.878361 0.132362 0.539080
0.000000 0.269557 0.559448
0.080048 0.265970 0.554693
0.196191 0.262384 0.549939
0.312333 0.258798 0.545185
0.428476 0.255211 0.540430
0.544618 0.251625 0.535676
0.660760 0.248038 0.530921
0.776903 0.244452 0.526167
0.891935 0.242531 0.523522
0.000000 0.378060 0.541781
0.094732 0.374473 0.537026
0.210875 0.370887 0.532272
0.327017 0.367301 0.527518
0.443147 0.363733 0.522787
0.556179 0.364813 0.523943
0.669211 0.365892 0.525099
0.782242 0.366972 0.526255
0.895274 0.368052 0.527411
0.000000 0.486563 0.524114
0.107391 0.486015 0.523208
0.220423 0.487095 0.524364
0.333454 0.488174 0.525520
0.446486 0.489254 0.526676
0.559518 0.490334 0.527832
0.672549 0.491413 0.528988
0.785581 0.492493 0.530144
0.898613 0.493573 0.531300
0.000000 0.610456 0.525941
0.110730 0.611536 0.527097
0.223761 0.612616 0.528253
0.336793 0.613695 0.529409
0.449825 0.614775 0.530565
0.562856 0.615855 0.531721
0.675888 0.616935 0.532877
0.788920 0.618014 0.534033
0.901951 0.619094 0.535189
0.001037 0.735977 0.529830
0.114068 0.737057 0.530986
0.227100 0.738137 0.532142
0.340132 0.739216 0.533298
0.453164 0.740296 0.534454
0.566195 0.741376 0.535610
0.679227 0.742456 0.536766
0.790722 0.743535 0.539075
0.902095 0.744615 0.541475
0.004376 0.861498 0.533719
0.117407 0.862578 0.534875
0.230439 0.863658 0.536031
0.342519 0.864738 0.537901
0.453892 0.865817 0.540301
0.565265 0.866897 0.542701
0.676637 0.867977 0.545102
0.788010 0.869056 0.547502
0.899382 0.870136 0.549903
0.005690 0.987019 0.539127
0.117062 0.988099 0.541527
0.228435 0.989179 0.543928
0.339807 0.990259 0.546328
0.451180 0.991338 0.548728
0.562553 0.992418 0.551129
0.673925 0.993498 0.553529
0.785298 0.994578 0.555929
0.896670 0.995657 0.558330
0.000000 0.051083 0.723358
0.052240 0.047497 0.718604
0.168382 0.043910 0.713849
0.284525 0.040324 0.709095
0.400667 0.036737 0.704341
0.516810 0.033151 0.699586
0.632952 0.029564 0.694832
0.749095 0.025978 0.690077
0.865237 0.022392 0.685323
0.000000 0.159586 0.705691
0.066924 0.156000 0.700937
0.183067 0.152413 0.696182
0.299209 0.148827 0.691428
0.415352 0.145240 0.686673
0.531494 0.141654 0.681919
0.647636 0.138067 0.677165
0.763779 0.134481 0.672410
0.879921 0.130894 0.667656
0.000000 0.268089 0.688024
0.081608 0.264503 0.683269
0.197751 0.260916 0.678515
0.313893 0.257330 0.673761
0.430036 0.253743 0.669006
0.546178 0.250157 0.664252
0.662321 0.246570 0.659497
0.778463 0.242984 0.654743
0.892272 0.242897 0.654422
0.000000 0.376592 0.670357
0.096293 0.373005 0.665602
0.212435 0.369419 0.660848
0.328577 0.365833 0.656093
0.443484 0.364100 0.653687
0.556516 0.365179 0.654843
0.669548 0.366259 0.655999
0.782579 0.367339 0.657155
0.895611 0.368419 0.658311
0.000000 0.485302 0.652952
0.107728 0.486381 0.654108
0.220760 0.487461 0.655264
0.333791 0.488541 0.656420
0.446823 0.489621 0.657576
0.559855 0.490700 0.658732
0.672886 0.491780 0.659888
0.785918 0.492860 0.661044
0.898950 0.493940 0.662200
0.000000 0.610823 0.656841
0.111067 0.611903 0.657997
0.224098 0.612982 0.659153
0.337130 0.614062 0.660309
0.450162 0.615142 0.661465
0.563194 0.616221 0.662621
0.676225 0.617301 0.663777
0.789257 0.618381 0.664933
0.902289 0.619461 0.666089
0.001374 0.736344 0.660730
0.114406 0.737424 0.661886
0.227437 0.738503 0.663042
0.340469 0.739583 0.664198
0.453501 0.740663 0.665354
0.566532 0.741743 0.666510
0.679034 0.742822 0.668064
0.790407 0.743902 0.670464
0.901779 0.744982 0.672864
0.004713 0.861865 0.664619
0.117744 0.862945 0.665775
0.230776 0.864024 0.666931
0.342204 0.865104 0.669290
0.453577 0.866184 0.671690
0.564949 0.867264 0.674090
0.676322 0.868343 0.676491
0.787695 0.869423 0.678891
0.899067 0.870503 0.681292
0.005374 0.987386 0.670516
0.116747 0.988466 0.672916
0.228119 0.989546 0.675317
0.339492 0.990625 0.677717
0.450865 0.991705 0.680117
0.562237 0.992785 0.682518
0.673610 0.993864 0.684918
0.784982 0.994944 0.687319
0.896355 0.996024 0.689719
0.000000 0.049615 0.851934
0.053800 0.046029 0.847180
0.169943 0.042442 0.842425
0.286085 0.038856 0.837671
0.402228 0.035269 0.832916
0.518370 0.031683 0.828162
0.634512 0.028096 0.823408
0.750655 0.024510 0.818653
0.866797 0.020924 0.813899
0.000000 0.158118 0.834267
0.068484 0.154532 0.829512
0.184627 0.150945 0.824758
0.300769 0.147359 0.820004
0.416912 0.143772 0.815249
0.533054 0.140186 0.810495
0.649197 0.136599 0.805740
0.765339 0.133013 0.800986
0.881482 0.129427 0.796232
0.000000 0.266621 0.816600
0.083169 0.263035 0.811845
0.199311 0.259448 0.807091
0.315453 0.255862 0.802336
0.431596 0.252275 0.797582
0.547738 0.248689 0.792828
0.663881 0.245102 0.788073
0.779578 0.242184 0.784166
0.892609 0.243264 0.785322
0.000000 0.375124 0.798933
0.097853 0.371537 0.794178
0.213995 0.367951 0.789424
0.330138 0.364365 0.784669
0.443821 0.364466 0.784587
0.556853 0.365546 0.785743
0.669885 0.366626 0.786899
0.782916 0.367705 0.788055
0.895948 0.368785 0.789211
0.000000 0.485668 0.783851
0.108065 0.486748 0.785007
0.221097 0.487828 0.786163
0.334128 0.488908 0.787320
0.447160 0.489987 0.788476
0.560192 0.491067 0.789632
0.673223 0.492147 0.790788
0.786255 0.493227 0.791944
0.899287 0.494306 0.793100
0.000000 0.611190 0.787740
0.111404 0.612269 0.788897
0.224436 0.613349 0.790053
0.337467 0.614429 0.791209
0.450499 0.615508 0.792365
0.563531 0.616588 0.793521
0.676562 0.617668 0.794677
0.789594 0.618748 0.795833
0.902626 0.619827 0.796989
0.001711 0.736711 0.791630
0.114743 0.737790 0.792786
0.227774 0.738870 0.793942
0.340806 0.739950 0.795098
0.453838 0.741030 0.796254
0.566869 0.742109 0.797410
0.678719 0.743189 0.799453
0.790091 0.744269 0.801853
0.901464 0.745348 0.804253
0.005050 0.862232 0.795519
0.118081 0.863311 0.796675
0.230516 0.864391 0.798278
0.341889 0.865471 0.800679
0.453262 0.866551 0.803079
0.564634 0.867630 0.805480
0.676007 0.868710 0.807880
0.787379 0.869790 0.810280
0.898752 0.870870 0.812681
0.005059 0.987753 0.801905
0.116432 0.988833 0.804305
0.227804 0.989912 0.806706
0.339177 0.990992 0.809106
0.450549 0.992072 0.811506
0.561922 0.993151 0.813907
0.673295 0.994231 0.816307
0.784667 0.995311 0.818708
0.896040 0.996391 0.821108
0.000000 0.048147 0.980510
0.055360 0.044561 0.975756
0.171503 0.040974 0.971001
0.287645 0.037388 0.966247
0.403788 0.033801 0.961492
0.519930 0.030215 0.956738
0.636073 0.026628 0.951984
0.752215 0.023042 0.947229
0.868358 0.019456 0.942475
0.000000 0.156650 0.962843
0.070044 0.153064 0.958088
0.186187 0.149477 0.953334
0.302329 0.145891 0.948580
0.418472 0.142304 0.943825
0.534614 0.138718 0.939071
0.650757 0.135131 0.934316
0.766899 0.131545 0.929562
0.883042 0.127959 0.924808
0.000000 0.265153 0.945176
0.084729 0.261567 0.940421
0.200871 0.257980 0.935667
0.317014 0.254394 0.930912
0.433156 0.250807 0.926158
0.549299 0.247221 0.921404
0.665441 0.243634 0.916649
0.779915 0.242551 0.915065
0.892946 0.243631 0.916222
0.000000 0.373656 0.927508
0.099413 0.370070 0.922754
0.215555 0.366483 0.918000
0.331127 0.363753 0.914330
0.444158 0.364833 0.915486
0.557190 0.365913 0.916642
0.670222 0.366992 0.917798
0.783253 0.368072 0.918955
0.896285 0.369152 0.920111
0.000000 0.486035 0.914751
0.108402 0.487115 0.915907
0.221434 0.488195 0.917063
0.334465 0.489274 0.918219
0.447497 0.490354 0.919375
0.560529 0.491434 0.920532
0.673561 0.492514 0.921688
0.786592 0.493593 0.922844
0.899624 0.494673 0.924000
0.000000 0.611556 0.918640
0.111741 0.612636 0.919796
0.224773 0.613716 0.920952
0.337804 0.614795 0.922108
0.450836 0.615875 0.923265
0.563868 0.616955 0.924421
0.676899 0.618035 0.925577
0.789931 0.619114 0.926733
0.902963 0.620194 0.927889
0.002048 0.737077 0.922529
0.115080 0.738157 0.923685
0.228111 0.739237 0.924842
0.341143 0.740316 0.925998
0.454175 0.741396 0.927154
0.567031 0.742476 0.928441
0.678404 0.743556 0.930842
0.789776 0.744635 0.933242
0.901149 0.745715 0.935642
0.005387 0.862598 0.926418
0.118418 0.863678 0.927575
0.230201 0.864758 0.929667
0.341574 0.865838 0.932068
0.452946 0.866917 0.934468
0.564319 0.867997 0.936869
0.675691 0.869077 0.939269
0.787064 0.870156 0.941669
0.898437 0.871236 0.944070
0.004744 0.988119 0.933294
0.116116 0.989199 0.935694
0.227489 0.990279 0.938095
0.338862 0.991359 0.940495
0.450234 0.992438 0.942895
0.561607 0.993518 0.945296
0.672979 0.994598 0.947696
0.784352 0.995678 0.950097
0.895725 0.996757 0.952497
0.000000 0.046679 1.000000
0.056920 0.043093 1.000000
0.173063 0.039506 1.000000
0.289205 0.035920 1.000000
0.405348 0.032333 1.000000
0.521490 0.028747 1.000000
0.637633 0.025160 1.000000
0.753775 0.021574 1.000000
0.869918 0.017988 1.000000
0.000000 0.155182 1.000000
0.071605 0.151596 1.000000
0.187747 0.148009 1.000000
0.303890 0.144423 1.000000
0.420032 0.140836 1.000000
0.536174 0.137250 1.000000
0.652317 0.133663 1.000000
0.768459 0.130077 1.000000
0.884602 0.126491 1.000000
0.000000 0.263685 1.000000
0.086289 0.260099 1.000000
0.202431 0.256512 1.000000
0.318574 0.252926 1.000000
0.434716 0.249339 1.000000
0.550859 0.245753 1.000000
0.667001 0.242166 1.000000
0.780252 0.242918 1.000000
0.893283 0.243997 1.000000
0.000000 0.372188 1.000000
0.100973 0.368602 1.000000
0.217115 0.365015 1.000000
0.331464 0.364120 1.000000
0.444495 0.365200 1.000000
0.557527 0.366279 1.000000
0.670559 0.367359 1.000000
0.783590 0.368439 1.000000
0.896622 0.369519 1.000000
0.000000 0.486402 1.000000
0.108739 0.487482 1.000000
0.221771 0.488561 1.000000
0.334803 0.489641 1.000000
0.447834 0.490721 1.000000
0.560866 0.491800 1.000000
0.673898 0.492880 1.000000
0.786929 0.493960 1.000000
0.899961 0.495040 1.000000
0.000000 0.611923 1.000000
0.112078 0.613003 1.000000
0.225110 0.614082 1.000000
0.338141 0.615162 1.000000
0.451173 0.616242 1.000000
0.564205 0.617322 1.000000
0.677236 0.618401 1.000000
0.790268 0.619481 1.000000
0.903300 0.620561 1.000000
0.002385 0.737444 1.000000
0.115417 0.738524 1.000000
0.228448 0.739603 1.000000
0.341480 0.740683 1.000000
0.454512 0.741763 1.000000
0.566716 0.742843 1.000000
0.678088 0.743922 1.000000
0.789461 0.745002 1.000000
0.900834 0.746082 1.000000
0.005724 0.862965 1.000000
0.118513 0.864045 1.000000
0.229886 0.865125 1.000000
0.341258 0.866204 1.000000
0.452631 0.867284 1.000000
0.564004 0.868364 1.000000
0.675376 0.869443 1.000000
0.786749 0.870523 1.000000
0.898121 0.871603 1.000000
0.004428 0.988486 1.000000
0.115801 0.989566 1.000000
0.227174 0.990646 1.000000
0.338546 0.991725 1.000000
0.449919 0.992805 1.000000
0.561291 0.993885 1.000000
0.672664 0.994965 1.000000
0.784037 0.996044 1.000000
0.895409 0.997124 1.000000
