luts/usui_ao.cube
TITLE "usui_ao"
LUT_3D_SIZE 33
0.000000 0.058423 0.080479
0.000000 0.057526 0.079290
0.000000 0.056630 0.078101
0.015404 0.055733 0.076913
0.044439 0.054836 0.075724
0.073475 0.053940 0.074536
0.102510 0.053043 0.073347
0.131546 0.052147 0.072158
0.160582 0.051250 0.070970
0.189617 0.050353 0.069781
0.218653 0.049457 0.068593
0.247688 0.048560 0.067404
0.276724 0.047664 0.066215
0.305760 0.046767 0.065027
0.334795 0.045870 0.063838
0.363831 0.044974 0.062650
0.392867 0.044077 0.061461
0.421902 0.043181 0.060272
0.450938 0.042284 0.059084
0.479973 0.041387 0.057895
0.509009 0.040491 0.056707
0.538045 0.039594 0.055518
0.567080 0.038698 0.054329
0.596116 0.037801 0.053141
0.625151 0.036904 0.051952
0.654187 0.036008 0.050764
0.683223 0.035111 0.049575
0.712258 0.034214 0.048386
0.741294 0.033318 0.047198
0.770330 0.032421 0.046009
0.799365 0.031525 0.044821
0.828401 0.030628 0.043632
0.857436 0.029731 0.042443
0.000000 0.085549 0.076062
0.000000 0.084652 0.074873
0.000000 0.083755 0.073685
0.019075 0.082859 0.072496
0.048110 0.081962 0.071307
0.077146 0.081066 0.070119
0.106181 0.080169 0.068930
0.135217 0.079272 0.067742
0.164253 0.078376 0.066553
0.193288 0.077479 0.065364
0.222324 0.076583 0.064176
0.251360 0.075686 0.062987
0.280395 0.074789 0.061799
0.309431 0.073893 0.060610
0.338466 0.072996 0.059421
0.367502 0.072100 0.058233
0.396538 0.071203 0.057044
0.425573 0.070306 0.055856
0.454609 0.069410 0.054667
0.483644 0.068513 0.053478
0.512680 0.067616 0.052290
0.541716 0.066720 0.051101
0.570751 0.065823 0.049913
0.599787 0.064927 0.048724
0.628823 0.064030 0.047535
0.657858 0.063133 0.046347
0.686894 0.062237 0.045158
0.715929 0.061340 0.043970
0.744965 0.060444 0.042781
0.774001 0.059547 0.041592
0.803036 0.058650 0.040404
0.832072 0.057754 0.039215
0.861107 0.056857 0.038027
0.000000 0.112674 0.071645
0.000000 0.111778 0.070456
0.000000 0.110881 0.069268
0.022746 0.109985 0.068079
0.051781 0.109088 0.066891
0.080817 0.108191 0.065702
0.109853 0.107295 0.064513
0.138888 0.106398 0.063325
0.167924 0.105502 0.062136
0.196959 0.104605 0.060948
0.225995 0.103708 0.059759
0.255031 0.102812 0.058570
0.284066 0.101915 0.057382
0.313102 0.101018 0.056193
0.342137 0.100122 0.055005
0.371173 0.099225 0.053816
0.400209 0.098329 0.052627
0.429244 0.097432 0.051439
0.458280 0.096535 0.050250
0.487315 0.095639 0.049062
0.516351 0.094742 0.047873
0.545387 0.093846 0.046684
0.574422 0.092949 0.045496
0.603458 0.092052 0.044307
0.632494 0.091156 0.043119
0.661529 0.090259 0.041930
0.690565 0.089363 0.040741
0.719600 0.088466 0.039553
0.748636 0.087569 0.038364
0.777672 0.086673 0.037176
0.806707 0.085776 0.035987
0.835743 0.084880 0.034798
0.864778 0.083983 0.033610
0.000000 0.139800 0.067228
0.000000 0.138904 0.066040
0.000000 0.138007 0.064851
0.026417 0.137110 0.063662
0.055452 0.136214 0.062474
0.084488 0.135317 0.061285
0.113524 0.134420 0.060097
0.142559 0.133524 0.058908
0.171595 0.132627 0.057719
0.200630 0.131731 0.056531
0.229666 0.130834 0.055342
0.258702 0.129937 0.054154
0.287737 0.129041 0.052965
0.316773 0.128144 0.051776
0.345808 0.127248 0.050588
0.374844 0.126351 0.049399
0.403880 0.125454 0.048211
0.432915 0.124558 0.047022
0.461951 0.123661 0.045833
0.490987 0.122765 0.044645
0.520022 0.121868 0.043456
0.549058 0.120971 0.042268
0.578093 0.120075 0.041079
0.607129 0.119178 0.039890
0.636165 0.118282 0.038702
0.665200 0.117385 0.037513
0.694236 0.116488 0.036325
0.723271 0.115592 0.035136
0.752307 0.114695 0.033947
0.781343 0.113798 0.032759
0.810378 0.112902 0.031570
0.839414 0.112005 0.030382
0.868450 0.111109 0.029193
0.000000 0.166926 0.062811
0.000000 0.166029 0.061623
0.001052 0.165133 0.060434
0.030088 0.164236 0.059246
0.059123 0.163339 0.058057
0.088159 0.162443 0.056868
0.117195 0.161546 0.055680
0.146230 0.160650 0.054491
0.175266 0.159753 0.053303
0.204301 0.158856 0.052114
0.233337 0.157960 0.050925
0.262373 0.157063 0.049737
0.291408 0.156167 0.048548
0.320444 0.155270 0.047360
0.349480 0.154373 0.046171
0.378515 0.153477 0.044982
0.407551 0.152580 0.043794
0.436586 0.151684 0.042605
0.465622 0.150787 0.041417
0.494658 0.149890 0.040228
0.523693 0.148994 0.039039
0.552729 0.148097 0.037851
0.581764 0.147200 0.036662
0.610800 0.146304 0.035474
0.639836 0.145407 0.034285
0.668871 0.144511 0.033096
0.697907 0.143614 0.031908
0.726943 0.142717 0.030719
0.755978 0.141821 0.029531
0.785014 0.140924 0.028342
0.814049 0.140028 0.027153
0.843085 0.139131 0.025965
0.872121 0.138234 0.024776
0.000000 0.194052 0.058395
0.000000 0.193155 0.057206
0.004723 0.192258 0.056017
0.033759 0.191362 0.054829
0.062794 0.190465 0.053640
0.091830 0.189569 0.052452
0.120866 0.188672 0.051263
0.149901 0.187775 0.050074
0.178937 0.186879 0.048886
0.207972 0.185982 0.047697
0.237008 0.185086 0.046509
0.266044 0.184189 0.045320
0.295079 0.183292 0.044131
0.324115 0.182396 0.042943
0.353151 0.181499 0.041754
0.382186 0.180602 0.040566
0.411222 0.179706 0.039377
0.440257 0.178809 0.038188
0.469293 0.177913 0.037000
0.498329 0.177016 0.035811
0.527364 0.176119 0.034623
0.556400 0.175223 0.033434
0.585435 0.174326 0.032245
0.614471 0.173430 0.031057
0.643507 0.172533 0.029868
0.672542 0.171636 0.028680
0.701578 0.170740 0.027491
0.730614 0.169843 0.026302
0.759649 0.168947 0.025114
0.788685 0.168050 0.023925
0.817720 0.167153 0.022737
0.846756 0.166257 0.021548
0.875792 0.165360 0.020359
0.000000 0.221177 0.053978
0.000000 0.220281 0.052789
0.008394 0.219384 0.051601
0.037430 0.218488 0.050412
0.066465 0.217591 0.049223
0.095501 0.216694 0.048035
0.124537 0.215798 0.046846
0.153572 0.214901 0.045658
0.182608 0.214004 0.044469
0.211644 0.213108 0.043280
0.240679 0.212211 0.042092
0.269715 0.211315 0.040903
0.298750 0.210418 0.039715
0.327786 0.209521 0.038526
0.356822 0.208625 0.037337
0.385857 0.207728 0.036149
0.414893 0.206832 0.034960
0.443928 0.205935 0.033772
0.472964 0.205038 0.032583
0.502000 0.204142 0.031394
0.531035 0.203245 0.030206
0.560071 0.202349 0.029017
0.589107 0.201452 0.027829
0.618142 0.200555 0.026640
0.647178 0.199659 0.025451
0.676213 0.198762 0.024263
0.705249 0.197866 0.023074
0.734285 0.196969 0.021886
0.763320 0.196072 0.020697
0.792356 0.195176 0.019508
0.821391 0.194279 0.018320
0.850427 0.193382 0.017131
0.879463 0.192486 0.015943
0.000000 0.248303 0.049561
0.000000 0.247406 0.048372
0.012065 0.246510 0.047184
0.041101 0.245613 0.045995
0.070136 0.244717 0.044807
0.099172 0.243820 0.043618
0.128208 0.242923 0.042429
0.157243 0.242027 0.041241
0.186279 0.241130 0.040052
0.215315 0.240234 0.038864
0.244350 0.239337 0.037675
0.273386 0.238440 0.036486
0.302421 0.237544 0.035298
0.331457 0.236647 0.034109
0.360493 0.235751 0.032921
0.389528 0.234854 0.031732
0.418564 0.233957 0.030543
0.447599 0.233061 0.029355
0.476635 0.232164 0.028166
0.505671 0.231268 0.026978
0.534706 0.230371 0.025789
0.563742 0.229474 0.024600
0.592778 0.228578 0.023412
0.621813 0.227681 0.022223
0.650849 0.226784 0.021035
0.679884 0.225888 0.019846
0.708920 0.224991 0.018657
0.737956 0.224095 0.017469
0.766991 0.223198 0.016280
0.796027 0.222301 0.015092
0.825062 0.221405 0.013903
0.854098 0.220508 0.012714
0.883134 0.219612 0.011526
0.000000 0.275429 0.045144
0.000000 0.274532 0.043956
0.015736 0.273636 0.042767
0.044772 0.272739 0.041578
0.073808 0.271842 0.040390
0.102843 0.270946 0.039201
0.131879 0.270049 0.038013
0.160914 0.269153 0.036824
0.189950 0.268256 0.035635
0.218986 0.267359 0.034447
0.248021 0.266463 0.033258
0.277057 0.265566 0.032070
0.306092 0.264670 0.030881
0.335128 0.263773 0.029692
0.364164 0.262876 0.028504
0.393199 0.261980 0.027315
0.422235 0.261083 0.026127
0.451271 0.260186 0.024938
0.480306 0.259290 0.023749
0.509342 0.258393 0.022561
0.538377 0.257497 0.021372
0.567413 0.256600 0.020184
0.596449 0.255703 0.018995
0.625484 0.254807 0.017806
0.654520 0.253910 0.016618
0.683555 0.253014 0.015429
0.712591 0.252117 0.014241
0.741627 0.251220 0.013052
0.770662 0.250324 0.011863
0.799698 0.249427 0.010675
0.828734 0.248531 0.009486
0.857769 0.247634 0.008298
0.886805 0.246737 0.007109
0.000000 0.302555 0.040727
0.000000 0.301658 0.039539
0.019407 0.300761 0.038350
0.048443 0.299865 0.037162
0.077479 0.298968 0.035973
0.106514 0.298072 0.034784
0.135550 0.297175 0.033596
0.164585 0.296278 0.032407
0.193621 0.295382 0.031219
0.222657 0.294485 0.030030
0.251692 0.293589 0.028841
0.280728 0.292692 0.027653
0.309764 0.291795 0.026464
0.338799 0.290899 0.025276
0.367835 0.290002 0.024087
0.396870 0.289105 0.022898
0.425906 0.288209 0.021710
0.454942 0.287312 0.020521
0.483977 0.286416 0.019333
0.513013 0.285519 0.018144
0.542048 0.284622 0.016955
0.571084 0.283726 0.015767
0.600120 0.282829 0.014578
0.629155 0.281933 0.013390
0.658191 0.281036 0.012201
0.687226 0.280139 0.011012
0.716262 0.279243 0.009824
0.745298 0.278346 0.008635
0.774333 0.277450 0.007447
0.803369 0.276553 0.006258
0.832405 0.275656 0.005069
0.861440 0.274760 0.003881
0.890476 0.273863 0.002692
0.000000 0.329680 0.036311
0.000000 0.328784 0.035122
0.023078 0.327887 0.033934
0.052114 0.326991 0.032745
0.081150 0.326094 0.031556
0.110185 0.325197 0.030368
0.139221 0.324301 0.029179
0.168256 0.323404 0.027990
0.197292 0.322507 0.026802
0.226328 0.321611 0.025613
0.255363 0.320714 0.024425
0.284399 0.319818 0.023236
0.313435 0.318921 0.022047
0.342470 0.318024 0.020859
0.371506 0.317128 0.019670
0.400541 0.316231 0.018482
0.429577 0.315335 0.017293
0.458613 0.314438 0.016104
0.487648 0.313541 0.014916
0.516684 0.312645 0.013727
0.545719 0.311748 0.012539
0.574755 0.310852 0.011350
0.603791 0.309955 0.010161
0.632826 0.309058 0.008973
0.661862 0.308162 0.007784
0.690898 0.307265 0.006596
0.719933 0.306368 0.005407
0.748969 0.305472 0.004218
0.778004 0.304575 0.003030
0.807040 0.303679 0.001841
0.835741 0.303285 0.001289
0.863998 0.303555 0.001578
0.892256 0.303825 0.001867
0.000000 0.356806 0.031894
0.000000 0.355909 0.030705
0.026749 0.355013 0.029517
0.055785 0.354116 0.028328
0.084821 0.353220 0.027140
0.113856 0.352323 0.025951
0.142892 0.351426 0.024762
0.171928 0.350530 0.023574
0.200963 0.349633 0.022385
0.229999 0.348737 0.021197
0.259034 0.347840 0.020008
0.288070 0.346943 0.018819
0.317106 0.346047 0.017631
0.346141 0.345150 0.016442
0.375177 0.344254 0.015254
0.404212 0.343357 0.014065
0.433248 0.342460 0.012876
0.462284 0.341564 0.011688
0.491319 0.340667 0.010499
0.520355 0.339771 0.009310
0.549391 0.338874 0.008122
0.578426 0.337977 0.006933
0.607462 0.337081 0.005745
0.636497 0.336184 0.004556
0.665533 0.335287 0.003367
0.694569 0.334391 0.002179
0.723544 0.333585 0.001106
0.751801 0.333855 0.001395
0.780059 0.334125 0.001684
0.808317 0.334395 0.001973
0.836575 0.334665 0.002262
0.864833 0.334935 0.002551
0.893091 0.335205 0.002840
0.000000 0.383932 0.027477
0.001385 0.383035 0.026289
0.030420 0.382139 0.025100
0.059456 0.381242 0.023911
0.088492 0.380345 0.022723
0.117527 0.379449 0.021534
0.146563 0.378552 0.020346
0.175599 0.377656 0.019157
0.204634 0.376759 0.017968
0.233670 0.375862 0.016780
0.262705 0.374966 0.015591
0.291741 0.374069 0.014403
0.320777 0.373173 0.013214
0.349812 0.372276 0.012025
0.378848 0.371379 0.010837
0.407883 0.370483 0.009648
0.436919 0.369586 0.008460
0.465955 0.368689 0.007271
0.494990 0.367793 0.006082
0.524026 0.366896 0.004894
0.553062 0.366000 0.003705
0.582097 0.365103 0.002517
0.611133 0.364206 0.001328
0.639604 0.364156 0.001211
0.667862 0.364426 0.001500
0.696120 0.364696 0.001789
0.724378 0.364966 0.002078
0.752636 0.365235 0.002367
0.780894 0.365505 0.002656
0.809152 0.365775 0.002945
0.837410 0.366045 0.003234
0.865668 0.366315 0.003523
0.893926 0.366585 0.003812
0.000000 0.411058 0.023060
0.005056 0.410161 0.021872
0.034092 0.409264 0.020683
0.063127 0.408368 0.019495
0.092163 0.407471 0.018306
0.121198 0.406575 0.017117
0.150234 0.405678 0.015929
0.179270 0.404781 0.014740
0.208305 0.403885 0.013552
0.237341 0.402988 0.012363
0.266376 0.402091 0.011174
0.295412 0.401195 0.009986
0.324448 0.400298 0.008797
0.353483 0.399402 0.007609
0.382519 0.398505 0.006420
0.411555 0.397608 0.005231
0.440590 0.396712 0.004043
0.469626 0.395815 0.002854
0.498661 0.394919 0.001666
0.527407 0.394456 0.001027
0.555665 0.394726 0.001316
0.583923 0.394996 0.001605
0.612181 0.395266 0.001894
0.640439 0.395536 0.002183
0.668697 0.395806 0.002472
0.696955 0.396076 0.002761
0.725213 0.396346 0.003050
0.753471 0.396616 0.003339
0.781729 0.396886 0.003628
0.809987 0.397156 0.003917
0.838245 0.397426 0.004206
0.866503 0.397695 0.004495
0.894760 0.397965 0.004784
0.000000 0.438183 0.018644
0.008727 0.437287 0.017455
0.037763 0.436390 0.016266
0.066798 0.435493 0.015078
0.095834 0.434597 0.013889
0.124869 0.433700 0.012701
0.153905 0.432804 0.011512
0.182941 0.431907 0.010323
0.211976 0.431010 0.009135
0.241012 0.430114 0.007946
0.270048 0.429217 0.006758
0.299083 0.428321 0.005569
0.328119 0.427424 0.004380
0.357154 0.426527 0.003192
0.386190 0.425631 0.002003
0.415210 0.424757 0.000843
0.443468 0.425027 0.001132
0.471726 0.425297 0.001421
0.499984 0.425567 0.001710
0.528242 0.425837 0.001999
0.556500 0.426106 0.002288
0.584758 0.426376 0.002577
0.613016 0.426646 0.002866
0.641274 0.426916 0.003155
0.669532 0.427186 0.003444
0.697790 0.427456 0.003733
0.726048 0.427726 0.004022
0.754306 0.427996 0.004311
0.782563 0.428266 0.004600
0.810821 0.428536 0.004889
0.839079 0.428806 0.005178
0.867337 0.429076 0.005467
0.895595 0.429346 0.005757
0.000000 0.465309 0.014227
0.012398 0.464412 0.013038
0.041434 0.463516 0.011850
0.070469 0.462619 0.010661
0.099505 0.461723 0.009472
0.128540 0.460826 0.008284
0.157576 0.459929 0.007095
0.186612 0.459033 0.005907
0.215647 0.458136 0.004718
0.244683 0.457240 0.003529
0.273719 0.456343 0.002341
0.302754 0.455446 0.001152
0.331271 0.455327 0.000948
0.359529 0.455597 0.001237
0.387787 0.455867 0.001526
0.416045 0.456137 0.001815
0.444303 0.456407 0.002104
0.472561 0.456677 0.002394
0.500819 0.456947 0.002683
0.529077 0.457217 0.002972
0.557335 0.457487 0.003261
0.585593 0.457757 0.003550
0.613851 0.458027 0.003839
0.642109 0.458297 0.004128
0.670366 0.458566 0.004417
0.698624 0.458836 0.004706
0.726882 0.459106 0.004995
0.755140 0.459376 0.005284
0.783398 0.459646 0.005573
0.811656 0.459916 0.005862
0.839914 0.460186 0.006151
0.868172 0.460456 0.006440
0.896430 0.460726 0.006729
0.000000 0.492435 0.009810
0.016069 0.491538 0.008621
0.045105 0.490642 0.007433
0.074140 0.489745 0.006244
0.103176 0.488848 0.005056
0.132212 0.487952 0.003867
0.161247 0.487055 0.002678
0.190283 0.486159 0.001490
0.219074 0.485628 0.000765
0.247332 0.485898 0.001054
0.275590 0.486168 0.001343
0.303848 0.486438 0.001632
0.332106 0.486708 0.001921
0.360364 0.486977 0.002210
0.388622 0.487247 0.002499
0.416880 0.487517 0.002788
0.445138 0.487787 0.003077
0.473396 0.488057 0.003366
0.501654 0.488327 0.003655
0.529912 0.488597 0.003944
0.558169 0.488867 0.004233
0.586427 0.489137 0.004522
0.614685 0.489407 0.004811
0.642943 0.489677 0.005100
0.671201 0.489947 0.005389
0.699459 0.490217 0.005678
0.727717 0.490487 0.005967
0.755975 0.490757 0.006256
0.784233 0.491026 0.006545
0.812491 0.491296 0.006834
0.840749 0.491566 0.007123
0.869007 0.491836 0.007412
0.897265 0.492106 0.007701
0.000000 0.519561 0.005393
0.019740 0.518664 0.004205
0.048776 0.517767 0.003016
0.077811 0.516871 0.001827
0.106847 0.515974 0.000639
0.135135 0.516198 0.000870
0.163393 0.516468 0.001159
0.191651 0.516738 0.001448
0.219909 0.517008 0.001737
0.248167 0.517278 0.002026
0.276425 0.517548 0.002315
0.304683 0.517818 0.002604
0.332941 0.518088 0.002893
0.361199 0.518358 0.003182
0.389457 0.518628 0.003471
0.417715 0.518898 0.003760
0.445972 0.519168 0.004049
0.474230 0.519437 0.004338
0.502488 0.519707 0.004627
0.530746 0.519977 0.004916
0.559004 0.520247 0.005205
0.587262 0.520517 0.005494
0.615520 0.520787 0.005783
0.643778 0.521057 0.006072
0.672036 0.521327 0.006361
0.700294 0.521597 0.006650
0.728552 0.521867 0.006939
0.756810 0.522137 0.007228
0.785068 0.522407 0.007517
0.813325 0.522677 0.007806
0.841583 0.522947 0.008095
0.869841 0.523217 0.008384
0.898099 0.523486 0.008673
0.000000 0.546686 0.000976
0.022938 0.546499 0.000686
0.051196 0.546769 0.000975
0.079454 0.547039 0.001264
0.107712 0.547309 0.001553
0.135970 0.547579 0.001842
0.164228 0.547848 0.002131
0.192486 0.548118 0.002420
0.220744 0.548388 0.002709
0.249002 0.548658 0.002998
0.277260 0.548928 0.003287
0.305518 0.549198 0.003576
0.333775 0.549468 0.003865
0.362033 0.549738 0.004154
0.390291 0.550008 0.004443
0.418549 0.550278 0.004732
0.446807 0.550548 0.005021
0.475065 0.550818 0.005310
0.503323 0.551088 0.005599
0.531581 0.551358 0.005888
0.559839 0.551628 0.006177
0.588097 0.551897 0.006466
0.616355 0.552167 0.006755
0.644613 0.552437 0.007044
0.672871 0.552707 0.007333
0.701128 0.552977 0.007622
0.729386 0.553247 0.007912
0.757644 0.553517 0.008201
0.785902 0.553787 0.008490
0.814160 0.554057 0.008779
0.842418 0.554327 0.009068
0.870676 0.554597 0.009357
0.898934 0.554867 0.009646
0.000000 0.577609 0.001369
0.023773 0.577879 0.001658
0.052031 0.578149 0.001947
0.080289 0.578419 0.002236
0.108547 0.578689 0.002525
0.136805 0.578959 0.002814
0.165063 0.579229 0.003103
0.193321 0.579499 0.003392
0.221579 0.579769 0.003681
0.249836 0.580039 0.003970
0.278094 0.580308 0.004259
0.306352 0.580578 0.004549
0.334610 0.580848 0.004838
0.362868 0.581118 0.005127
0.391126 0.581388 0.005416
0.419384 0.581658 0.005705
0.447642 0.581928 0.005994
0.475900 0.582198 0.006283
0.504158 0.582468 0.006572
0.532416 0.582738 0.006861
0.560674 0.583008 0.007150
0.588931 0.583278 0.007439
0.617189 0.583548 0.007728
0.645447 0.583818 0.008017
0.673705 0.584088 0.008306
0.701963 0.584357 0.008595
0.730221 0.584627 0.008884
0.758479 0.584897 0.009173
0.786737 0.585167 0.009462
0.814995 0.585437 0.009751
0.843253 0.585707 0.010040
0.871511 0.585977 0.010329
0.899769 0.586247 0.010618
0.000000 0.608989 0.002342
0.024608 0.609259 0.002631
0.052866 0.609529 0.002920
0.081124 0.609799 0.003209
0.109382 0.610069 0.003498
0.137639 0.610339 0.003787
0.165897 0.610609 0.004076
0.194155 0.610879 0.004365
0.222413 0.611149 0.004654
0.250671 0.611419 0.004943
0.278929 0.611689 0.005232
0.307187 0.611959 0.005521
0.335445 0.612229 0.005810
0.363703 0.612499 0.006099
0.391961 0.612768 0.006388
0.420219 0.613038 0.006677
0.448477 0.613308 0.006966
0.476734 0.613578 0.007255
0.504992 0.613848 0.007544
0.533250 0.614118 0.007833
0.561508 0.614388 0.008122
0.589766 0.614658 0.008411
0.618024 0.614928 0.008700
0.646282 0.615198 0.008989
0.674540 0.615468 0.009278
0.702798 0.615738 0.009567
0.731056 0.616008 0.009856
0.759314 0.616278 0.010145
0.787572 0.616548 0.010434
0.815830 0.616817 0.010723
0.844087 0.617087 0.011012
0.872345 0.617357 0.011301
0.900603 0.617627 0.011590
0.000000 0.640370 0.003314
0.025442 0.640640 0.003603
0.053700 0.640910 0.003892
0.081958 0.641180 0.004181
0.110216 0.641449 0.004470
0.138474 0.641719 0.004759
0.166732 0.641989 0.005048
0.194990 0.642259 0.005337
0.223248 0.642529 0.005626
0.251506 0.642799 0.005915
0.279764 0.643069 0.006204
0.308022 0.643339 0.006493
0.336280 0.643609 0.006782
0.364537 0.643879 0.007071
0.392795 0.644149 0.007360
0.421053 0.644419 0.007649
0.449311 0.644689 0.007938
0.477569 0.644959 0.008227
0.505827 0.645228 0.008516
0.534085 0.645498 0.008805
0.562343 0.645768 0.009094
0.590601 0.646038 0.009383
0.618859 0.646308 0.009672
0.647117 0.646578 0.009961
0.675375 0.646848 0.010250
0.703633 0.647118 0.010539
0.731890 0.647388 0.010828
0.760148 0.647658 0.011117
0.788406 0.647928 0.011406
0.816664 0.648198 0.011695
0.844922 0.648468 0.011984
0.873180 0.648738 0.012273
0.901438 0.649008 0.012562
0.000000 0.671750 0.004286
0.026277 0.672020 0.004575
0.054535 0.672290 0.004864
0.082793 0.672560 0.005153
0.111051 0.672830 0.005442
0.139309 0.673100 0.005731
0.167567 0.673370 0.006020
0.195825 0.673640 0.006309
0.224083 0.673909 0.006598
0.252341 0.674179 0.006887
0.280598 0.674449 0.007176
0.308856 0.674719 0.007465
0.337114 0.674989 0.007754
0.365372 0.675259 0.008043
0.393630 0.675529 0.008332
0.421888 0.675799 0.008621
0.450146 0.676069 0.008910
0.478404 0.676339 0.009199
0.506662 0.676609 0.009488
0.534920 0.676879 0.009777
0.563178 0.677149 0.010067
0.591436 0.677419 0.010356
0.619693 0.677688 0.010645
0.647951 0.677958 0.010934
0.676209 0.678228 0.011223
0.704467 0.678498 0.011512
0.732725 0.678768 0.011801
0.760983 0.679038 0.012090
0.789241 0.679308 0.012379
0.817499 0.679578 0.012668
0.845757 0.679848 0.012957
0.874015 0.680118 0.013246
0.902273 0.680388 0.013535
0.000000 0.703130 0.005258
0.027112 0.703400 0.005547
0.055370 0.703670 0.005836
0.083628 0.703940 0.006125
0.111886 0.704210 0.006414
0.140144 0.704480 0.006704
0.168401 0.704750 0.006993
0.196659 0.705020 0.007282
0.224917 0.705290 0.007571
0.253175 0.705560 0.007860
0.281433 0.705830 0.008149
0.309691 0.706100 0.008438
0.337949 0.706369 0.008727
0.366207 0.706639 0.009016
0.394465 0.706909 0.009305
0.422723 0.707179 0.009594
0.450981 0.707449 0.009883
0.479239 0.707719 0.010172
0.507496 0.707989 0.010461
0.535754 0.708259 0.010750
0.564012 0.708529 0.011039
0.592270 0.708799 0.011328
0.620528 0.709069 0.011617
0.648786 0.709339 0.011906
0.677044 0.709609 0.012195
0.705302 0.709879 0.012484
0.733560 0.710149 0.012773
0.761818 0.710418 0.013062
0.790076 0.710688 0.013351
0.818334 0.710958 0.013640
0.846592 0.711228 0.013929
0.874849 0.711498 0.014218
0.903107 0.711768 0.014507
0.000000 0.734511 0.006231
0.027947 0.734780 0.006520
0.056204 0.735050 0.006809
0.084462 0.735320 0.007098
0.112720 0.735590 0.007387
0.140978 0.735860 0.007676
0.169236 0.736130 0.007965
0.197494 0.736400 0.008254
0.225752 0.736670 0.008543
0.254010 0.736940 0.008832
0.282268 0.737210 0.009121
0.310526 0.737480 0.009410
0.338784 0.737750 0.009699
0.367042 0.738020 0.009988
0.395299 0.738290 0.010277
0.423557 0.738560 0.010566
0.451815 0.738829 0.010855
0.480073 0.739099 0.011144
0.508331 0.739369 0.011433
0.536589 0.739639 0.011722
0.564847 0.739909 0.012011
0.593105 0.740179 0.012300
0.621363 0.740449 0.012589
0.649621 0.740719 0.012878
0.677879 0.740989 0.013167
0.706137 0.741259 0.013456
0.734395 0.741529 0.013745
0.762652 0.741799 0.014034
0.790910 0.742069 0.014323
0.819168 0.742339 0.014612
0.847426 0.742609 0.014901
0.875513 0.742878 0.015319
0.903356 0.743148 0.015919
0.000523 0.765891 0.007203
0.028781 0.766161 0.007492
0.057039 0.766431 0.007781
0.085297 0.766701 0.008070
0.113555 0.766971 0.008359
0.141813 0.767240 0.008648
0.170071 0.767510 0.008937
0.198329 0.767780 0.009226
0.226587 0.768050 0.009515
0.254845 0.768320 0.009804
0.283103 0.768590 0.010093
0.311360 0.768860 0.010382
0.339618 0.769130 0.010671
0.367876 0.769400 0.010960
0.396134 0.769670 0.011249
0.424392 0.769940 0.011538
0.452650 0.770210 0.011827
0.480908 0.770480 0.012116
0.509166 0.770750 0.012405
0.537424 0.771020 0.012694
0.565682 0.771289 0.012983
0.593940 0.771559 0.013272
0.622198 0.771829 0.013561
0.650455 0.772099 0.013850
0.678713 0.772369 0.014139
0.706971 0.772639 0.014428
0.735229 0.772909 0.014717
0.763462 0.773179 0.015025
0.791305 0.773449 0.015625
0.819148 0.773719 0.016226
0.846991 0.773989 0.016826
0.874835 0.774259 0.017426
0.902678 0.774529 0.018026
0.001358 0.797271 0.008175
0.029616 0.797541 0.008464
0.057874 0.797811 0.008753
0.086132 0.798081 0.009042
0.114390 0.798351 0.009331
0.142648 0.798621 0.009620
0.170906 0.798891 0.009909
0.199163 0.799161 0.010198
0.227421 0.799431 0.010487
0.255679 0.799700 0.010776
0.283937 0.799970 0.011065
0.312195 0.800240 0.011354
0.340453 0.800510 0.011643
0.368711 0.800780 0.011932
0.396969 0.801050 0.012222
0.425227 0.801320 0.012511
0.453485 0.801590 0.012800
0.481743 0.801860 0.013089
0.510001 0.802130 0.013378
0.538258 0.802400 0.013667
0.566516 0.802670 0.013956
0.594774 0.802940 0.014245
0.623032 0.803210 0.014534
0.651290 0.803480 0.014823
0.679254 0.803749 0.015332
0.707098 0.804019 0.015932
0.734941 0.804289 0.016532
0.762784 0.804559 0.017132
0.790627 0.804829 0.017732
