luts/vhs.cube
# vhs - ローファイ・90年代 v3 (cooler, more desaturated)
LUT_3D_SIZE 9
0.116500 0.107000 0.097500
0.189732 0.115442 0.105942
0.262965 0.123885 0.114385
0.336197 0.132327 0.122827
0.409429 0.140769 0.131269
0.482662 0.149212 0.139712
0.555894 0.157654 0.148154
0.629126 0.166096 0.156596
0.702359 0.174539 0.165039
0.144901 0.200191 0.125901
0.218133 0.208633 0.134343
0.291365 0.217075 0.142785
0.364598 0.225518 0.151228
0.437830 0.233960 0.159670
0.511062 0.242402 0.168112
0.584295 0.250845 0.176555
0.657527 0.259287 0.184997
0.730759 0.267729 0.193439
0.173301 0.293381 0.154301
0.246534 0.301824 0.162744
0.319766 0.310266 0.171186
0.392998 0.318708 0.179628
0.466231 0.327151 0.188071
0.539463 0.335593 0.196513
0.612695 0.344035 0.204955
0.685928 0.352478 0.213398
0.759160 0.360920 0.221840
0.201702 0.386572 0.182702
0.274934 0.395014 0.191144
0.348166 0.403456 0.199586
0.421399 0.411899 0.208029
0.494631 0.420341 0.216471
0.567864 0.428784 0.224914
0.641096 0.437226 0.233356
0.714328 0.445668 0.241798
0.787561 0.454111 0.250241
0.230102 0.479762 0.211102
0.303335 0.488205 0.219545
0.376567 0.496647 0.227987
0.449799 0.505089 0.236429
0.523032 0.513532 0.244872
0.596264 0.521974 0.253314
0.669496 0.530416 0.261756
0.742729 0.538859 0.270199
0.815961 0.547301 0.278641
0.258503 0.572953 0.239503
0.331735 0.581395 0.247945
0.404968 0.589838 0.256388
0.478200 0.598280 0.264830
0.551432 0.606722 0.273272
0.624665 0.615165 0.281715
0.697897 0.623607 0.290157
0.771129 0.632049 0.298599
0.844362 0.640492 0.307042
0.286904 0.666144 0.267904
0.360136 0.674586 0.276346
0.433368 0.683028 0.284788
0.506601 0.691471 0.293231
0.579833 0.699913 0.301673
0.653065 0.708355 0.310115
0.726298 0.716798 0.318558
0.799530 0.725240 0.327000
0.872762 0.733682 0.335442
0.315304 0.759334 0.296304
0.388536 0.767776 0.304746
0.461769 0.776219 0.313189
0.535001 0.784661 0.321631
0.608234 0.793104 0.330074
0.681466 0.801546 0.338516
0.754698 0.809988 0.346958
0.827931 0.818431 0.355401
0.901163 0.826873 0.363843
0.343705 0.852525 0.324705
0.416937 0.860967 0.333147
0.490169 0.869409 0.341589
0.563402 0.877852 0.350032
0.636634 0.886294 0.358474
0.709866 0.894736 0.366916
0.783099 0.903179 0.375359
0.856331 0.911621 0.383801
0.929564 0.920064 0.392244
0.119367 0.109867 0.165157
0.192599 0.118309 0.173599
0.265832 0.126752 0.182042
0.339064 0.135194 0.190484
0.412296 0.143636 0.198926
0.485529 0.152079 0.207369
0.558761 0.160521 0.215811
0.631993 0.168963 0.224253
0.705226 0.177406 0.232696
0.147768 0.203058 0.193558
0.221000 0.211500 0.202000
0.294232 0.219942 0.210442
0.367465 0.228385 0.218885
0.440697 0.236827 0.227327
0.513929 0.245269 0.235769
0.587162 0.253712 0.244212
0.660394 0.262154 0.252654
0.733626 0.270596 0.261096
0.176168 0.296248 0.221958
0.249401 0.304691 0.230401
0.322633 0.313133 0.238843
0.395865 0.321575 0.247285
0.469098 0.330018 0.255728
0.542330 0.338460 0.264170
0.615562 0.346902 0.272612
0.688795 0.355345 0.281055
0.762027 0.363787 0.289497
0.204569 0.389439 0.250359
0.277801 0.397881 0.258801
0.351034 0.406324 0.267244
0.424266 0.414766 0.275686
0.497498 0.423208 0.284128
0.570731 0.431651 0.292571
0.643963 0.440093 0.301013
0.717195 0.448535 0.309455
0.790428 0.456978 0.317898
0.232969 0.482629 0.278759
0.306202 0.491072 0.287202
0.379434 0.499514 0.295644
0.452666 0.507956 0.304086
0.525899 0.516399 0.312529
0.599131 0.524841 0.320971
0.672364 0.533284 0.329414
0.745596 0.541726 0.337856
0.818828 0.550168 0.346298
0.261370 0.575820 0.307160
0.334602 0.584262 0.315602
0.407835 0.592705 0.324045
0.481067 0.601147 0.332487
0.554299 0.609589 0.340929
0.627532 0.618032 0.349372
0.700764 0.626474 0.357814
0.773996 0.634916 0.366256
0.847229 0.643359 0.374699
0.289771 0.669011 0.335561
0.363003 0.677453 0.344003
0.436235 0.685895 0.352445
0.509468 0.694338 0.360888
0.582700 0.702780 0.369330
0.655932 0.711222 0.377772
0.729165 0.719665 0.386215
0.802397 0.728107 0.394657
0.875629 0.736549 0.403099
0.318171 0.762201 0.363961
0.391404 0.770644 0.372404
0.464636 0.779086 0.380846
0.537868 0.787528 0.389288
0.611101 0.795971 0.397731
0.684333 0.804413 0.406173
0.757565 0.812855 0.414615
0.830798 0.821298 0.423058
0.904030 0.829740 0.431500
0.346572 0.855392 0.392362
0.419804 0.863834 0.400804
0.493036 0.872276 0.409246
0.566269 0.880719 0.417689
0.639501 0.889161 0.426131
0.712734 0.897604 0.434574
0.785966 0.906046 0.443016
0.859198 0.914488 0.451458
0.932431 0.922931 0.459901
0.122234 0.112734 0.232814
0.195466 0.121176 0.241256
0.268699 0.129619 0.249699
0.341931 0.138061 0.258141
0.415164 0.146504 0.266584
0.488396 0.154946 0.275026
0.561628 0.163388 0.283468
0.634861 0.171831 0.291911
0.708093 0.180273 0.300353
0.150635 0.205925 0.261215
0.223867 0.214367 0.269657
0.297099 0.222809 0.278099
0.370332 0.231252 0.286542
0.443564 0.239694 0.294984
0.516796 0.248136 0.303426
0.590029 0.256579 0.311869
0.663261 0.265021 0.320311
0.736493 0.273463 0.328753
0.179035 0.299115 0.289615
0.252268 0.307558 0.298058
0.325500 0.316000 0.306500
0.398732 0.324442 0.314942
0.471965 0.332885 0.323385
0.545197 0.341327 0.331827
0.618429 0.349769 0.340269
0.691662 0.358212 0.348712
0.764894 0.366654 0.357154
0.207436 0.392306 0.318016
0.280668 0.400748 0.326458
0.353901 0.409191 0.334901
0.427133 0.417633 0.343343
0.500365 0.426075 0.351785
0.573598 0.434518 0.360228
0.646830 0.442960 0.368670
0.720062 0.451402 0.377112
0.793295 0.459845 0.385555
0.235836 0.485496 0.346416
0.309069 0.493939 0.354859
0.382301 0.502381 0.363301
0.455534 0.510824 0.371744
0.528766 0.519266 0.380186
0.601998 0.527708 0.388628
0.675231 0.536151 0.397071
0.748463 0.544593 0.405513
0.821695 0.553035 0.413955
0.264237 0.578687 0.374817
0.337469 0.587129 0.383259
0.410702 0.595572 0.391702
0.483934 0.604014 0.400144
0.557166 0.612456 0.408586
0.630399 0.620899 0.417029
0.703631 0.629341 0.425471
0.776864 0.637784 0.433914
0.850096 0.646226 0.442356
0.292638 0.671878 0.403218
0.365870 0.680320 0.411660
0.439102 0.688762 0.420102
0.512335 0.697205 0.428545
0.585567 0.705647 0.436987
0.658799 0.714089 0.445429
0.732032 0.722532 0.453872
0.805264 0.730974 0.462314
0.878496 0.739416 0.470756
0.321038 0.765068 0.431618
0.394271 0.773511 0.440061
0.467503 0.781953 0.448503
0.540735 0.790395 0.456945
0.613968 0.798838 0.465388
0.687200 0.807280 0.473830
0.760432 0.815722 0.482272
0.833665 0.824165 0.490715
0.906897 0.832607 0.499157
0.349439 0.858259 0.460019
0.422671 0.866701 0.468461
0.495904 0.875144 0.476904
0.569136 0.883586 0.485346
0.642368 0.892028 0.493788
0.715601 0.900471 0.502231
0.788833 0.908913 0.510673
0.862065 0.917355 0.519115
0.935298 0.925798 0.527558
0.125101 0.115601 0.300471
0.198334 0.124044 0.308914
0.271566 0.132486 0.317356
0.344798 0.140928 0.325798
0.418031 0.149371 0.334241
0.491263 0.157813 0.342683
0.564495 0.166255 0.351125
0.637728 0.174698 0.359568
0.710960 0.183140 0.368010
0.153502 0.208792 0.328872
0.226734 0.217234 0.337314
0.299966 0.225676 0.345756
0.373199 0.234119 0.354199
0.446431 0.242561 0.362641
0.519664 0.251004 0.371084
0.592896 0.259446 0.379526
0.666128 0.267888 0.387968
0.739361 0.276331 0.396411
0.181902 0.301982 0.357272
0.255135 0.310425 0.365715
0.328367 0.318867 0.374157
0.401599 0.327309 0.382599
0.474832 0.335752 0.391042
0.548064 0.344194 0.399484
0.621296 0.352636 0.407926
0.694529 0.361079 0.416369
0.767761 0.369521 0.424811
0.210303 0.395173 0.385673
0.283535 0.403615 0.394115
0.356768 0.412058 0.402558
0.430000 0.420500 0.411000
0.503232 0.428942 0.419442
0.576465 0.437385 0.427885
0.649697 0.445827 0.436327
0.722929 0.454269 0.444769
0.796162 0.462712 0.453212
0.238704 0.488364 0.414074
0.311936 0.496806 0.422516
0.385168 0.505248 0.430958
0.458401 0.513691 0.439401
0.531633 0.522133 0.447843
0.604865 0.530575 0.456285
0.678098 0.539018 0.464728
0.751330 0.547460 0.473170
0.824562 0.555902 0.481612
0.267104 0.581554 0.442474
0.340336 0.589996 0.450916
0.413569 0.598439 0.459359
0.486801 0.606881 0.467801
0.560034 0.615324 0.476244
0.633266 0.623766 0.484686
0.706498 0.632208 0.493128
0.779731 0.640651 0.501571
0.852963 0.649093 0.510013
0.295505 0.674745 0.470875
0.368737 0.683187 0.479317
0.441969 0.691629 0.487759
0.515202 0.700072 0.496202
0.588434 0.708514 0.504644
0.661666 0.716956 0.513086
0.734899 0.725399 0.521529
0.808131 0.733841 0.529971
0.881364 0.742284 0.538414
0.323905 0.767935 0.499275
0.397138 0.776378 0.507718
0.470370 0.784820 0.516160
0.543602 0.793262 0.524602
0.616835 0.801705 0.533045
0.690067 0.810147 0.541487
0.763299 0.818589 0.549929
0.836532 0.827032 0.558372
0.909764 0.835474 0.566814
0.352306 0.861126 0.527676
0.425538 0.869568 0.536118
0.498771 0.878011 0.544561
0.572003 0.886453 0.553003
0.645235 0.894895 0.561445
0.718468 0.903338 0.569888
0.791700 0.911780 0.578330
0.864932 0.920222 0.586772
0.938165 0.928665 0.595215
0.127968 0.118468 0.368128
0.201201 0.126911 0.376571
0.274433 0.135353 0.385013
0.347665 0.143795 0.393455
0.420898 0.152238 0.401898
0.494130 0.160680 0.410340
0.567362 0.169122 0.418782
0.640595 0.177565 0.427225
0.713827 0.186007 0.435667
0.156369 0.211659 0.396529
0.229601 0.220101 0.404971
0.302834 0.228544 0.413414
0.376066 0.236986 0.421856
0.449298 0.245428 0.430298
0.522531 0.253871 0.438741
0.595763 0.262313 0.447183
0.668995 0.270755 0.455625
0.742228 0.279198 0.464068
0.184769 0.304849 0.424929
0.258002 0.313292 0.433372
0.331234 0.321734 0.441814
0.404466 0.330176 0.450256
0.477699 0.338619 0.458699
0.550931 0.347061 0.467141
0.624164 0.355504 0.475584
0.697396 0.363946 0.484026
0.770628 0.372388 0.492468
0.213170 0.398040 0.453330
0.286402 0.406482 0.461772
0.359635 0.414925 0.470215
0.432867 0.423367 0.478657
0.506099 0.431809 0.487099
0.579332 0.440252 0.495542
0.652564 0.448694 0.503984
0.725796 0.457136 0.512426
0.799029 0.465579 0.520869
0.241571 0.491231 0.481731
0.314803 0.499673 0.490173
0.388035 0.508115 0.498615
0.461268 0.516558 0.507058
0.534500 0.525000 0.515500
0.607732 0.533442 0.523942
0.680965 0.541885 0.532385
0.754197 0.550327 0.540827
0.827429 0.558769 0.549269
0.269971 0.584421 0.510131
0.343204 0.592864 0.518574
0.416436 0.601306 0.527016
0.489668 0.609748 0.535458
0.562901 0.618191 0.543901
0.636133 0.626633 0.552343
0.709365 0.635075 0.560785
0.782598 0.643518 0.569228
0.855830 0.651960 0.577670
0.298372 0.677612 0.538532
0.371604 0.686054 0.546974
0.444836 0.694496 0.555416
0.518069 0.702939 0.563859
0.591301 0.711381 0.572301
0.664534 0.719824 0.580744
0.737766 0.728266 0.589186
0.810998 0.736708 0.597628
0.884231 0.745151 0.606071
0.326772 0.770802 0.566932
0.400005 0.779245 0.575375
0.473237 0.787687 0.583817
0.546469 0.796129 0.592259
0.619702 0.804572 0.600702
0.692934 0.813014 0.609144
0.766166 0.821456 0.617586
0.839399 0.829899 0.626029
0.912631 0.838341 0.634471
0.355173 0.863993 0.595333
0.428405 0.872435 0.603775
0.501638 0.880878 0.612218
0.574870 0.889320 0.620660
0.648102 0.897762 0.629102
0.721335 0.906205 0.637545
0.794567 0.914647 0.645987
0.867799 0.923089 0.654429
0.941032 0.931532 0.662872
0.130835 0.121335 0.435785
0.204068 0.129778 0.444228
0.277300 0.138220 0.452670
0.350532 0.146662 0.461112
0.423765 0.155105 0.469555
0.496997 0.163547 0.477997
0.570229 0.171989 0.486439
0.643462 0.180432 0.494882
0.716694 0.188874 0.503324
0.159236 0.214526 0.464186
0.232468 0.222968 0.472628
0.305701 0.231411 0.481071
0.378933 0.239853 0.489513
0.452165 0.248295 0.497955
0.525398 0.256738 0.506398
0.598630 0.265180 0.514840
0.671862 0.273622 0.523282
0.745095 0.282065 0.531725
0.187636 0.307716 0.492586
0.260869 0.316159 0.501029
0.334101 0.324601 0.509471
0.407334 0.333044 0.517914
0.480566 0.341486 0.526356
0.553798 0.349928 0.534798
0.627031 0.358371 0.543241
0.700263 0.366813 0.551683
0.773495 0.375255 0.560125
0.216037 0.400907 0.520987
0.289269 0.409349 0.529429
0.362502 0.417792 0.537872
0.435734 0.426234 0.546314
0.508966 0.434676 0.554756
0.582199 0.443119 0.563199
0.655431 0.451561 0.571641
0.728664 0.460004 0.580084
0.801896 0.468446 0.588526
0.244438 0.494098 0.549388
0.317670 0.502540 0.557830
0.390902 0.510982 0.566272
0.464135 0.519425 0.574715
0.537367 0.527867 0.583157
0.610599 0.536309 0.591599
0.683832 0.544752 0.600042
0.757064 0.553194 0.608484
0.830296 0.561636 0.616926
0.272838 0.587288 0.577788
0.346071 0.595731 0.586231
0.419303 0.604173 0.594673
0.492535 0.612615 0.603115
0.565768 0.621058 0.611558
0.639000 0.629500 0.620000
0.712232 0.637942 0.628442
0.785465 0.646385 0.636885
0.858697 0.654827 0.645327
0.301239 0.680479 0.606189
0.374471 0.688921 0.614631
0.447704 0.697364 0.623074
0.520936 0.705806 0.631516
0.594168 0.714248 0.639958
0.667401 0.722691 0.648401
0.740633 0.731133 0.656843
0.813865 0.739575 0.665285
0.887098 0.748018 0.673728
0.329639 0.773669 0.634589
0.402872 0.782112 0.643032
0.476104 0.790554 0.651474
0.549336 0.798996 0.659916
0.622569 0.807439 0.668359
0.695801 0.815881 0.676801
0.769034 0.824324 0.685244
0.842266 0.832766 0.693686
0.915498 0.841208 0.702128
0.358040 0.866860 0.662990
0.431272 0.875302 0.671432
0.504505 0.883745 0.679875
0.577737 0.892187 0.688317
0.650969 0.900629 0.696759
0.724202 0.909072 0.705202
0.797434 0.917514 0.713644
0.870666 0.925956 0.722086
0.943899 0.934399 0.730529
0.133702 0.124202 0.503442
0.206935 0.132645 0.511885
0.280167 0.141087 0.520327
0.353399 0.149529 0.528769
0.426632 0.157972 0.537212
0.499864 0.166414 0.545654
0.573096 0.174856 0.554096
0.646329 0.183299 0.562539
0.719561 0.191741 0.570981
0.162103 0.217393 0.531843
0.235335 0.225835 0.540285
0.308568 0.234278 0.548728
0.381800 0.242720 0.557170
0.455032 0.251162 0.565612
0.528265 0.259605 0.574055
0.601497 0.268047 0.582497
0.674729 0.276489 0.590939
0.747962 0.284932 0.599382
0.190504 0.310584 0.560244
0.263736 0.319026 0.568686
0.336968 0.327468 0.577128
0.410201 0.335911 0.585571
0.483433 0.344353 0.594013
0.556665 0.352795 0.602455
0.629898 0.361238 0.610898
0.703130 0.369680 0.619340
0.776362 0.378122 0.627782
0.218904 0.403774 0.588644
0.292136 0.412216 0.597086
0.365369 0.420659 0.605529
0.438601 0.429101 0.613971
0.511834 0.437544 0.622414
0.585066 0.445986 0.630856
0.658298 0.454428 0.639298
0.731531 0.462871 0.647741
0.804763 0.471313 0.656183
0.247305 0.496965 0.617045
0.320537 0.505407 0.625487
0.393769 0.513849 0.633929
0.467002 0.522292 0.642372
0.540234 0.530734 0.650814
0.613466 0.539176 0.659256
0.686699 0.547619 0.667699
0.759931 0.556061 0.676141
0.833164 0.564504 0.684584
0.275705 0.590155 0.645445
0.348938 0.598598 0.653888
0.422170 0.607040 0.662330
0.495402 0.615482 0.670772
0.568635 0.623925 0.679215
0.641867 0.632367 0.687657
0.715099 0.640809 0.696099
0.788332 0.649252 0.704542
0.861564 0.657694 0.712984
0.304106 0.683346 0.673846
0.377338 0.691788 0.682288
0.450571 0.700231 0.690731
0.523803 0.708673 0.699173
0.597035 0.717115 0.707615
0.670268 0.725558 0.716058
0.743500 0.734000 0.724500
0.816732 0.742442 0.732942
0.889965 0.750885 0.741385
0.332507 0.776537 0.702247
0.405739 0.784979 0.710689
0.478971 0.793421 0.719131
0.552204 0.801864 0.727574
0.625436 0.810306 0.736016
0.698668 0.818748 0.744458
0.771901 0.827191 0.752901
0.845133 0.835633 0.761343
0.918365 0.844075 0.769785
0.360907 0.869727 0.730647
0.434139 0.878169 0.739089
0.507372 0.886612 0.747532
0.580604 0.895054 0.755974
0.653836 0.903496 0.764416
0.727069 0.911939 0.772859
0.800301 0.920381 0.781301
0.873534 0.928824 0.789744
0.946766 0.937266 0.798186
0.136569 0.127069 0.571099
0.209802 0.135512 0.579542
0.283034 0.143954 0.587984
0.356266 0.152396 0.596426
0.429499 0.160839 0.604869
0.502731 0.169281 0.613311
0.575964 0.177724 0.621754
0.649196 0.186166 0.630196
0.722428 0.194608 0.638638
0.164970 0.220260 0.599500
0.238202 0.228702 0.607942
0.311435 0.237145 0.616385
0.384667 0.245587 0.624827
0.457899 0.254029 0.633269
0.531132 0.262472 0.641712
0.604364 0.270914 0.650154
0.677596 0.279356 0.658596
0.750829 0.287799 0.667039
0.193371 0.313451 0.627901
0.266603 0.321893 0.636343
0.339835 0.330335 0.644785
0.413068 0.338778 0.653228
0.486300 0.347220 0.661670
0.559532 0.355662 0.670112
0.632765 0.364105 0.678555
0.705997 0.372547 0.686997
0.779229 0.380989 0.695439
0.221771 0.406641 0.656301
0.295004 0.415084 0.664744
0.368236 0.423526 0.673186
0.441468 0.431968 0.681628
0.514701 0.440411 0.690071
0.587933 0.448853 0.698513
0.661165 0.457295 0.706955
0.734398 0.465738 0.715398
0.807630 0.474180 0.723840
0.250172 0.499832 0.684702
0.323404 0.508274 0.693144
0.396636 0.516716 0.701586
0.469869 0.525159 0.710029
0.543101 0.533601 0.718471
0.616334 0.542044 0.726914
0.689566 0.550486 0.735356
0.762798 0.558928 0.743798
0.836031 0.567371 0.752241
0.278572 0.593022 0.713102
0.351805 0.601465 0.721545
0.425037 0.609907 0.729987
0.498269 0.618349 0.738429
0.571502 0.626792 0.746872
0.644734 0.635234 0.755314
0.717966 0.643676 0.763756
0.791199 0.652119 0.772199
0.864431 0.660561 0.780641
0.306973 0.686213 0.741503
0.380205 0.694655 0.749945
0.453438 0.703098 0.758388
0.526670 0.711540 0.766830
0.599902 0.719982 0.775272
0.673135 0.728425 0.783715
0.746367 0.736867 0.792157
0.819599 0.745309 0.800599
0.892832 0.753752 0.809042
0.335374 0.779404 0.769904
0.408606 0.787846 0.778346
0.481838 0.796288 0.786788
0.555071 0.804731 0.795231
0.628303 0.813173 0.803673
0.701535 0.821615 0.812115
0.774768 0.830058 0.820558
0.848000 0.838500 0.829000
0.921232 0.846942 0.837442
0.363774 0.872594 0.798304
0.437007 0.881037 0.806747
0.510239 0.889479 0.815189
0.583471 0.897921 0.823631
0.656704 0.906364 0.832074
0.729936 0.914806 0.840516
0.803168 0.923248 0.848958
0.876401 0.931691 0.857401
0.949633 0.940133 0.865843
0.139436 0.129936 0.638756
0.212669 0.138379 0.647199
0.285901 0.146821 0.655641
0.359134 0.155264 0.664084
0.432366 0.163706 0.672526
0.505598 0.172148 0.680968
0.578831 0.180591 0.689411
0.652063 0.189033 0.697853
0.725295 0.197475 0.706295
0.167837 0.223127 0.667157
0.241069 0.231569 0.675599
0.314302 0.240012 0.684042
0.387534 0.248454 0.692484
0.460766 0.256896 0.700926
0.533999 0.265339 0.709369
0.607231 0.273781 0.717811
0.680464 0.282224 0.726254
0.753696 0.290666 0.734696
0.196238 0.316318 0.695558
0.269470 0.324760 0.704000
0.342702 0.333202 0.712442
0.415935 0.341645 0.720885
0.489167 0.350087 0.729327
0.562399 0.358529 0.737769
0.635632 0.366972 0.746212
0.708864 0.375414 0.754654
0.782096 0.383856 0.763096
0.224638 0.409508 0.723958
0.297871 0.417951 0.732401
0.371103 0.426393 0.740843
0.444335 0.434835 0.749285
0.517568 0.443278 0.757728
0.590800 0.451720 0.766170
0.664032 0.460162 0.774612
0.737265 0.468605 0.783055
0.810497 0.477047 0.791497
0.253039 0.502699 0.752359
0.326271 0.511141 0.760801
0.399504 0.519584 0.769244
0.472736 0.528026 0.777686
0.545968 0.536468 0.786128
0.619201 0.544911 0.794571
0.692433 0.553353 0.803013
0.765665 0.561795 0.811455
0.838898 0.570238 0.819898
0.281439 0.595889 0.780759
0.354672 0.604332 0.789202
0.427904 0.612774 0.797644
0.501136 0.621216 0.806086
0.574369 0.629659 0.814529
0.647601 0.638101 0.822971
0.720834 0.646544 0.831414
0.794066 0.654986 0.839856
0.867298 0.663428 0.848298
0.309840 0.689080 0.809160
0.383072 0.697522 0.817602
0.456305 0.705965 0.826045
0.529537 0.714407 0.834487
0.602769 0.722849 0.842929
0.676002 0.731292 0.851372
0.749234 0.739734 0.859814
0.822466 0.748176 0.868256
0.895699 0.756619 0.876699
0.338241 0.782271 0.837561
0.411473 0.790713 0.846003
0.484705 0.799155 0.854445
0.557938 0.807598 0.862888
0.631170 0.816040 0.871330
0.704402 0.824482 0.879772
0.777635 0.832925 0.888215
0.850867 0.841367 0.896657
0.924099 0.849809 0.905099
0.366641 0.875461 0.865961
0.439874 0.883904 0.874404
0.513106 0.892346 0.882846
0.586338 0.900788 0.891288
0.659571 0.909231 0.899731
0.732803 0.917673 0.908173
0.806035 0.926115 0.916615
0.879268 0.934558 0.925058
0.952500 0.943000 0.933500
