luts/vhs.cube
# vhs - ローファイ・90年代 v3 (cooler, more desaturated)
LUT_3D_SIZE 33
0.116500 0.107000 0.097500
0.134808 0.109111 0.099611
0.153116 0.111221 0.101721
0.171424 0.113332 0.103832
0.189732 0.115442 0.105942
0.208040 0.117553 0.108053
0.226349 0.119664 0.110164
0.244657 0.121774 0.112274
0.262965 0.123885 0.114385
0.281273 0.125995 0.116495
0.299581 0.128106 0.118606
0.317889 0.130216 0.120716
0.336197 0.132327 0.122827
0.354505 0.134438 0.124938
0.372813 0.136548 0.127048
0.391121 0.138659 0.129159
0.409429 0.140769 0.131269
0.427737 0.142880 0.133380
0.446046 0.144991 0.135491
0.464354 0.147101 0.137601
0.482662 0.149212 0.139712
0.500970 0.151322 0.141822
0.519278 0.153433 0.143933
0.537586 0.155543 0.146043
0.555894 0.157654 0.148154
0.574202 0.159765 0.150265
0.592510 0.161875 0.152375
0.610818 0.163986 0.154486
0.629126 0.166096 0.156596
0.647435 0.168207 0.158707
0.665743 0.170318 0.160818
0.684051 0.172428 0.162928
0.702359 0.174539 0.165039
0.123600 0.130298 0.104600
0.141908 0.132408 0.106711
0.160216 0.134519 0.108821
0.178524 0.136629 0.110932
0.196832 0.138740 0.113042
0.215141 0.140851 0.115153
0.233449 0.142961 0.117264
0.251757 0.145072 0.119374
0.270065 0.147182 0.121485
0.288373 0.149293 0.123595
0.306681 0.151404 0.125706
0.324989 0.153514 0.127817
0.343297 0.155625 0.129927
0.361605 0.157735 0.132038
0.379913 0.159846 0.134148
0.398221 0.161956 0.136259
0.416530 0.164067 0.138370
0.434838 0.166178 0.140480
0.453146 0.168288 0.142591
0.471454 0.170399 0.144701
0.489762 0.172509 0.146812
0.508070 0.174620 0.148922
0.526378 0.176731 0.151033
0.544686 0.178841 0.153144
0.562994 0.180952 0.155254
0.581302 0.183062 0.157365
0.599610 0.185173 0.159475
0.617918 0.187283 0.161586
0.636227 0.189394 0.163697
0.654535 0.191505 0.165807
0.672843 0.193615 0.167918
0.691151 0.195726 0.170028
0.709459 0.197836 0.172139
0.130700 0.153595 0.111700
0.149008 0.155706 0.113811
0.167316 0.157816 0.115921
0.185625 0.159927 0.118032
0.203933 0.162038 0.120143
0.222241 0.164148 0.122253
0.240549 0.166259 0.124364
0.258857 0.168369 0.126474
0.277165 0.170480 0.128585
0.295473 0.172591 0.130696
0.313781 0.174701 0.132806
0.332089 0.176812 0.134917
0.350397 0.178922 0.137027
0.368705 0.181033 0.139138
0.387014 0.183144 0.141249
0.405322 0.185254 0.143359
0.423630 0.187365 0.145470
0.441938 0.189475 0.147580
0.460246 0.191586 0.149691
0.478554 0.193696 0.151801
0.496862 0.195807 0.153912
0.515170 0.197918 0.156023
0.533478 0.200028 0.158133
0.551786 0.202139 0.160244
0.570094 0.204249 0.162354
0.588402 0.206360 0.164465
0.606711 0.208471 0.166576
0.625019 0.210581 0.168686
0.643327 0.212692 0.170797
0.661635 0.214802 0.172907
0.679943 0.216913 0.175018
0.698251 0.219023 0.177128
0.716559 0.221134 0.179239
0.137800 0.176893 0.118800
0.156109 0.179004 0.120911
0.174417 0.181114 0.123022
0.192725 0.183225 0.125132
0.211033 0.185335 0.127243
0.229341 0.187446 0.129353
0.247649 0.189556 0.131464
0.265957 0.191667 0.133575
0.284265 0.193778 0.135685
0.302573 0.195888 0.137796
0.320881 0.197999 0.139906
0.339189 0.200109 0.142017
0.357497 0.202220 0.144127
0.375806 0.204331 0.146238
0.394114 0.206441 0.148349
0.412422 0.208552 0.150459
0.430730 0.210662 0.152570
0.449038 0.212773 0.154680
0.467346 0.214884 0.156791
0.485654 0.216994 0.158902
0.503962 0.219105 0.161012
0.522270 0.221215 0.163123
0.540578 0.223326 0.165233
0.558886 0.225436 0.167344
0.577195 0.227547 0.169455
0.595503 0.229658 0.171565
0.613811 0.231768 0.173676
0.632119 0.233879 0.175786
0.650427 0.235989 0.177897
0.668735 0.238100 0.180007
0.687043 0.240211 0.182118
0.705351 0.242321 0.184229
0.723659 0.244432 0.186339
0.144901 0.200191 0.125901
0.163209 0.202301 0.128011
0.181517 0.204412 0.130122
0.199825 0.206522 0.132232
0.218133 0.208633 0.134343
0.236441 0.210744 0.136454
0.254749 0.212854 0.138564
0.273057 0.214965 0.140675
0.291365 0.217075 0.142785
0.309673 0.219186 0.144896
0.327981 0.221296 0.147006
0.346290 0.223407 0.149117
0.364598 0.225518 0.151228
0.382906 0.227628 0.153338
0.401214 0.229739 0.155449
0.419522 0.231849 0.157559
0.437830 0.233960 0.159670
0.456138 0.236071 0.161781
0.474446 0.238181 0.163891
0.492754 0.240292 0.166002
0.511062 0.242402 0.168112
0.529370 0.244513 0.170223
0.547678 0.246623 0.172333
0.565987 0.248734 0.174444
0.584295 0.250845 0.176555
0.602603 0.252955 0.178665
0.620911 0.255066 0.180776
0.639219 0.257176 0.182886
0.657527 0.259287 0.184997
0.675835 0.261398 0.187108
0.694143 0.263508 0.189218
0.712451 0.265619 0.191329
0.730759 0.267729 0.193439
0.152001 0.223488 0.133001
0.170309 0.225599 0.135111
0.188617 0.227709 0.137222
0.206925 0.229820 0.139332
0.225233 0.231931 0.141443
0.243541 0.234041 0.143554
0.261849 0.236152 0.145664
0.280157 0.238262 0.147775
0.298465 0.240373 0.149885
0.316774 0.242484 0.151996
0.335082 0.244594 0.154107
0.353390 0.246705 0.156217
0.371698 0.248815 0.158328
0.390006 0.250926 0.160438
0.408314 0.253036 0.162549
0.426622 0.255147 0.164660
0.444930 0.257258 0.166770
0.463238 0.259368 0.168881
0.481546 0.261479 0.170991
0.499854 0.263589 0.173102
0.518162 0.265700 0.175212
0.536471 0.267811 0.177323
0.554779 0.269921 0.179434
0.573087 0.272032 0.181544
0.591395 0.274142 0.183655
0.609703 0.276253 0.185765
0.628011 0.278363 0.187876
0.646319 0.280474 0.189987
0.664627 0.282585 0.192097
0.682935 0.284695 0.194208
0.701243 0.286806 0.196318
0.719551 0.288916 0.198429
0.737860 0.291027 0.200540
0.159101 0.246786 0.140101
0.177409 0.248896 0.142211
0.195717 0.251007 0.144322
0.214025 0.253118 0.146433
0.232333 0.255228 0.148543
0.250641 0.257339 0.150654
0.268949 0.259449 0.152764
0.287257 0.261560 0.154875
0.305566 0.263671 0.156986
0.323874 0.265781 0.159096
0.342182 0.267892 0.161207
0.360490 0.270002 0.163317
0.378798 0.272113 0.165428
0.397106 0.274224 0.167539
0.415414 0.276334 0.169649
0.433722 0.278445 0.171760
0.452030 0.280555 0.173870
0.470338 0.282666 0.175981
0.488646 0.284776 0.178091
0.506955 0.286887 0.180202
0.525263 0.288998 0.182313
0.543571 0.291108 0.184423
0.561879 0.293219 0.186534
0.580187 0.295329 0.188644
0.598495 0.297440 0.190755
0.616803 0.299551 0.192866
0.635111 0.301661 0.194976
0.653419 0.303772 0.197087
0.671727 0.305882 0.199197
0.690035 0.307993 0.201308
0.708343 0.310103 0.203418
0.726652 0.312214 0.205529
0.744960 0.314325 0.207640
0.166201 0.270084 0.147201
0.184509 0.272194 0.149312
0.202817 0.274305 0.151422
0.221125 0.276415 0.153533
0.239433 0.278526 0.155643
0.257741 0.280636 0.157754
0.276050 0.282747 0.159865
0.294358 0.284858 0.161975
0.312666 0.286968 0.164086
0.330974 0.289079 0.166196
0.349282 0.291189 0.168307
0.367590 0.293300 0.170417
0.385898 0.295411 0.172528
0.404206 0.297521 0.174639
0.422514 0.299632 0.176749
0.440822 0.301742 0.178860
0.459130 0.303853 0.180970
0.477439 0.305964 0.183081
0.495747 0.308074 0.185192
0.514055 0.310185 0.187302
0.532363 0.312295 0.189413
0.550671 0.314406 0.191523
0.568979 0.316516 0.193634
0.587287 0.318627 0.195745
0.605595 0.320738 0.197855
0.623903 0.322848 0.199966
0.642211 0.324959 0.202076
0.660519 0.327069 0.204187
0.678827 0.329180 0.206297
0.697136 0.331291 0.208408
0.715444 0.333401 0.210519
0.733752 0.335512 0.212629
0.752060 0.337622 0.214740
0.173301 0.293381 0.154301
0.191609 0.295492 0.156412
0.209917 0.297602 0.158522
0.228225 0.299713 0.160633
0.246534 0.301824 0.162744
0.264842 0.303934 0.164854
0.283150 0.306045 0.166965
0.301458 0.308155 0.169075
0.319766 0.310266 0.171186
0.338074 0.312376 0.173296
0.356382 0.314487 0.175407
0.374690 0.316598 0.177518
0.392998 0.318708 0.179628
0.411306 0.320819 0.181739
0.429614 0.322929 0.183849
0.447922 0.325040 0.185960
0.466231 0.327151 0.188071
0.484539 0.329261 0.190181
0.502847 0.331372 0.192292
0.521155 0.333482 0.194402
0.539463 0.335593 0.196513
0.557771 0.337704 0.198624
0.576079 0.339814 0.200734
0.594387 0.341925 0.202845
0.612695 0.344035 0.204955
0.631003 0.346146 0.207066
0.649311 0.348256 0.209176
0.667620 0.350367 0.211287
0.685928 0.352478 0.213398
0.704236 0.354588 0.215508
0.722544 0.356699 0.217619
0.740852 0.358809 0.219729
0.759160 0.360920 0.221840
0.180401 0.316679 0.161401
0.198709 0.318789 0.163512
0.217018 0.320900 0.165623
0.235326 0.323011 0.167733
0.253634 0.325121 0.169844
0.271942 0.327232 0.171954
0.290250 0.329342 0.174065
0.308558 0.331453 0.176175
0.326866 0.333564 0.178286
0.345174 0.335674 0.180397
0.363482 0.337785 0.182507
0.381790 0.339895 0.184618
0.400098 0.342006 0.186728
0.418406 0.344116 0.188839
0.436715 0.346227 0.190950
0.455023 0.348338 0.193060
0.473331 0.350448 0.195171
0.491639 0.352559 0.197281
0.509947 0.354669 0.199392
0.528255 0.356780 0.201502
0.546563 0.358891 0.203613
0.564871 0.361001 0.205724
0.583179 0.363112 0.207834
0.601487 0.365222 0.209945
0.619795 0.367333 0.212055
0.638103 0.369443 0.214166
0.656412 0.371554 0.216277
0.674720 0.373665 0.218387
0.693028 0.375775 0.220498
0.711336 0.377886 0.222608
0.729644 0.379996 0.224719
0.747952 0.382107 0.226830
0.766260 0.384218 0.228940
0.187501 0.339976 0.168501
0.205810 0.342087 0.170612
0.224118 0.344198 0.172723
0.242426 0.346308 0.174833
0.260734 0.348419 0.176944
0.279042 0.350529 0.179054
0.297350 0.352640 0.181165
0.315658 0.354751 0.183276
0.333966 0.356861 0.185386
0.352274 0.358972 0.187497
0.370582 0.361082 0.189607
0.388890 0.363193 0.191718
0.407199 0.365304 0.193829
0.425507 0.367414 0.195939
0.443815 0.369525 0.198050
0.462123 0.371635 0.200160
0.480431 0.373746 0.202271
0.498739 0.375856 0.204381
0.517047 0.377967 0.206492
0.535355 0.380078 0.208603
0.553663 0.382188 0.210713
0.571971 0.384299 0.212824
0.590279 0.386409 0.214934
0.608587 0.388520 0.217045
0.626896 0.390631 0.219156
0.645204 0.392741 0.221266
0.663512 0.394852 0.223377
0.681820 0.396962 0.225487
0.700128 0.399073 0.227598
0.718436 0.401183 0.229708
0.736744 0.403294 0.231819
0.755052 0.405405 0.233930
0.773360 0.407515 0.236040
0.194602 0.363274 0.175602
0.212910 0.365385 0.177712
0.231218 0.367495 0.179823
0.249526 0.369606 0.181933
0.267834 0.371716 0.184044
0.286142 0.373827 0.186155
0.304450 0.375938 0.188265
0.322758 0.378048 0.190376
0.341066 0.380159 0.192486
0.359374 0.382269 0.194597
0.377682 0.384380 0.196707
0.395991 0.386491 0.198818
0.414299 0.388601 0.200929
0.432607 0.390712 0.203039
0.450915 0.392822 0.205150
0.469223 0.394933 0.207260
0.487531 0.397044 0.209371
0.505839 0.399154 0.211482
0.524147 0.401265 0.213592
0.542455 0.403375 0.215703
0.560763 0.405486 0.217813
0.579071 0.407596 0.219924
0.597380 0.409707 0.222035
0.615688 0.411818 0.224145
0.633996 0.413928 0.226256
0.652304 0.416039 0.228366
0.670612 0.418149 0.230477
0.688920 0.420260 0.232587
0.707228 0.422371 0.234698
0.725536 0.424481 0.236809
0.743844 0.426592 0.238919
0.762152 0.428702 0.241030
0.780460 0.430813 0.243140
0.201702 0.386572 0.182702
0.220010 0.388682 0.184812
0.238318 0.390793 0.186923
0.256626 0.392904 0.189034
0.274934 0.395014 0.191144
0.293242 0.397125 0.193255
0.311550 0.399235 0.195365
0.329858 0.401346 0.197476
0.348166 0.403456 0.199586
0.366475 0.405567 0.201697
0.384783 0.407678 0.203808
0.403091 0.409788 0.205918
0.421399 0.411899 0.208029
0.439707 0.414009 0.210139
0.458015 0.416120 0.212250
0.476323 0.418231 0.214361
0.494631 0.420341 0.216471
0.512939 0.422452 0.218582
0.531247 0.424562 0.220692
0.549555 0.426673 0.222803
0.567864 0.428784 0.224914
0.586172 0.430894 0.227024
0.604480 0.433005 0.229135
0.622788 0.435115 0.231245
0.641096 0.437226 0.233356
0.659404 0.439336 0.235466
0.677712 0.441447 0.237577
0.696020 0.443558 0.239688
0.714328 0.445668 0.241798
0.732636 0.447779 0.243909
0.750944 0.449889 0.246019
0.769252 0.452000 0.248130
0.787561 0.454111 0.250241
0.208802 0.409869 0.189802
0.227110 0.411980 0.191913
0.245418 0.414091 0.194023
0.263726 0.416201 0.196134
0.282034 0.418312 0.198244
0.300342 0.420422 0.200355
0.318650 0.422533 0.202465
0.336959 0.424644 0.204576
0.355267 0.426754 0.206687
0.373575 0.428865 0.208797
0.391883 0.430975 0.210908
0.410191 0.433086 0.213018
0.428499 0.435196 0.215129
0.446807 0.437307 0.217240
0.465115 0.439418 0.219350
0.483423 0.441528 0.221461
0.501731 0.443639 0.223571
0.520039 0.445749 0.225682
0.538347 0.447860 0.227792
0.556656 0.449971 0.229903
0.574964 0.452081 0.232014
0.593272 0.454192 0.234124
0.611580 0.456302 0.236235
0.629888 0.458413 0.238345
0.648196 0.460523 0.240456
0.666504 0.462634 0.242567
0.684812 0.464745 0.244677
0.703120 0.466855 0.246788
0.721428 0.468966 0.248898
0.739736 0.471076 0.251009
0.758045 0.473187 0.253120
0.776353 0.475298 0.255230
0.794661 0.477408 0.257341
0.215902 0.433167 0.196902
0.234210 0.435278 0.199013
0.252518 0.437388 0.201123
0.270826 0.439499 0.203234
0.289134 0.441609 0.205344
0.307443 0.443720 0.207455
0.325751 0.445831 0.209566
0.344059 0.447941 0.211676
0.362367 0.450052 0.213787
0.380675 0.452162 0.215897
0.398983 0.454273 0.218008
0.417291 0.456384 0.220119
0.435599 0.458494 0.222229
0.453907 0.460605 0.224340
0.472215 0.462715 0.226450
0.490523 0.464826 0.228561
0.508831 0.466936 0.230671
0.527140 0.469047 0.232782
0.545448 0.471158 0.234893
0.563756 0.473268 0.237003
0.582064 0.475379 0.239114
0.600372 0.477489 0.241224
0.618680 0.479600 0.243335
0.636988 0.481711 0.245446
0.655296 0.483821 0.247556
0.673604 0.485932 0.249667
0.691912 0.488042 0.251777
0.710220 0.490153 0.253888
0.728528 0.492263 0.255998
0.746837 0.494374 0.258109
0.765145 0.496485 0.260220
0.783453 0.498595 0.262330
0.801761 0.500706 0.264441
0.223002 0.456465 0.204002
0.241310 0.458575 0.206113
0.259618 0.460686 0.208223
0.277926 0.462796 0.210334
0.296235 0.464907 0.212445
0.314543 0.467018 0.214555
0.332851 0.469128 0.216666
0.351159 0.471239 0.218776
0.369467 0.473349 0.220887
0.387775 0.475460 0.222997
0.406083 0.477571 0.225108
0.424391 0.479681 0.227219
0.442699 0.481792 0.229329
0.461007 0.483902 0.231440
0.479315 0.486013 0.233550
0.497624 0.488124 0.235661
0.515932 0.490234 0.237772
0.534240 0.492345 0.239882
0.552548 0.494455 0.241993
0.570856 0.496566 0.244103
0.589164 0.498676 0.246214
0.607472 0.500787 0.248325
0.625780 0.502898 0.250435
0.644088 0.505008 0.252546
0.662396 0.507119 0.254656
0.680704 0.509229 0.256767
0.699012 0.511340 0.258877
0.717321 0.513451 0.260988
0.735629 0.515561 0.263099
0.753937 0.517672 0.265209
0.772245 0.519782 0.267320
0.790553 0.521893 0.269430
0.808861 0.524003 0.271541
0.230102 0.479762 0.211102
0.248410 0.481873 0.213213
0.266719 0.483984 0.215324
0.285027 0.486094 0.217434
0.303335 0.488205 0.219545
0.321643 0.490315 0.221655
0.339951 0.492426 0.223766
0.358259 0.494536 0.225876
0.376567 0.496647 0.227987
0.394875 0.498758 0.230098
0.413183 0.500868 0.232208
0.431491 0.502979 0.234319
0.449799 0.505089 0.236429
0.468107 0.507200 0.238540
0.486416 0.509311 0.240651
0.504724 0.511421 0.242761
0.523032 0.513532 0.244872
0.541340 0.515642 0.246982
0.559648 0.517753 0.249093
0.577956 0.519864 0.251204
0.596264 0.521974 0.253314
0.614572 0.524085 0.255425
0.632880 0.526195 0.257535
0.651188 0.528306 0.259646
0.669496 0.530416 0.261756
0.687805 0.532527 0.263867
0.706113 0.534638 0.265978
0.724421 0.536748 0.268088
0.742729 0.538859 0.270199
0.761037 0.540969 0.272309
0.779345 0.543080 0.274420
0.797653 0.545191 0.276531
0.815961 0.547301 0.278641
0.237203 0.503060 0.218203
0.255511 0.505171 0.220313
0.273819 0.507281 0.222424
0.292127 0.509392 0.224534
0.310435 0.511502 0.226645
0.328743 0.513613 0.228755
0.347051 0.515724 0.230866
0.365359 0.517834 0.232977
0.383667 0.519945 0.235087
0.401975 0.522055 0.237198
0.420283 0.524166 0.239308
0.438591 0.526276 0.241419
0.456900 0.528387 0.243530
0.475208 0.530498 0.245640
0.493516 0.532608 0.247751
0.511824 0.534719 0.249861
0.530132 0.536829 0.251972
0.548440 0.538940 0.254082
0.566748 0.541051 0.256193
0.585056 0.543161 0.258304
0.603364 0.545272 0.260414
0.621672 0.547382 0.262525
0.639980 0.549493 0.264635
0.658289 0.551604 0.266746
0.676597 0.553714 0.268857
0.694905 0.555825 0.270967
0.713213 0.557935 0.273078
0.731521 0.560046 0.275188
0.749829 0.562156 0.277299
0.768137 0.564267 0.279410
0.786445 0.566378 0.281520
0.804753 0.568488 0.283631
0.823061 0.570599 0.285741
0.244303 0.526358 0.225303
0.262611 0.528468 0.227413
0.280919 0.530579 0.229524
0.299227 0.532689 0.231634
0.317535 0.534800 0.233745
0.335843 0.536911 0.235856
0.354151 0.539021 0.237966
0.372459 0.541132 0.240077
0.390767 0.543242 0.242187
0.409075 0.545353 0.244298
0.427384 0.547464 0.246409
0.445692 0.549574 0.248519
0.464000 0.551685 0.250630
0.482308 0.553795 0.252740
0.500616 0.555906 0.254851
0.518924 0.558016 0.256961
0.537232 0.560127 0.259072
0.555540 0.562238 0.261183
0.573848 0.564348 0.263293
0.592156 0.566459 0.265404
0.610464 0.568569 0.267514
0.628772 0.570680 0.269625
0.647081 0.572791 0.271736
0.665389 0.574901 0.273846
0.683697 0.577012 0.275957
0.702005 0.579122 0.278067
0.720313 0.581233 0.280178
0.738621 0.583343 0.282288
0.756929 0.585454 0.284399
0.775237 0.587565 0.286510
0.793545 0.589675 0.288620
0.811853 0.591786 0.290731
0.830161 0.593896 0.292841
0.251403 0.549655 0.232403
0.269711 0.551766 0.234513
0.288019 0.553876 0.236624
0.306327 0.555987 0.238735
0.324635 0.558098 0.240845
0.342943 0.560208 0.242956
0.361251 0.562319 0.245066
0.379559 0.564429 0.247177
0.397868 0.566540 0.249288
0.416176 0.568651 0.251398
0.434484 0.570761 0.253509
0.452792 0.572872 0.255619
0.471100 0.574982 0.257730
0.489408 0.577093 0.259840
0.507716 0.579204 0.261951
0.526024 0.581314 0.264062
0.544332 0.583425 0.266172
0.562640 0.585535 0.268283
0.580948 0.587646 0.270393
0.599256 0.589756 0.272504
0.617565 0.591867 0.274615
0.635873 0.593978 0.276725
0.654181 0.596088 0.278836
0.672489 0.598199 0.280946
0.690797 0.600309 0.283057
0.709105 0.602420 0.285167
0.727413 0.604531 0.287278
0.745721 0.606641 0.289389
0.764029 0.608752 0.291499
0.782337 0.610862 0.293610
0.800645 0.612973 0.295720
0.818953 0.615083 0.297831
0.837262 0.617194 0.299942
0.258503 0.572953 0.239503
0.276811 0.575064 0.241614
0.295119 0.577174 0.243724
0.313427 0.579285 0.245835
0.331735 0.581395 0.247945
0.350043 0.583506 0.250056
0.368351 0.585616 0.252166
0.386660 0.587727 0.254277
0.404968 0.589838 0.256388
0.423276 0.591948 0.258498
0.441584 0.594059 0.260609
0.459892 0.596169 0.262719
0.478200 0.598280 0.264830
0.496508 0.600391 0.266941
0.514816 0.602501 0.269051
0.533124 0.604612 0.271162
0.551432 0.606722 0.273272
0.569740 0.608833 0.275383
0.588049 0.610944 0.277494
0.606357 0.613054 0.279604
0.624665 0.615165 0.281715
0.642973 0.617275 0.283825
0.661281 0.619386 0.285936
0.679589 0.621496 0.288046
0.697897 0.623607 0.290157
0.716205 0.625718 0.292268
0.734513 0.627828 0.294378
0.752821 0.629939 0.296489
0.771129 0.632049 0.298599
0.789437 0.634160 0.300710
0.807746 0.636271 0.302821
0.826054 0.638381 0.304931
0.844362 0.640492 0.307042
0.265603 0.596251 0.246603
0.283911 0.598361 0.248714
0.302219 0.600472 0.250824
0.320527 0.602582 0.252935
0.338835 0.604693 0.255045
0.357144 0.606804 0.257156
0.375452 0.608914 0.259267
0.393760 0.611025 0.261377
0.412068 0.613135 0.263488
0.430376 0.615246 0.265598
0.448684 0.617356 0.267709
0.466992 0.619467 0.269820
0.485300 0.621578 0.271930
0.503608 0.623688 0.274041
0.521916 0.625799 0.276151
0.540224 0.627909 0.278262
0.558532 0.630020 0.280372
0.576841 0.632131 0.282483
0.595149 0.634241 0.284594
0.613457 0.636352 0.286704
0.631765 0.638462 0.288815
0.650073 0.640573 0.290925
0.668381 0.642684 0.293036
0.686689 0.644794 0.295147
0.704997 0.646905 0.297257
0.723305 0.649015 0.299368
0.741613 0.651126 0.301478
0.759921 0.653236 0.303589
0.778230 0.655347 0.305700
0.796538 0.657458 0.307810
0.814846 0.659568 0.309921
0.833154 0.661679 0.312031
0.851462 0.663789 0.314142
0.272703 0.619548 0.253703
0.291011 0.621659 0.255814
0.309319 0.623769 0.257924
0.327628 0.625880 0.260035
0.345936 0.627991 0.262146
0.364244 0.630101 0.264256
0.382552 0.632212 0.266367
0.400860 0.634322 0.268477
0.419168 0.636433 0.270588
0.437476 0.638544 0.272699
0.455784 0.640654 0.274809
0.474092 0.642765 0.276920
0.492400 0.644875 0.279030
0.510708 0.646986 0.281141
0.529016 0.649096 0.283251
0.547325 0.651207 0.285362
0.565633 0.653318 0.287473
0.583941 0.655428 0.289583
0.602249 0.657539 0.291694
0.620557 0.659649 0.293804
0.638865 0.661760 0.295915
0.657173 0.663871 0.298026
0.675481 0.665981 0.300136
0.693789 0.668092 0.302247
0.712097 0.670202 0.304357
0.730405 0.672313 0.306468
0.748714 0.674424 0.308579
0.767022 0.676534 0.310689
0.785330 0.678645 0.312800
0.803638 0.680755 0.314910
0.821946 0.682866 0.317021
0.840254 0.684976 0.319131
0.858562 0.687087 0.321242
0.279803 0.642846 0.260803
0.298111 0.644956 0.262914
0.316420 0.647067 0.265025
0.334728 0.649178 0.267135
0.353036 0.651288 0.269246
0.371344 0.653399 0.271356
0.389652 0.655509 0.273467
0.407960 0.657620 0.275578
0.426268 0.659731 0.277688
0.444576 0.661841 0.279799
0.462884 0.663952 0.281909
0.481192 0.666062 0.284020
0.499500 0.668173 0.286130
0.517809 0.670284 0.288241
0.536117 0.672394 0.290352
0.554425 0.674505 0.292462
0.572733 0.676615 0.294573
0.591041 0.678726 0.296683
0.609349 0.680836 0.298794
0.627657 0.682947 0.300905
0.645965 0.685058 0.303015
0.664273 0.687168 0.305126
0.682581 0.689279 0.307236
0.700889 0.691389 0.309347
0.719197 0.693500 0.311457
0.737506 0.695611 0.313568
0.755814 0.697721 0.315679
0.774122 0.699832 0.317789
0.792430 0.701942 0.319900
0.810738 0.704053 0.322010
0.829046 0.706163 0.324121
0.847354 0.708274 0.326232
0.865662 0.710385 0.328342
0.286904 0.666144 0.267904
0.305212 0.668254 0.270014
0.323520 0.670365 0.272125
0.341828 0.672475 0.274235
0.360136 0.674586 0.276346
0.378444 0.676696 0.278456
0.396752 0.678807 0.280567
0.415060 0.680918 0.282678
0.433368 0.683028 0.284788
0.451676 0.685139 0.286899
0.469984 0.687249 0.289009
0.488293 0.689360 0.291120
0.506601 0.691471 0.293231
0.524909 0.693581 0.295341
0.543217 0.695692 0.297452
0.561525 0.697802 0.299562
0.579833 0.699913 0.301673
0.598141 0.702024 0.303784
0.616449 0.704134 0.305894
0.634757 0.706245 0.308005
0.653065 0.708355 0.310115
0.671373 0.710466 0.312226
0.689681 0.712576 0.314336
0.707990 0.714687 0.316447
0.726298 0.716798 0.318558
0.744606 0.718908 0.320668
0.762914 0.721019 0.322779
0.781222 0.723129 0.324889
0.799530 0.725240 0.327000
0.817838 0.727351 0.329111
0.836146 0.729461 0.331221
0.854454 0.731572 0.333332
0.872762 0.733682 0.335442
0.294004 0.689441 0.275004
0.312312 0.691552 0.277114
0.330620 0.693662 0.279225
0.348928 0.695773 0.281335
0.367236 0.697884 0.283446
0.385544 0.699994 0.285557
0.403852 0.702105 0.287667
0.422160 0.704215 0.289778
0.440468 0.706326 0.291888
0.458776 0.708436 0.293999
0.477085 0.710547 0.296110
0.495393 0.712658 0.298220
0.513701 0.714768 0.300331
0.532009 0.716879 0.302441
0.550317 0.718989 0.304552
0.568625 0.721100 0.306662
0.586933 0.723211 0.308773
0.605241 0.725321 0.310884
0.623549 0.727432 0.312994
0.641857 0.729542 0.315105
0.660165 0.731653 0.317215
0.678474 0.733764 0.319326
0.696782 0.735874 0.321437
0.715090 0.737985 0.323547
0.733398 0.740095 0.325658
0.751706 0.742206 0.327768
0.770014 0.744316 0.329879
0.788322 0.746427 0.331990
0.806630 0.748538 0.334100
0.824938 0.750648 0.336211
0.843246 0.752759 0.338321
0.861554 0.754869 0.340432
0.879862 0.756980 0.342542
0.301104 0.712739 0.282104
0.319412 0.714849 0.284214
0.337720 0.716960 0.286325
0.356028 0.719071 0.288436
0.374336 0.721181 0.290546
0.392644 0.723292 0.292657
0.410952 0.725402 0.294767
0.429260 0.727513 0.296878
0.447569 0.729624 0.298989
0.465877 0.731734 0.301099
0.484185 0.733845 0.303210
0.502493 0.735955 0.305320
0.520801 0.738066 0.307431
0.539109 0.740176 0.309541
0.557417 0.742287 0.311652
0.575725 0.744398 0.313763
0.594033 0.746508 0.315873
0.612341 0.748619 0.317984
0.630649 0.750729 0.320094
0.648957 0.752840 0.322205
0.667266 0.754951 0.324316
0.685574 0.757061 0.326426
0.703882 0.759172 0.328537
0.722190 0.761282 0.330647
0.740498 0.763393 0.332758
0.758806 0.765504 0.334869
0.777114 0.767614 0.336979
0.795422 0.769725 0.339090
