luts/vhs.cube
# vhs - ローファイ・90年代 v3 (cooler, more desaturated)
LUT_3D_SIZE 5
0.116500 0.107000 0.097500
0.262965 0.123885 0.114385
0.409429 0.140769 0.131269
0.555894 0.157654 0.148154
0.702359 0.174539 0.165039
0.173301 0.293381 0.154301
0.319766 0.310266 0.171186
0.466231 0.327151 0.188071
0.612695 0.344035 0.204955
0.759160 0.360920 0.221840
0.230102 0.479762 0.211102
0.376567 0.496647 0.227987
0.523032 0.513532 0.244872
0.669496 0.530416 0.261756
0.815961 0.547301 0.278641
0.286904 0.666144 0.267904
0.433368 0.683028 0.284788
0.579833 0.699913 0.301673
0.726298 0.716798 0.318558
0.872762 0.733682 0.335442
0.343705 0.852525 0.324705
0.490169 0.869409 0.341589
0.636634 0.886294 0.358474
0.783099 0.903179 0.375359
0.929564 0.920064 0.392244
0.122234 0.112734 0.232814
0.268699 0.129619 0.249699
0.415164 0.146504 0.266584
0.561628 0.163388 0.283468
0.708093 0.180273 0.300353
0.179035 0.299115 0.289615
0.325500 0.316000 0.306500
0.471965 0.332885 0.323385
0.618429 0.349769 0.340269
0.764894 0.366654 0.357154
0.235836 0.485496 0.346416
0.382301 0.502381 0.363301
0.528766 0.519266 0.380186
0.675231 0.536151 0.397071
0.821695 0.553035 0.413955
0.292638 0.671878 0.403218
0.439102 0.688762 0.420102
0.585567 0.705647 0.436987
0.732032 0.722532 0.453872
0.878496 0.739416 0.470756
0.349439 0.858259 0.460019
0.495904 0.875144 0.476904
0.642368 0.892028 0.493788
0.788833 0.908913 0.510673
0.935298 0.925798 0.527558
0.127968 0.118468 0.368128
0.274433 0.135353 0.385013
0.420898 0.152238 0.401898
0.567362 0.169122 0.418782
0.713827 0.186007 0.435667
0.184769 0.304849 0.424929
0.331234 0.321734 0.441814
0.477699 0.338619 0.458699
0.624164 0.355504 0.475584
0.770628 0.372388 0.492468
0.241571 0.491231 0.481731
0.388035 0.508115 0.498615
0.534500 0.525000 0.515500
0.680965 0.541885 0.532385
0.827429 0.558769 0.549269
0.298372 0.677612 0.538532
0.444836 0.694496 0.555416
0.591301 0.711381 0.572301
0.737766 0.728266 0.589186
0.884231 0.745151 0.606071
0.355173 0.863993 0.595333
0.501638 0.880878 0.612218
0.648102 0.897762 0.629102
0.794567 0.914647 0.645987
0.941032 0.931532 0.662872
0.133702 0.124202 0.503442
0.280167 0.141087 0.520327
0.426632 0.157972 0.537212
0.573096 0.174856 0.554096
0.719561 0.191741 0.570981
0.190504 0.310584 0.560244
0.336968 0.327468 0.577128
0.483433 0.344353 0.594013
0.629898 0.361238 0.610898
0.776362 0.378122 0.627782
0.247305 0.496965 0.617045
0.393769 0.513849 0.633929
0.540234 0.530734 0.650814
0.686699 0.547619 0.667699
0.833164 0.564504 0.684584
0.304106 0.683346 0.673846
0.450571 0.700231 0.690731
0.597035 0.717115 0.707615
0.743500 0.734000 0.724500
0.889965 0.750885 0.741385
0.360907 0.869727 0.730647
0.507372 0.886612 0.747532
0.653836 0.903496 0.764416
0.800301 0.920381 0.781301
0.946766 0.937266 0.798186
0.139436 0.129936 0.638756
0.285901 0.146821 0.655641
0.432366 0.163706 0.672526
0.578831 0.180591 0.689411
0.725295 0.197475 0.706295
0.196238 0.316318 0.695558
0.342702 0.333202 0.712442
0.489167 0.350087 0.729327
0.635632 0.366972 0.746212
0.782096 0.383856 0.763096
0.253039 0.502699 0.752359
0.399504 0.519584 0.769244
0.545968 0.536468 0.786128
0.692433 0.553353 0.803013
0.838898 0.570238 0.819898
0.309840 0.689080 0.809160
0.456305 0.705965 0.826045
0.602769 0.722849 0.842929
0.749234 0.739734 0.859814
0.895699 0.756619 0.876699
0.366641 0.875461 0.865961
0.513106 0.892346 0.882846
0.659571 0.909231 0.899731
0.806035 0.926115 0.916615
0.952500 0.943000 0.933500
